(G-CODE GENERATED BY FLATCAM v8.993 - www.flatcam.org - Version Date: 2020/06/05)

(Name: cnc_socketplateV1.1_copperTop.gtl_0.1000_iso_cnc)
(Type: G-code from Geometry)
(Units: MM)

(Created on Sunday, 27 June 2021 at 12:07)

(This preprocessor is the default preprocessor used by FlatCAM.)
(It is made to work with MACH3 compatible motion controllers.)

(TOOL DIAMETER: 0.08 mm)
(Feedrate_XY: 150.0 mm/min)
(Feedrate_Z: 90.0 mm/min)
(Feedrate rapids 1500.0 mm/min)

(Z_Cut: -0.2 mm)
(DepthPerCut: 0.1 mm <=>2 passes)
(Z_Move: 1.0 mm)
(Z Start: None mm)
(Z End: 15.0 mm)
(Steps per circle: 64)
(Preprocessor Geometry: default)

(X range:    0.1772 ...   69.8760  mm)
(Y range:    0.4312 ...   44.7300  mm)

(Spindle Speed: 1000 RPM)
G21
G90
G94



G01 F150.00
G00 Z1.0000

M03 S1000
G00 X6.3652 Y10.9062
G01 F90.00
G01 Z-0.1000
G01 F150.00
G01 X6.3408 Y10.9151
G01 X6.2490 Y10.9586
G01 X6.1579 Y11.0129
G01 X6.0709 Y11.0773
G01 X5.9923 Y11.1485
G01 X5.9211 Y11.2271
G01 X5.8579 Y11.3123
G01 X5.8034 Y11.4032
G01 X5.7581 Y11.4991
G01 X5.7223 Y11.5989
G01 X5.6966 Y11.7018
G01 X5.6810 Y11.8067
G01 X5.6758 Y11.9126
G01 X5.6810 Y12.0185
G01 X5.6966 Y12.1234
G01 X5.7223 Y12.2263
G01 X5.7581 Y12.3261
G01 X5.8034 Y12.4220
G01 X5.8579 Y12.5129
G01 X5.9211 Y12.5981
G01 X5.9923 Y12.6767
G01 X6.0709 Y12.7479
G01 X6.1561 Y12.8111
G01 X6.2470 Y12.8656
G01 X6.3429 Y12.9109
G01 X6.4427 Y12.9467
G01 X6.5456 Y12.9724
G01 X6.6505 Y12.9880
G01 X6.7564 Y12.9932
G01 X6.8623 Y12.9880
G01 X6.9672 Y12.9724
G01 X7.0701 Y12.9467
G01 X7.1699 Y12.9109
G01 X7.2621 Y12.8675
G01 X7.2694 Y12.8636
G01 X7.3567 Y12.8111
G01 X7.4419 Y12.7479
G01 X7.5175 Y12.6796
G01 X7.5234 Y12.6737
G01 X7.5917 Y12.5981
G01 X7.6549 Y12.5129
G01 X7.7074 Y12.4256
G01 X7.7113 Y12.4183
G01 X7.7547 Y12.3261
G01 X7.7905 Y12.2263
G01 X7.8162 Y12.1234
G01 X7.8313 Y12.0227
G01 X7.8321 Y12.0144
G01 X7.8370 Y11.9126
G01 X7.8318 Y11.8067
G01 X7.8170 Y11.7059
G01 X7.8153 Y11.6977
G01 X7.7905 Y11.5989
G01 X7.7547 Y11.4991
G01 X7.7113 Y11.4069
G01 X7.7074 Y11.3996
G01 X7.6549 Y11.3123
G01 X7.5917 Y11.2271
G01 X7.5234 Y11.1515
G01 X7.5175 Y11.1456
G01 X7.4419 Y11.0773
G01 X7.3567 Y11.0141
G01 X7.2694 Y10.9616
G01 X7.2621 Y10.9577
G01 X7.1737 Y10.9159
G01 X7.1679 Y10.9134
G01 X7.1551 Y10.9088
G01 X7.1743 Y9.6634
G01 X9.5249 Y7.2643
G01 X11.9214 Y4.9162
G01 X51.5238 Y4.9161
G01 X51.5477 Y12.9388
G01 X50.4408 Y12.9388
G01 X50.4320 Y12.9395
G01 X50.4233 Y12.9410
G01 X50.4148 Y12.9433
G01 X50.4065 Y12.9465
G01 X50.3986 Y12.9505
G01 X50.3912 Y12.9552
G01 X50.3842 Y12.9607
G01 X50.3794 Y12.9652
G01 X50.3734 Y12.9717
G01 X50.3682 Y12.9788
G01 X50.3636 Y12.9864
G01 X50.3607 Y12.9923
G01 X50.3575 Y13.0006
G01 X50.3552 Y13.0091
G01 X50.3537 Y13.0178
G01 X50.3530 Y13.0266
G01 X50.3530 Y14.1338
G01 X47.9189 Y14.1338
G01 X47.9130 Y14.1173
G01 X47.9105 Y14.1115
G01 X47.8687 Y14.0231
G01 X47.8648 Y14.0158
G01 X47.8123 Y13.9285
G01 X47.7517 Y13.8466
G01 X47.7464 Y13.8401
G01 X47.6779 Y13.7647
G01 X47.5993 Y13.6935
G01 X47.5141 Y13.6303
G01 X47.4268 Y13.5778
G01 X47.4195 Y13.5739
G01 X47.3273 Y13.5305
G01 X47.2275 Y13.4947
G01 X47.1246 Y13.4690
G01 X47.0197 Y13.4534
G01 X46.9138 Y13.4482
G01 X46.8079 Y13.4534
G01 X46.7030 Y13.4690
G01 X46.6001 Y13.4947
G01 X46.5003 Y13.5305
G01 X46.4044 Y13.5758
G01 X46.3135 Y13.6303
G01 X46.2316 Y13.6909
G01 X46.2251 Y13.6962
G01 X46.1497 Y13.7647
G01 X46.0812 Y13.8401
G01 X46.0759 Y13.8466
G01 X46.0177 Y13.9250
G01 X46.0131 Y13.9320
G01 X45.9608 Y14.0194
G01 X45.9155 Y14.1153
G01 X45.8797 Y14.2151
G01 X45.8540 Y14.3180
G01 X45.8384 Y14.4229
G01 X45.8332 Y14.5288
G01 X45.8384 Y14.6347
G01 X45.8536 Y14.7374
G01 X45.8786 Y14.8385
G01 X45.8810 Y14.8464
G01 X45.9155 Y14.9423
G01 X45.9608 Y15.0382
G01 X46.0153 Y15.1291
G01 X46.0759 Y15.2110
G01 X46.0812 Y15.2175
G01 X46.1497 Y15.2929
G01 X46.2251 Y15.3614
G01 X46.2316 Y15.3667
G01 X46.3135 Y15.4273
G01 X46.4044 Y15.4818
G01 X46.5003 Y15.5271
G01 X46.5962 Y15.5616
G01 X46.6041 Y15.5640
G01 X46.7052 Y15.5890
G01 X46.8079 Y15.6042
G01 X46.9138 Y15.6094
G01 X47.0197 Y15.6042
G01 X47.1205 Y15.5894
G01 X47.1287 Y15.5877
G01 X47.2235 Y15.5640
G01 X47.2314 Y15.5616
G01 X47.3273 Y15.5271
G01 X47.4232 Y15.4818
G01 X47.5141 Y15.4273
G01 X47.5993 Y15.3641
G01 X47.6779 Y15.2929
G01 X47.7464 Y15.2175
G01 X47.7517 Y15.2110
G01 X47.8123 Y15.1291
G01 X47.8648 Y15.0418
G01 X47.8687 Y15.0345
G01 X47.9105 Y14.9461
G01 X47.9130 Y14.9403
G01 X47.9189 Y14.9238
G01 X50.3530 Y14.9237
G01 X50.3531 Y16.0332
G01 X50.3547 Y16.0464
G01 X50.3583 Y16.0591
G01 X50.3636 Y16.0712
G01 X50.3707 Y16.0824
G01 X50.3794 Y16.0924
G01 X50.3894 Y16.1011
G01 X50.4006 Y16.1082
G01 X50.4127 Y16.1135
G01 X50.4211 Y16.1161
G01 X50.4276 Y16.1175
G01 X50.4342 Y16.1184
G01 X50.4428 Y16.1188
G01 X53.4452 Y16.1188
G01 X53.4518 Y16.1184
G01 X53.4606 Y16.1171
G01 X53.4691 Y16.1149
G01 X53.4774 Y16.1119
G01 X53.4854 Y16.1082
G01 X53.4930 Y16.1036
G01 X53.5001 Y16.0984
G01 X53.5051 Y16.0940
G01 X53.5111 Y16.0876
G01 X53.5166 Y16.0806
G01 X53.5202 Y16.0751
G01 X53.5244 Y16.0673
G01 X53.5277 Y16.0591
G01 X53.5297 Y16.0528
G01 X53.5317 Y16.0442
G01 X53.5326 Y16.0376
G01 X53.5330 Y16.0290
G01 X53.5330 Y13.0286
G01 X53.5326 Y13.0200
G01 X53.5313 Y13.0112
G01 X53.5291 Y13.0027
G01 X53.5270 Y12.9964
G01 X53.5224 Y12.9864
G01 X53.5153 Y12.9752
G01 X53.5066 Y12.9652
G01 X53.4966 Y12.9565
G01 X53.4854 Y12.9494
G01 X53.4733 Y12.9441
G01 X53.4606 Y12.9405
G01 X53.4474 Y12.9389
G01 X52.3376 Y12.9388
G01 X52.3124 Y4.5159
G01 X52.3105 Y4.4812
G01 X52.3047 Y4.4429
G01 X52.2952 Y4.4053
G01 X52.2820 Y4.3689
G01 X52.2653 Y4.3339
G01 X52.2461 Y4.3019
G01 X52.2230 Y4.2707
G01 X52.1997 Y4.2449
G01 X52.1930 Y4.2382
G01 X52.1682 Y4.2160
G01 X52.1404 Y4.1952
G01 X52.1342 Y4.1910
G01 X52.1074 Y4.1749
G01 X52.0990 Y4.1705
G01 X52.0675 Y4.1558
G01 X52.0310 Y4.1429
G01 X51.9934 Y4.1336
G01 X51.9564 Y4.1282
G01 X51.9178 Y4.1263
G01 X11.7600 Y4.1263
G01 X11.7255 Y4.1278
G01 X11.6912 Y4.1324
G01 X11.6791 Y4.1347
G01 X11.6515 Y4.1415
G01 X11.6434 Y4.1439
G01 X11.6091 Y4.1563
G01 X11.5776 Y4.1710
G01 X11.5477 Y4.1884
G01 X11.5390 Y4.1941
G01 X11.5128 Y4.2134
G01 X11.4854 Y4.2376
G01 X8.9690 Y6.7031
G01 X6.4995 Y9.2234
G01 X6.4818 Y9.2427
G01 X6.4740 Y9.2522
G01 X6.4568 Y9.2752
G01 X6.4500 Y9.2854
G01 X6.4375 Y9.3062
G01 X6.4306 Y9.3190
G01 X6.4202 Y9.3408
G01 X6.4154 Y9.3522
G01 X6.4057 Y9.3792
G01 X6.4021 Y9.3909
G01 X6.3962 Y9.4144
G01 X6.3933 Y9.4287
G01 X6.3897 Y9.4527
G01 X6.3882 Y9.4671
G01 X6.3869 Y9.4933
G01 X6.3652 Y10.9062
G00 X6.3652 Y10.9062
G01 F90.00
G01 Z-0.2000
G01 F150.00
G01 X6.3408 Y10.9151
G01 X6.2490 Y10.9586
G01 X6.1579 Y11.0129
G01 X6.0709 Y11.0773
G01 X5.9923 Y11.1485
G01 X5.9211 Y11.2271
G01 X5.8579 Y11.3123
G01 X5.8034 Y11.4032
G01 X5.7581 Y11.4991
G01 X5.7223 Y11.5989
G01 X5.6966 Y11.7018
G01 X5.6810 Y11.8067
G01 X5.6758 Y11.9126
G01 X5.6810 Y12.0185
G01 X5.6966 Y12.1234
G01 X5.7223 Y12.2263
G01 X5.7581 Y12.3261
G01 X5.8034 Y12.4220
G01 X5.8579 Y12.5129
G01 X5.9211 Y12.5981
G01 X5.9923 Y12.6767
G01 X6.0709 Y12.7479
G01 X6.1561 Y12.8111
G01 X6.2470 Y12.8656
G01 X6.3429 Y12.9109
G01 X6.4427 Y12.9467
G01 X6.5456 Y12.9724
G01 X6.6505 Y12.9880
G01 X6.7564 Y12.9932
G01 X6.8623 Y12.9880
G01 X6.9672 Y12.9724
G01 X7.0701 Y12.9467
G01 X7.1699 Y12.9109
G01 X7.2621 Y12.8675
G01 X7.2694 Y12.8636
G01 X7.3567 Y12.8111
G01 X7.4419 Y12.7479
G01 X7.5175 Y12.6796
G01 X7.5234 Y12.6737
G01 X7.5917 Y12.5981
G01 X7.6549 Y12.5129
G01 X7.7074 Y12.4256
G01 X7.7113 Y12.4183
G01 X7.7547 Y12.3261
G01 X7.7905 Y12.2263
G01 X7.8162 Y12.1234
G01 X7.8313 Y12.0227
G01 X7.8321 Y12.0144
G01 X7.8370 Y11.9126
G01 X7.8318 Y11.8067
G01 X7.8170 Y11.7059
G01 X7.8153 Y11.6977
G01 X7.7905 Y11.5989
G01 X7.7547 Y11.4991
G01 X7.7113 Y11.4069
G01 X7.7074 Y11.3996
G01 X7.6549 Y11.3123
G01 X7.5917 Y11.2271
G01 X7.5234 Y11.1515
G01 X7.5175 Y11.1456
G01 X7.4419 Y11.0773
G01 X7.3567 Y11.0141
G01 X7.2694 Y10.9616
G01 X7.2621 Y10.9577
G01 X7.1737 Y10.9159
G01 X7.1679 Y10.9134
G01 X7.1551 Y10.9088
G01 X7.1743 Y9.6634
G01 X9.5249 Y7.2643
G01 X11.9214 Y4.9162
G01 X51.5238 Y4.9161
G01 X51.5477 Y12.9388
G01 X50.4408 Y12.9388
G01 X50.4320 Y12.9395
G01 X50.4233 Y12.9410
G01 X50.4148 Y12.9433
G01 X50.4065 Y12.9465
G01 X50.3986 Y12.9505
G01 X50.3912 Y12.9552
G01 X50.3842 Y12.9607
G01 X50.3794 Y12.9652
G01 X50.3734 Y12.9717
G01 X50.3682 Y12.9788
G01 X50.3636 Y12.9864
G01 X50.3607 Y12.9923
G01 X50.3575 Y13.0006
G01 X50.3552 Y13.0091
G01 X50.3537 Y13.0178
G01 X50.3530 Y13.0266
G01 X50.3530 Y14.1338
G01 X47.9189 Y14.1338
G01 X47.9130 Y14.1173
G01 X47.9105 Y14.1115
G01 X47.8687 Y14.0231
G01 X47.8648 Y14.0158
G01 X47.8123 Y13.9285
G01 X47.7517 Y13.8466
G01 X47.7464 Y13.8401
G01 X47.6779 Y13.7647
G01 X47.5993 Y13.6935
G01 X47.5141 Y13.6303
G01 X47.4268 Y13.5778
G01 X47.4195 Y13.5739
G01 X47.3273 Y13.5305
G01 X47.2275 Y13.4947
G01 X47.1246 Y13.4690
G01 X47.0197 Y13.4534
G01 X46.9138 Y13.4482
G01 X46.8079 Y13.4534
G01 X46.7030 Y13.4690
G01 X46.6001 Y13.4947
G01 X46.5003 Y13.5305
G01 X46.4044 Y13.5758
G01 X46.3135 Y13.6303
G01 X46.2316 Y13.6909
G01 X46.2251 Y13.6962
G01 X46.1497 Y13.7647
G01 X46.0812 Y13.8401
G01 X46.0759 Y13.8466
G01 X46.0177 Y13.9250
G01 X46.0131 Y13.9320
G01 X45.9608 Y14.0194
G01 X45.9155 Y14.1153
G01 X45.8797 Y14.2151
G01 X45.8540 Y14.3180
G01 X45.8384 Y14.4229
G01 X45.8332 Y14.5288
G01 X45.8384 Y14.6347
G01 X45.8536 Y14.7374
G01 X45.8786 Y14.8385
G01 X45.8810 Y14.8464
G01 X45.9155 Y14.9423
G01 X45.9608 Y15.0382
G01 X46.0153 Y15.1291
G01 X46.0759 Y15.2110
G01 X46.0812 Y15.2175
G01 X46.1497 Y15.2929
G01 X46.2251 Y15.3614
G01 X46.2316 Y15.3667
G01 X46.3135 Y15.4273
G01 X46.4044 Y15.4818
G01 X46.5003 Y15.5271
G01 X46.5962 Y15.5616
G01 X46.6041 Y15.5640
G01 X46.7052 Y15.5890
G01 X46.8079 Y15.6042
G01 X46.9138 Y15.6094
G01 X47.0197 Y15.6042
G01 X47.1205 Y15.5894
G01 X47.1287 Y15.5877
G01 X47.2235 Y15.5640
G01 X47.2314 Y15.5616
G01 X47.3273 Y15.5271
G01 X47.4232 Y15.4818
G01 X47.5141 Y15.4273
G01 X47.5993 Y15.3641
G01 X47.6779 Y15.2929
G01 X47.7464 Y15.2175
G01 X47.7517 Y15.2110
G01 X47.8123 Y15.1291
G01 X47.8648 Y15.0418
G01 X47.8687 Y15.0345
G01 X47.9105 Y14.9461
G01 X47.9130 Y14.9403
G01 X47.9189 Y14.9238
G01 X50.3530 Y14.9237
G01 X50.3531 Y16.0332
G01 X50.3547 Y16.0464
G01 X50.3583 Y16.0591
G01 X50.3636 Y16.0712
G01 X50.3707 Y16.0824
G01 X50.3794 Y16.0924
G01 X50.3894 Y16.1011
G01 X50.4006 Y16.1082
G01 X50.4127 Y16.1135
G01 X50.4211 Y16.1161
G01 X50.4276 Y16.1175
G01 X50.4342 Y16.1184
G01 X50.4428 Y16.1188
G01 X53.4452 Y16.1188
G01 X53.4518 Y16.1184
G01 X53.4606 Y16.1171
G01 X53.4691 Y16.1149
G01 X53.4774 Y16.1119
G01 X53.4854 Y16.1082
G01 X53.4930 Y16.1036
G01 X53.5001 Y16.0984
G01 X53.5051 Y16.0940
G01 X53.5111 Y16.0876
G01 X53.5166 Y16.0806
G01 X53.5202 Y16.0751
G01 X53.5244 Y16.0673
G01 X53.5277 Y16.0591
G01 X53.5297 Y16.0528
G01 X53.5317 Y16.0442
G01 X53.5326 Y16.0376
G01 X53.5330 Y16.0290
G01 X53.5330 Y13.0286
G01 X53.5326 Y13.0200
G01 X53.5313 Y13.0112
G01 X53.5291 Y13.0027
G01 X53.5270 Y12.9964
G01 X53.5224 Y12.9864
G01 X53.5153 Y12.9752
G01 X53.5066 Y12.9652
G01 X53.4966 Y12.9565
G01 X53.4854 Y12.9494
G01 X53.4733 Y12.9441
G01 X53.4606 Y12.9405
G01 X53.4474 Y12.9389
G01 X52.3376 Y12.9388
G01 X52.3124 Y4.5159
G01 X52.3105 Y4.4812
G01 X52.3047 Y4.4429
G01 X52.2952 Y4.4053
G01 X52.2820 Y4.3689
G01 X52.2653 Y4.3339
G01 X52.2461 Y4.3019
G01 X52.2230 Y4.2707
G01 X52.1997 Y4.2449
G01 X52.1930 Y4.2382
G01 X52.1682 Y4.2160
G01 X52.1404 Y4.1952
G01 X52.1342 Y4.1910
G01 X52.1074 Y4.1749
G01 X52.0990 Y4.1705
G01 X52.0675 Y4.1558
G01 X52.0310 Y4.1429
G01 X51.9934 Y4.1336
G01 X51.9564 Y4.1282
G01 X51.9178 Y4.1263
G01 X11.7600 Y4.1263
G01 X11.7255 Y4.1278
G01 X11.6912 Y4.1324
G01 X11.6791 Y4.1347
G01 X11.6515 Y4.1415
G01 X11.6434 Y4.1439
G01 X11.6091 Y4.1563
G01 X11.5776 Y4.1710
G01 X11.5477 Y4.1884
G01 X11.5390 Y4.1941
G01 X11.5128 Y4.2134
G01 X11.4854 Y4.2376
G01 X8.9690 Y6.7031
G01 X6.4995 Y9.2234
G01 X6.4818 Y9.2427
G01 X6.4740 Y9.2522
G01 X6.4568 Y9.2752
G01 X6.4500 Y9.2854
G01 X6.4375 Y9.3062
G01 X6.4306 Y9.3190
G01 X6.4202 Y9.3408
G01 X6.4154 Y9.3522
G01 X6.4057 Y9.3792
G01 X6.4021 Y9.3909
G01 X6.3962 Y9.4144
G01 X6.3933 Y9.4287
G01 X6.3897 Y9.4527
G01 X6.3882 Y9.4671
G01 X6.3869 Y9.4933
G01 X6.3652 Y10.9062
G00 Z1.0000
G00 X7.7484 Y14.8799
G01 F90.00
G01 Z-0.1000
G01 F150.00
G01 X9.2342 Y14.9236
G01 X9.2478 Y14.9237
G01 X9.2705 Y14.9229
G01 X9.2821 Y14.9220
G01 X9.3090 Y14.9186
G01 X9.3248 Y14.9157
G01 X9.3469 Y14.9105
G01 X9.3581 Y14.9074
G01 X9.3839 Y14.8987
G01 X9.3988 Y14.8928
G01 X9.4215 Y14.8824
G01 X9.4337 Y14.8761
G01 X9.4534 Y14.8646
G01 X9.4632 Y14.8584
G01 X9.4853 Y14.8427
G01 X9.4978 Y14.8327
G01 X9.5149 Y14.8177
G01 X9.5233 Y14.8096
G01 X9.5419 Y14.7899
G01 X9.5523 Y14.7776
G01 X9.5674 Y14.7578
G01 X9.5752 Y14.7464
G01 X9.5894 Y14.7232
G01 X9.5949 Y14.7130
G01 X9.6050 Y14.6926
G01 X9.6113 Y14.6779
G01 X9.6193 Y14.6566
G01 X9.6229 Y14.6456
G01 X9.6300 Y14.6194
G01 X9.6334 Y14.6037
G01 X9.6373 Y14.5791
G01 X9.6388 Y14.5653
G01 X9.6403 Y14.5426
G01 X9.6405 Y14.5290
G01 X9.6405 Y9.6632
G01 X11.9235 Y7.3802
G01 X41.4896 Y7.4301
G01 X41.4897 Y14.1338
G01 X38.4708 Y14.1338
G01 X38.4707 Y13.0244
G01 X38.4691 Y13.0112
G01 X38.4675 Y13.0048
G01 X38.4648 Y12.9964
G01 X38.4622 Y12.9903
G01 X38.4580 Y12.9825
G01 X38.4544 Y12.9770
G01 X38.4489 Y12.9700
G01 X38.4429 Y12.9636
G01 X38.4379 Y12.9592
G01 X38.4308 Y12.9540
G01 X38.4252 Y12.9505
G01 X38.4193 Y12.9474
G01 X38.4111 Y12.9441
G01 X38.3984 Y12.9405
G01 X38.3896 Y12.9392
G01 X38.3810 Y12.9388
G01 X35.3806 Y12.9388
G01 X35.3676 Y12.9398
G01 X35.3547 Y12.9427
G01 X35.3423 Y12.9474
G01 X35.3308 Y12.9540
G01 X35.3204 Y12.9621
G01 X35.3156 Y12.9667
G01 X35.3099 Y12.9734
G01 X35.3025 Y12.9844
G01 X35.2985 Y12.9923
G01 X35.2961 Y12.9985
G01 X35.2935 Y13.0069
G01 X35.2921 Y13.0134
G01 X35.2908 Y13.0266
G01 X35.2908 Y16.0290
G01 X35.2918 Y16.0420
G01 X35.2941 Y16.0528
G01 X35.2977 Y16.0632
G01 X35.3025 Y16.0732
G01 X35.3085 Y16.0824
G01 X35.3156 Y16.0909
G01 X35.3237 Y16.0984
G01 X35.3345 Y16.1060
G01 X35.3443 Y16.1111
G01 X35.3547 Y16.1149
G01 X35.3654 Y16.1175
G01 X35.3786 Y16.1188
G01 X38.3810 Y16.1188
G01 X38.3896 Y16.1184
G01 X38.3962 Y16.1175
G01 X38.4048 Y16.1155
G01 X38.4111 Y16.1135
G01 X38.4232 Y16.1082
G01 X38.4344 Y16.1011
G01 X38.4444 Y16.0924
G01 X38.4531 Y16.0824
G01 X38.4602 Y16.0712
G01 X38.4655 Y16.0591
G01 X38.4691 Y16.0464
G01 X38.4707 Y16.0332
G01 X38.4708 Y14.9238
G01 X43.3687 Y14.9237
G01 X43.3746 Y14.9403
G01 X43.3771 Y14.9461
G01 X43.4189 Y15.0345
G01 X43.4228 Y15.0418
G01 X43.4753 Y15.1291
G01 X43.5359 Y15.2110
G01 X43.5412 Y15.2175
G01 X43.6097 Y15.2929
G01 X43.6883 Y15.3641
G01 X43.7735 Y15.4273
G01 X43.8644 Y15.4818
G01 X43.9603 Y15.5271
G01 X44.0562 Y15.5616
G01 X44.0641 Y15.5640
G01 X44.1589 Y15.5877
G01 X44.1671 Y15.5894
G01 X44.2679 Y15.6042
G01 X44.3738 Y15.6094
G01 X44.4797 Y15.6042
G01 X44.5805 Y15.5894
G01 X44.5887 Y15.5877
G01 X44.6875 Y15.5629
G01 X44.7834 Y15.5286
G01 X44.7911 Y15.5255
G01 X44.8795 Y15.4837
G01 X44.8868 Y15.4798
G01 X44.9741 Y15.4273
G01 X45.0593 Y15.3641
G01 X45.1379 Y15.2929
G01 X45.2091 Y15.2143
G01 X45.2723 Y15.1291
G01 X45.3268 Y15.0382
G01 X45.3721 Y14.9423
G01 X45.4066 Y14.8464
G01 X45.4090 Y14.8385
G01 X45.4327 Y14.7437
G01 X45.4344 Y14.7355
G01 X45.4492 Y14.6347
G01 X45.4544 Y14.5288
G01 X45.4492 Y14.4229
G01 X45.4336 Y14.3180
G01 X45.4079 Y14.2151
G01 X45.3736 Y14.1192
G01 X45.3705 Y14.1115
G01 X45.3268 Y14.0194
G01 X45.2745 Y13.9320
G01 X45.2699 Y13.9250
G01 X45.2117 Y13.8466
G01 X45.2064 Y13.8401
G01 X45.1379 Y13.7647
G01 X45.0593 Y13.6935
G01 X44.9741 Y13.6303
G01 X44.8832 Y13.5758
G01 X44.7873 Y13.5305
G01 X44.6875 Y13.4947
G01 X44.5846 Y13.4690
G01 X44.4819 Y13.4536
G01 X44.3738 Y13.4482
G01 X44.2720 Y13.4531
G01 X44.2637 Y13.4539
G01 X44.1671 Y13.4682
G01 X44.1589 Y13.4699
G01 X44.0601 Y13.4947
G01 X43.9603 Y13.5305
G01 X43.8644 Y13.5758
G01 X43.7770 Y13.6281
G01 X43.7700 Y13.6327
G01 X43.6916 Y13.6909
G01 X43.6851 Y13.6962
G01 X43.6097 Y13.7647
G01 X43.5385 Y13.8433
G01 X43.4753 Y13.9285
G01 X43.4228 Y14.0158
G01 X43.4189 Y14.0231
G01 X43.3771 Y14.1115
G01 X43.3746 Y14.1173
G01 X43.3687 Y14.1338
G01 X42.2796 Y14.1338
G01 X42.2795 Y7.0316
G01 X42.2776 Y6.9969
G01 X42.2719 Y6.9586
G01 X42.2628 Y6.9220
G01 X42.2512 Y6.8892
G01 X42.2478 Y6.8808
G01 X42.2351 Y6.8539
G01 X42.2309 Y6.8460
G01 X42.2129 Y6.8162
G01 X42.1898 Y6.7851
G01 X42.1645 Y6.7571
G01 X42.1388 Y6.7336
G01 X42.1319 Y6.7279
G01 X42.1080 Y6.7102
G01 X42.1005 Y6.7052
G01 X42.0706 Y6.6874
G01 X42.0356 Y6.6708
G01 X42.0001 Y6.6581
G01 X41.9644 Y6.6490
G01 X41.9241 Y6.6428
G01 X41.8855 Y6.6409
G01 X11.7600 Y6.5900
G01 X11.7223 Y6.5919
G01 X11.6840 Y6.5975
G01 X11.6464 Y6.6068
G01 X11.6098 Y6.6198
G01 X11.5748 Y6.6363
G01 X11.5415 Y6.6561
G01 X11.5103 Y6.6792
G01 X11.4830 Y6.7037
G01 X8.9662 Y9.2205
G01 X8.9403 Y9.2490
G01 X8.9172 Y9.2802
G01 X8.8973 Y9.3134
G01 X8.8799 Y9.3505
G01 X8.8677 Y9.3850
G01 X8.8582 Y9.4225
G01 X8.8525 Y9.4609
G01 X8.8507 Y9.4994
G01 X8.8507 Y14.1221
G01 X7.7732 Y14.0904
G01 X7.7539 Y14.0370
G01 X7.7083 Y13.9413
G01 X7.6549 Y13.8523
G01 X7.5931 Y13.7688
G01 X7.5234 Y13.6915
G01 X7.5175 Y13.6856
G01 X7.4419 Y13.6173
G01 X7.3586 Y13.5554
G01 X7.2694 Y13.5016
G01 X7.2621 Y13.4977
G01 X7.1699 Y13.4543
G01 X7.0701 Y13.4185
G01 X6.9713 Y13.3937
G01 X6.9631 Y13.3920
G01 X6.8623 Y13.3772
G01 X6.7586 Y13.3720
G01 X6.6546 Y13.3769
G01 X6.6463 Y13.3777
G01 X6.5456 Y13.3928
G01 X6.4427 Y13.4185
G01 X6.3468 Y13.4528
G01 X6.3391 Y13.4559
G01 X6.2470 Y13.4996
G01 X6.1561 Y13.5541
G01 X6.0742 Y13.6147
G01 X6.0677 Y13.6200
G01 X5.9923 Y13.6885
G01 X5.9211 Y13.7671
G01 X5.8603 Y13.8488
G01 X5.8557 Y13.8558
G01 X5.8034 Y13.9432
G01 X5.7581 Y14.0391
G01 X5.7223 Y14.1389
G01 X5.6966 Y14.2418
G01 X5.6810 Y14.3467
G01 X5.6758 Y14.4526
G01 X5.6810 Y14.5585
G01 X5.6966 Y14.6634
G01 X5.7223 Y14.7663
G01 X5.7581 Y14.8661
G01 X5.8034 Y14.9620
G01 X5.8579 Y15.0529
G01 X5.9211 Y15.1381
G01 X5.9923 Y15.2167
G01 X6.0709 Y15.2879
G01 X6.1561 Y15.3511
G01 X6.2470 Y15.4056
G01 X6.3429 Y15.4509
G01 X6.4427 Y15.4867
G01 X6.5456 Y15.5124
G01 X6.6505 Y15.5280
G01 X6.7564 Y15.5332
G01 X6.8623 Y15.5280
G01 X6.9672 Y15.5124
G01 X7.0701 Y15.4867
G01 X7.1699 Y15.4509
G01 X7.2658 Y15.4056
G01 X7.3567 Y15.3511
G01 X7.4419 Y15.2879
G01 X7.5205 Y15.2167
G01 X7.5917 Y15.1381
G01 X7.6549 Y15.0529
G01 X7.7094 Y14.9620
G01 X7.7484 Y14.8799
G00 X7.7484 Y14.8799
G01 F90.00
G01 Z-0.2000
G01 F150.00
G01 X9.2342 Y14.9236
G01 X9.2478 Y14.9237
G01 X9.2705 Y14.9229
G01 X9.2821 Y14.9220
G01 X9.3090 Y14.9186
G01 X9.3248 Y14.9157
G01 X9.3469 Y14.9105
G01 X9.3581 Y14.9074
G01 X9.3839 Y14.8987
G01 X9.3988 Y14.8928
G01 X9.4215 Y14.8824
G01 X9.4337 Y14.8761
G01 X9.4534 Y14.8646
G01 X9.4632 Y14.8584
G01 X9.4853 Y14.8427
G01 X9.4978 Y14.8327
G01 X9.5149 Y14.8177
G01 X9.5233 Y14.8096
G01 X9.5419 Y14.7899
G01 X9.5523 Y14.7776
G01 X9.5674 Y14.7578
G01 X9.5752 Y14.7464
G01 X9.5894 Y14.7232
G01 X9.5949 Y14.7130
G01 X9.6050 Y14.6926
G01 X9.6113 Y14.6779
G01 X9.6193 Y14.6566
G01 X9.6229 Y14.6456
G01 X9.6300 Y14.6194
G01 X9.6334 Y14.6037
G01 X9.6373 Y14.5791
G01 X9.6388 Y14.5653
G01 X9.6403 Y14.5426
G01 X9.6405 Y14.5290
G01 X9.6405 Y9.6632
G01 X11.9235 Y7.3802
G01 X41.4896 Y7.4301
G01 X41.4897 Y14.1338
G01 X38.4708 Y14.1338
G01 X38.4707 Y13.0244
G01 X38.4691 Y13.0112
G01 X38.4675 Y13.0048
G01 X38.4648 Y12.9964
G01 X38.4622 Y12.9903
G01 X38.4580 Y12.9825
G01 X38.4544 Y12.9770
G01 X38.4489 Y12.9700
G01 X38.4429 Y12.9636
G01 X38.4379 Y12.9592
G01 X38.4308 Y12.9540
G01 X38.4252 Y12.9505
G01 X38.4193 Y12.9474
G01 X38.4111 Y12.9441
G01 X38.3984 Y12.9405
G01 X38.3896 Y12.9392
G01 X38.3810 Y12.9388
G01 X35.3806 Y12.9388
G01 X35.3676 Y12.9398
G01 X35.3547 Y12.9427
G01 X35.3423 Y12.9474
G01 X35.3308 Y12.9540
G01 X35.3204 Y12.9621
G01 X35.3156 Y12.9667
G01 X35.3099 Y12.9734
G01 X35.3025 Y12.9844
G01 X35.2985 Y12.9923
G01 X35.2961 Y12.9985
G01 X35.2935 Y13.0069
G01 X35.2921 Y13.0134
G01 X35.2908 Y13.0266
G01 X35.2908 Y16.0290
G01 X35.2918 Y16.0420
G01 X35.2941 Y16.0528
G01 X35.2977 Y16.0632
G01 X35.3025 Y16.0732
G01 X35.3085 Y16.0824
G01 X35.3156 Y16.0909
G01 X35.3237 Y16.0984
G01 X35.3345 Y16.1060
G01 X35.3443 Y16.1111
G01 X35.3547 Y16.1149
G01 X35.3654 Y16.1175
G01 X35.3786 Y16.1188
G01 X38.3810 Y16.1188
G01 X38.3896 Y16.1184
G01 X38.3962 Y16.1175
G01 X38.4048 Y16.1155
G01 X38.4111 Y16.1135
G01 X38.4232 Y16.1082
G01 X38.4344 Y16.1011
G01 X38.4444 Y16.0924
G01 X38.4531 Y16.0824
G01 X38.4602 Y16.0712
G01 X38.4655 Y16.0591
G01 X38.4691 Y16.0464
G01 X38.4707 Y16.0332
G01 X38.4708 Y14.9238
G01 X43.3687 Y14.9237
G01 X43.3746 Y14.9403
G01 X43.3771 Y14.9461
G01 X43.4189 Y15.0345
G01 X43.4228 Y15.0418
G01 X43.4753 Y15.1291
G01 X43.5359 Y15.2110
G01 X43.5412 Y15.2175
G01 X43.6097 Y15.2929
G01 X43.6883 Y15.3641
G01 X43.7735 Y15.4273
G01 X43.8644 Y15.4818
G01 X43.9603 Y15.5271
G01 X44.0562 Y15.5616
G01 X44.0641 Y15.5640
G01 X44.1589 Y15.5877
G01 X44.1671 Y15.5894
G01 X44.2679 Y15.6042
G01 X44.3738 Y15.6094
G01 X44.4797 Y15.6042
G01 X44.5805 Y15.5894
G01 X44.5887 Y15.5877
G01 X44.6875 Y15.5629
G01 X44.7834 Y15.5286
G01 X44.7911 Y15.5255
G01 X44.8795 Y15.4837
G01 X44.8868 Y15.4798
G01 X44.9741 Y15.4273
G01 X45.0593 Y15.3641
G01 X45.1379 Y15.2929
G01 X45.2091 Y15.2143
G01 X45.2723 Y15.1291
G01 X45.3268 Y15.0382
G01 X45.3721 Y14.9423
G01 X45.4066 Y14.8464
G01 X45.4090 Y14.8385
G01 X45.4327 Y14.7437
G01 X45.4344 Y14.7355
G01 X45.4492 Y14.6347
G01 X45.4544 Y14.5288
G01 X45.4492 Y14.4229
G01 X45.4336 Y14.3180
G01 X45.4079 Y14.2151
G01 X45.3736 Y14.1192
G01 X45.3705 Y14.1115
G01 X45.3268 Y14.0194
G01 X45.2745 Y13.9320
G01 X45.2699 Y13.9250
G01 X45.2117 Y13.8466
G01 X45.2064 Y13.8401
G01 X45.1379 Y13.7647
G01 X45.0593 Y13.6935
G01 X44.9741 Y13.6303
G01 X44.8832 Y13.5758
G01 X44.7873 Y13.5305
G01 X44.6875 Y13.4947
G01 X44.5846 Y13.4690
G01 X44.4819 Y13.4536
G01 X44.3738 Y13.4482
G01 X44.2720 Y13.4531
G01 X44.2637 Y13.4539
G01 X44.1671 Y13.4682
G01 X44.1589 Y13.4699
G01 X44.0601 Y13.4947
G01 X43.9603 Y13.5305
G01 X43.8644 Y13.5758
G01 X43.7770 Y13.6281
G01 X43.7700 Y13.6327
G01 X43.6916 Y13.6909
G01 X43.6851 Y13.6962
G01 X43.6097 Y13.7647
G01 X43.5385 Y13.8433
G01 X43.4753 Y13.9285
G01 X43.4228 Y14.0158
G01 X43.4189 Y14.0231
G01 X43.3771 Y14.1115
G01 X43.3746 Y14.1173
G01 X43.3687 Y14.1338
G01 X42.2796 Y14.1338
G01 X42.2795 Y7.0316
G01 X42.2776 Y6.9969
G01 X42.2719 Y6.9586
G01 X42.2628 Y6.9220
G01 X42.2512 Y6.8892
G01 X42.2478 Y6.8808
G01 X42.2351 Y6.8539
G01 X42.2309 Y6.8460
G01 X42.2129 Y6.8162
G01 X42.1898 Y6.7851
G01 X42.1645 Y6.7571
G01 X42.1388 Y6.7336
G01 X42.1319 Y6.7279
G01 X42.1080 Y6.7102
G01 X42.1005 Y6.7052
G01 X42.0706 Y6.6874
G01 X42.0356 Y6.6708
G01 X42.0001 Y6.6581
G01 X41.9644 Y6.6490
G01 X41.9241 Y6.6428
G01 X41.8855 Y6.6409
G01 X11.7600 Y6.5900
G01 X11.7223 Y6.5919
G01 X11.6840 Y6.5975
G01 X11.6464 Y6.6068
G01 X11.6098 Y6.6198
G01 X11.5748 Y6.6363
G01 X11.5415 Y6.6561
G01 X11.5103 Y6.6792
G01 X11.4830 Y6.7037
G01 X8.9662 Y9.2205
G01 X8.9403 Y9.2490
G01 X8.9172 Y9.2802
G01 X8.8973 Y9.3134
G01 X8.8799 Y9.3505
G01 X8.8677 Y9.3850
G01 X8.8582 Y9.4225
G01 X8.8525 Y9.4609
G01 X8.8507 Y9.4994
G01 X8.8507 Y14.1221
G01 X7.7732 Y14.0904
G01 X7.7539 Y14.0370
G01 X7.7083 Y13.9413
G01 X7.6549 Y13.8523
G01 X7.5931 Y13.7688
G01 X7.5234 Y13.6915
G01 X7.5175 Y13.6856
G01 X7.4419 Y13.6173
G01 X7.3586 Y13.5554
G01 X7.2694 Y13.5016
G01 X7.2621 Y13.4977
G01 X7.1699 Y13.4543
G01 X7.0701 Y13.4185
G01 X6.9713 Y13.3937
G01 X6.9631 Y13.3920
G01 X6.8623 Y13.3772
G01 X6.7586 Y13.3720
G01 X6.6546 Y13.3769
G01 X6.6463 Y13.3777
G01 X6.5456 Y13.3928
G01 X6.4427 Y13.4185
G01 X6.3468 Y13.4528
G01 X6.3391 Y13.4559
G01 X6.2470 Y13.4996
G01 X6.1561 Y13.5541
G01 X6.0742 Y13.6147
G01 X6.0677 Y13.6200
G01 X5.9923 Y13.6885
G01 X5.9211 Y13.7671
G01 X5.8603 Y13.8488
G01 X5.8557 Y13.8558
G01 X5.8034 Y13.9432
G01 X5.7581 Y14.0391
G01 X5.7223 Y14.1389
G01 X5.6966 Y14.2418
G01 X5.6810 Y14.3467
G01 X5.6758 Y14.4526
G01 X5.6810 Y14.5585
G01 X5.6966 Y14.6634
G01 X5.7223 Y14.7663
G01 X5.7581 Y14.8661
G01 X5.8034 Y14.9620
G01 X5.8579 Y15.0529
G01 X5.9211 Y15.1381
G01 X5.9923 Y15.2167
G01 X6.0709 Y15.2879
G01 X6.1561 Y15.3511
G01 X6.2470 Y15.4056
G01 X6.3429 Y15.4509
G01 X6.4427 Y15.4867
G01 X6.5456 Y15.5124
G01 X6.6505 Y15.5280
G01 X6.7564 Y15.5332
G01 X6.8623 Y15.5280
G01 X6.9672 Y15.5124
G01 X7.0701 Y15.4867
G01 X7.1699 Y15.4509
G01 X7.2658 Y15.4056
G01 X7.3567 Y15.3511
G01 X7.4419 Y15.2879
G01 X7.5205 Y15.2167
G01 X7.5917 Y15.1381
G01 X7.6549 Y15.0529
G01 X7.7094 Y14.9620
G01 X7.7484 Y14.8799
G00 Z1.0000
G00 X12.7776 Y14.9053
G01 F90.00
G01 Z-0.1000
G01 F150.00
G01 X14.2722 Y14.9491
G01 X18.3238 Y14.9731
G01 X18.3319 Y14.9952
G01 X18.3754 Y15.0870
G01 X18.4309 Y15.1799
G01 X18.4941 Y15.2651
G01 X18.5653 Y15.3437
G01 X18.6439 Y15.4149
G01 X18.7291 Y15.4781
G01 X18.8200 Y15.5326
G01 X18.9159 Y15.5779
G01 X19.0157 Y15.6137
G01 X19.1186 Y15.6394
G01 X19.2235 Y15.6550
G01 X19.3294 Y15.6602
G01 X19.4353 Y15.6550
G01 X19.5402 Y15.6394
G01 X19.6431 Y15.6137
G01 X19.7450 Y15.5771
G01 X19.8388 Y15.5326
G01 X19.9262 Y15.4803
G01 X19.9332 Y15.4757
G01 X20.0149 Y15.4149
G01 X20.0935 Y15.3437
G01 X20.1620 Y15.2683
G01 X20.1673 Y15.2618
G01 X20.2255 Y15.1834
G01 X20.2301 Y15.1764
G01 X20.2824 Y15.0890
G01 X20.3277 Y14.9931
G01 X20.3635 Y14.8933
G01 X20.3883 Y14.7945
G01 X20.3900 Y14.7863
G01 X20.4043 Y14.6897
G01 X20.4051 Y14.6814
G01 X20.4100 Y14.5796
G01 X20.4051 Y14.4778
G01 X20.4043 Y14.4695
G01 X20.3900 Y14.3729
G01 X20.3883 Y14.3647
G01 X20.3635 Y14.2659
G01 X20.3277 Y14.1661
G01 X20.2824 Y14.0702
G01 X20.2301 Y13.9828
G01 X20.2255 Y13.9758
G01 X20.1647 Y13.8941
G01 X20.0964 Y13.8185
G01 X20.0905 Y13.8126
G01 X20.0149 Y13.7443
G01 X19.9297 Y13.6811
G01 X19.8424 Y13.6286
G01 X19.8351 Y13.6247
G01 X19.7429 Y13.5813
G01 X19.6431 Y13.5455
G01 X19.5402 Y13.5198
G01 X19.4353 Y13.5042
G01 X19.3294 Y13.4990
G01 X19.2235 Y13.5042
G01 X19.1186 Y13.5198
G01 X19.0157 Y13.5455
G01 X18.9159 Y13.5813
G01 X18.8237 Y13.6247
G01 X18.8164 Y13.6286
G01 X18.7291 Y13.6811
G01 X18.6439 Y13.7443
G01 X18.5653 Y13.8155
G01 X18.4968 Y13.8909
G01 X18.4915 Y13.8974
G01 X18.4309 Y13.9793
G01 X18.3784 Y14.0666
G01 X18.3745 Y14.0739
G01 X18.3327 Y14.1623
G01 X18.3302 Y14.1681
G01 X18.3248 Y14.1832
G01 X15.2227 Y14.1649
G01 X16.9760 Y12.4115
G01 X18.3230 Y12.4311
G01 X18.3319 Y12.4552
G01 X18.3754 Y12.5470
G01 X18.4297 Y12.6381
G01 X18.4941 Y12.7251
G01 X18.5653 Y12.8037
G01 X18.6439 Y12.8749
G01 X18.7291 Y12.9381
G01 X18.8200 Y12.9926
G01 X18.9121 Y13.0363
G01 X18.9198 Y13.0394
G01 X19.0157 Y13.0737
G01 X19.1145 Y13.0985
G01 X19.1227 Y13.1002
G01 X19.2193 Y13.1145
G01 X19.2276 Y13.1153
G01 X19.3294 Y13.1202
G01 X19.4312 Y13.1153
G01 X19.4395 Y13.1145
G01 X19.5402 Y13.0994
G01 X19.6431 Y13.0737
G01 X19.7429 Y13.0379
G01 X19.8368 Y12.9936
G01 X19.9297 Y12.9381
G01 X20.0149 Y12.8749
G01 X20.0935 Y12.8037
G01 X20.1620 Y12.7283
G01 X20.1673 Y12.7218
G01 X20.2279 Y12.6399
G01 X20.2804 Y12.5526
G01 X20.2843 Y12.5453
G01 X20.3261 Y12.4569
G01 X20.3292 Y12.4492
G01 X20.3635 Y12.3533
G01 X20.3892 Y12.2504
G01 X20.4048 Y12.1455
G01 X20.4100 Y12.0396
G01 X20.4048 Y11.9337
G01 X20.3892 Y11.8288
G01 X20.3635 Y11.7259
G01 X20.3269 Y11.6240
G01 X20.2824 Y11.5302
G01 X20.2279 Y11.4393
G01 X20.1647 Y11.3541
G01 X20.0964 Y11.2785
G01 X20.0905 Y11.2726
G01 X20.0149 Y11.2043
G01 X19.9332 Y11.1435
G01 X19.9262 Y11.1389
G01 X19.8424 Y11.0886
G01 X19.8351 Y11.0847
G01 X19.7429 Y11.0413
G01 X19.6431 Y11.0055
G01 X19.5402 Y10.9798
G01 X19.4353 Y10.9642
G01 X19.3294 Y10.9590
G01 X19.2235 Y10.9642
G01 X19.1186 Y10.9798
G01 X19.0197 Y11.0044
G01 X19.0118 Y11.0068
G01 X18.9159 Y11.0413
G01 X18.8237 Y11.0847
G01 X18.8164 Y11.0886
G01 X18.7291 Y11.1411
G01 X18.6472 Y11.2017
G01 X18.6407 Y11.2070
G01 X18.5683 Y11.2726
G01 X18.5624 Y11.2785
G01 X18.4941 Y11.3541
G01 X18.4309 Y11.4393
G01 X18.3764 Y11.5302
G01 X18.3327 Y11.6223
G01 X18.3302 Y11.6281
G01 X18.3256 Y11.6411
G01 X16.8126 Y11.6193
G01 X16.7818 Y11.6206
G01 X16.7739 Y11.6214
G01 X16.7455 Y11.6254
G01 X16.7337 Y11.6277
G01 X16.7078 Y11.6340
G01 X16.7002 Y11.6363
G01 X16.6690 Y11.6472
G01 X16.6616 Y11.6502
G01 X16.6374 Y11.6614
G01 X16.6267 Y11.6669
G01 X16.6002 Y11.6827
G01 X16.5936 Y11.6871
G01 X16.5687 Y11.7053
G01 X16.5611 Y11.7116
G01 X16.5412 Y11.7294
G01 X16.5357 Y11.7348
G01 X14.1160 Y14.1544
G01 X12.8024 Y14.1158
G01 X12.7831 Y14.0624
G01 X12.7375 Y13.9667
G01 X12.6841 Y13.8777
G01 X12.6223 Y13.7942
G01 X12.5526 Y13.7169
G01 X12.5467 Y13.7110
G01 X12.4711 Y13.6427
G01 X12.3878 Y13.5808
G01 X12.2986 Y13.5270
G01 X12.2913 Y13.5231
G01 X12.1991 Y13.4797
G01 X12.0993 Y13.4439
G01 X12.0005 Y13.4191
G01 X11.9923 Y13.4174
G01 X11.8915 Y13.4026
G01 X11.7878 Y13.3974
G01 X11.6838 Y13.4023
G01 X11.6755 Y13.4031
G01 X11.5748 Y13.4182
G01 X11.4719 Y13.4439
G01 X11.3760 Y13.4782
G01 X11.3683 Y13.4813
G01 X11.2762 Y13.5250
G01 X11.1853 Y13.5795
G01 X11.1034 Y13.6401
G01 X11.0969 Y13.6454
G01 X11.0215 Y13.7139
G01 X10.9503 Y13.7925
G01 X10.8871 Y13.8777
G01 X10.8346 Y13.9650
G01 X10.8307 Y13.9723
G01 X10.7873 Y14.0645
G01 X10.7515 Y14.1643
G01 X10.7258 Y14.2672
G01 X10.7102 Y14.3721
G01 X10.7050 Y14.4780
G01 X10.7102 Y14.5839
G01 X10.7258 Y14.6888
G01 X10.7515 Y14.7917
G01 X10.7873 Y14.8915
G01 X10.8326 Y14.9874
G01 X10.8871 Y15.0783
G01 X10.9503 Y15.1635
G01 X11.0215 Y15.2421
G01 X11.1001 Y15.3133
G01 X11.1853 Y15.3765
G01 X11.2762 Y15.4310
G01 X11.3721 Y15.4763
G01 X11.4719 Y15.5121
G01 X11.5748 Y15.5378
G01 X11.6797 Y15.5534
G01 X11.7856 Y15.5586
G01 X11.8915 Y15.5534
G01 X11.9964 Y15.5378
G01 X12.0993 Y15.5121
G01 X12.1991 Y15.4763
G01 X12.2950 Y15.4310
G01 X12.3859 Y15.3765
G01 X12.4711 Y15.3133
G01 X12.5497 Y15.2421
G01 X12.6209 Y15.1635
G01 X12.6841 Y15.0783
G01 X12.7386 Y14.9874
G01 X12.7776 Y14.9053
G00 X12.7776 Y14.9053
G01 F90.00
G01 Z-0.2000
G01 F150.00
G01 X14.2722 Y14.9491
G01 X18.3238 Y14.9731
G01 X18.3319 Y14.9952
G01 X18.3754 Y15.0870
G01 X18.4309 Y15.1799
G01 X18.4941 Y15.2651
G01 X18.5653 Y15.3437
G01 X18.6439 Y15.4149
G01 X18.7291 Y15.4781
G01 X18.8200 Y15.5326
G01 X18.9159 Y15.5779
G01 X19.0157 Y15.6137
G01 X19.1186 Y15.6394
G01 X19.2235 Y15.6550
G01 X19.3294 Y15.6602
G01 X19.4353 Y15.6550
G01 X19.5402 Y15.6394
G01 X19.6431 Y15.6137
G01 X19.7450 Y15.5771
G01 X19.8388 Y15.5326
G01 X19.9262 Y15.4803
G01 X19.9332 Y15.4757
G01 X20.0149 Y15.4149
G01 X20.0935 Y15.3437
G01 X20.1620 Y15.2683
G01 X20.1673 Y15.2618
G01 X20.2255 Y15.1834
G01 X20.2301 Y15.1764
G01 X20.2824 Y15.0890
G01 X20.3277 Y14.9931
G01 X20.3635 Y14.8933
G01 X20.3883 Y14.7945
G01 X20.3900 Y14.7863
G01 X20.4043 Y14.6897
G01 X20.4051 Y14.6814
G01 X20.4100 Y14.5796
G01 X20.4051 Y14.4778
G01 X20.4043 Y14.4695
G01 X20.3900 Y14.3729
G01 X20.3883 Y14.3647
G01 X20.3635 Y14.2659
G01 X20.3277 Y14.1661
G01 X20.2824 Y14.0702
G01 X20.2301 Y13.9828
G01 X20.2255 Y13.9758
G01 X20.1647 Y13.8941
G01 X20.0964 Y13.8185
G01 X20.0905 Y13.8126
G01 X20.0149 Y13.7443
G01 X19.9297 Y13.6811
G01 X19.8424 Y13.6286
G01 X19.8351 Y13.6247
G01 X19.7429 Y13.5813
G01 X19.6431 Y13.5455
G01 X19.5402 Y13.5198
G01 X19.4353 Y13.5042
G01 X19.3294 Y13.4990
G01 X19.2235 Y13.5042
G01 X19.1186 Y13.5198
G01 X19.0157 Y13.5455
G01 X18.9159 Y13.5813
G01 X18.8237 Y13.6247
G01 X18.8164 Y13.6286
G01 X18.7291 Y13.6811
G01 X18.6439 Y13.7443
G01 X18.5653 Y13.8155
G01 X18.4968 Y13.8909
G01 X18.4915 Y13.8974
G01 X18.4309 Y13.9793
G01 X18.3784 Y14.0666
G01 X18.3745 Y14.0739
G01 X18.3327 Y14.1623
G01 X18.3302 Y14.1681
G01 X18.3248 Y14.1832
G01 X15.2227 Y14.1649
G01 X16.9760 Y12.4115
G01 X18.3230 Y12.4311
G01 X18.3319 Y12.4552
G01 X18.3754 Y12.5470
G01 X18.4297 Y12.6381
G01 X18.4941 Y12.7251
G01 X18.5653 Y12.8037
G01 X18.6439 Y12.8749
G01 X18.7291 Y12.9381
G01 X18.8200 Y12.9926
G01 X18.9121 Y13.0363
G01 X18.9198 Y13.0394
G01 X19.0157 Y13.0737
G01 X19.1145 Y13.0985
G01 X19.1227 Y13.1002
G01 X19.2193 Y13.1145
G01 X19.2276 Y13.1153
G01 X19.3294 Y13.1202
G01 X19.4312 Y13.1153
G01 X19.4395 Y13.1145
G01 X19.5402 Y13.0994
G01 X19.6431 Y13.0737
G01 X19.7429 Y13.0379
G01 X19.8368 Y12.9936
G01 X19.9297 Y12.9381
G01 X20.0149 Y12.8749
G01 X20.0935 Y12.8037
G01 X20.1620 Y12.7283
G01 X20.1673 Y12.7218
G01 X20.2279 Y12.6399
G01 X20.2804 Y12.5526
G01 X20.2843 Y12.5453
G01 X20.3261 Y12.4569
G01 X20.3292 Y12.4492
G01 X20.3635 Y12.3533
G01 X20.3892 Y12.2504
G01 X20.4048 Y12.1455
G01 X20.4100 Y12.0396
G01 X20.4048 Y11.9337
G01 X20.3892 Y11.8288
G01 X20.3635 Y11.7259
G01 X20.3269 Y11.6240
G01 X20.2824 Y11.5302
G01 X20.2279 Y11.4393
G01 X20.1647 Y11.3541
G01 X20.0964 Y11.2785
G01 X20.0905 Y11.2726
G01 X20.0149 Y11.2043
G01 X19.9332 Y11.1435
G01 X19.9262 Y11.1389
G01 X19.8424 Y11.0886
G01 X19.8351 Y11.0847
G01 X19.7429 Y11.0413
G01 X19.6431 Y11.0055
G01 X19.5402 Y10.9798
G01 X19.4353 Y10.9642
G01 X19.3294 Y10.9590
G01 X19.2235 Y10.9642
G01 X19.1186 Y10.9798
G01 X19.0197 Y11.0044
G01 X19.0118 Y11.0068
G01 X18.9159 Y11.0413
G01 X18.8237 Y11.0847
G01 X18.8164 Y11.0886
G01 X18.7291 Y11.1411
G01 X18.6472 Y11.2017
G01 X18.6407 Y11.2070
G01 X18.5683 Y11.2726
G01 X18.5624 Y11.2785
G01 X18.4941 Y11.3541
G01 X18.4309 Y11.4393
G01 X18.3764 Y11.5302
G01 X18.3327 Y11.6223
G01 X18.3302 Y11.6281
G01 X18.3256 Y11.6411
G01 X16.8126 Y11.6193
G01 X16.7818 Y11.6206
G01 X16.7739 Y11.6214
G01 X16.7455 Y11.6254
G01 X16.7337 Y11.6277
G01 X16.7078 Y11.6340
G01 X16.7002 Y11.6363
G01 X16.6690 Y11.6472
G01 X16.6616 Y11.6502
G01 X16.6374 Y11.6614
G01 X16.6267 Y11.6669
G01 X16.6002 Y11.6827
G01 X16.5936 Y11.6871
G01 X16.5687 Y11.7053
G01 X16.5611 Y11.7116
G01 X16.5412 Y11.7294
G01 X16.5357 Y11.7348
G01 X14.1160 Y14.1544
G01 X12.8024 Y14.1158
G01 X12.7831 Y14.0624
G01 X12.7375 Y13.9667
G01 X12.6841 Y13.8777
G01 X12.6223 Y13.7942
G01 X12.5526 Y13.7169
G01 X12.5467 Y13.7110
G01 X12.4711 Y13.6427
G01 X12.3878 Y13.5808
G01 X12.2986 Y13.5270
G01 X12.2913 Y13.5231
G01 X12.1991 Y13.4797
G01 X12.0993 Y13.4439
G01 X12.0005 Y13.4191
G01 X11.9923 Y13.4174
G01 X11.8915 Y13.4026
G01 X11.7878 Y13.3974
G01 X11.6838 Y13.4023
G01 X11.6755 Y13.4031
G01 X11.5748 Y13.4182
G01 X11.4719 Y13.4439
G01 X11.3760 Y13.4782
G01 X11.3683 Y13.4813
G01 X11.2762 Y13.5250
G01 X11.1853 Y13.5795
G01 X11.1034 Y13.6401
G01 X11.0969 Y13.6454
G01 X11.0215 Y13.7139
G01 X10.9503 Y13.7925
G01 X10.8871 Y13.8777
G01 X10.8346 Y13.9650
G01 X10.8307 Y13.9723
G01 X10.7873 Y14.0645
G01 X10.7515 Y14.1643
G01 X10.7258 Y14.2672
G01 X10.7102 Y14.3721
G01 X10.7050 Y14.4780
G01 X10.7102 Y14.5839
G01 X10.7258 Y14.6888
G01 X10.7515 Y14.7917
G01 X10.7873 Y14.8915
G01 X10.8326 Y14.9874
G01 X10.8871 Y15.0783
G01 X10.9503 Y15.1635
G01 X11.0215 Y15.2421
G01 X11.1001 Y15.3133
G01 X11.1853 Y15.3765
G01 X11.2762 Y15.4310
G01 X11.3721 Y15.4763
G01 X11.4719 Y15.5121
G01 X11.5748 Y15.5378
G01 X11.6797 Y15.5534
G01 X11.7856 Y15.5586
G01 X11.8915 Y15.5534
G01 X11.9964 Y15.5378
G01 X12.0993 Y15.5121
G01 X12.1991 Y15.4763
G01 X12.2950 Y15.4310
G01 X12.3859 Y15.3765
G01 X12.4711 Y15.3133
G01 X12.5497 Y15.2421
G01 X12.6209 Y15.1635
G01 X12.6841 Y15.0783
G01 X12.7386 Y14.9874
G01 X12.7776 Y14.9053
G00 Z1.0000
G00 X12.7792 Y17.4418
G01 F90.00
G01 Z-0.1000
G01 F150.00
G01 X14.1100 Y17.4614
G01 X16.5371 Y19.8642
G01 X16.5555 Y19.8813
G01 X16.5675 Y19.8913
G01 X16.5842 Y19.9040
G01 X16.5952 Y19.9116
G01 X16.6167 Y19.9251
G01 X16.6304 Y19.9326
G01 X16.6531 Y19.9438
G01 X16.6675 Y19.9499
G01 X16.6892 Y19.9579
G01 X16.7042 Y19.9625
G01 X16.7244 Y19.9678
G01 X16.7419 Y19.9715
G01 X16.7625 Y19.9749
G01 X16.7759 Y19.9764
G01 X16.8031 Y19.9782
G01 X18.3126 Y20.0219
G01 X18.3319 Y20.0752
G01 X18.3775 Y20.1709
G01 X18.4309 Y20.2599
G01 X18.4927 Y20.3434
G01 X18.5624 Y20.4207
G01 X18.5683 Y20.4266
G01 X18.6439 Y20.4949
G01 X18.7272 Y20.5568
G01 X18.8164 Y20.6106
G01 X18.8237 Y20.6145
G01 X18.9159 Y20.6579
G01 X19.0157 Y20.6937
G01 X19.1186 Y20.7194
G01 X19.2193 Y20.7345
G01 X19.2276 Y20.7353
G01 X19.3294 Y20.7402
G01 X19.4353 Y20.7350
G01 X19.5361 Y20.7202
G01 X19.5443 Y20.7185
G01 X19.6431 Y20.6937
G01 X19.7429 Y20.6579
G01 X19.8351 Y20.6145
G01 X19.8424 Y20.6106
G01 X19.9262 Y20.5603
G01 X19.9332 Y20.5557
G01 X20.0149 Y20.4949
G01 X20.0935 Y20.4237
G01 X20.1647 Y20.3451
G01 X20.2255 Y20.2634
G01 X20.2301 Y20.2564
G01 X20.2804 Y20.1726
G01 X20.2843 Y20.1653
G01 X20.3277 Y20.0731
G01 X20.3628 Y19.9754
G01 X20.3892 Y19.8704
G01 X20.4043 Y19.7697
G01 X20.4051 Y19.7614
G01 X20.4099 Y19.6638
G01 X20.4099 Y19.6554
G01 X20.4048 Y19.5537
G01 X20.3892 Y19.4488
G01 X20.3635 Y19.3459
G01 X20.3277 Y19.2461
G01 X20.2824 Y19.1502
G01 X20.2279 Y19.0593
G01 X20.1647 Y18.9741
G01 X20.0964 Y18.8985
G01 X20.0905 Y18.8926
G01 X20.0181 Y18.8270
G01 X20.0116 Y18.8217
G01 X19.9297 Y18.7611
G01 X19.8368 Y18.7056
G01 X19.7429 Y18.6613
G01 X19.6431 Y18.6255
G01 X19.5402 Y18.5998
G01 X19.4353 Y18.5842
G01 X19.3294 Y18.5790
G01 X19.2235 Y18.5842
G01 X19.1186 Y18.5998
G01 X19.0197 Y18.6244
G01 X19.0118 Y18.6268
G01 X18.9159 Y18.6613
G01 X18.8200 Y18.7066
G01 X18.7291 Y18.7611
G01 X18.6472 Y18.8217
G01 X18.6407 Y18.8270
G01 X18.5653 Y18.8955
G01 X18.4968 Y18.9709
G01 X18.4915 Y18.9774
G01 X18.4333 Y19.0558
G01 X18.4287 Y19.0628
G01 X18.3764 Y19.1502
G01 X18.3374 Y19.2324
G01 X16.9820 Y19.1931
G01 X15.2468 Y17.4753
G01 X18.3233 Y17.5117
G01 X18.3319 Y17.5352
G01 X18.3745 Y17.6253
G01 X18.3784 Y17.6326
G01 X18.4309 Y17.7199
G01 X18.4915 Y17.8018
G01 X18.4968 Y17.8083
G01 X18.5653 Y17.8837
G01 X18.6439 Y17.9549
G01 X18.7291 Y18.0181
G01 X18.8164 Y18.0706
G01 X18.8237 Y18.0745
G01 X18.9159 Y18.1179
G01 X19.0157 Y18.1537
G01 X19.1186 Y18.1794
G01 X19.2235 Y18.1950
G01 X19.3294 Y18.2002
G01 X19.4353 Y18.1950
G01 X19.5402 Y18.1794
G01 X19.6431 Y18.1537
G01 X19.7429 Y18.1179
G01 X19.8351 Y18.0745
G01 X19.8424 Y18.0706
G01 X19.9262 Y18.0203
G01 X19.9332 Y18.0157
G01 X20.0149 Y17.9549
G01 X20.0935 Y17.8837
G01 X20.1647 Y17.8051
G01 X20.2255 Y17.7234
G01 X20.2301 Y17.7164
G01 X20.2804 Y17.6326
G01 X20.2843 Y17.6253
G01 X20.3277 Y17.5331
G01 X20.3635 Y17.4333
G01 X20.3892 Y17.3304
G01 X20.4043 Y17.2297
G01 X20.4051 Y17.2214
G01 X20.4100 Y17.1196
G01 X20.4048 Y17.0137
G01 X20.3900 Y16.9129
G01 X20.3883 Y16.9047
G01 X20.3635 Y16.8059
G01 X20.3277 Y16.7061
G01 X20.2843 Y16.6139
G01 X20.2804 Y16.6066
G01 X20.2301 Y16.5228
G01 X20.2255 Y16.5158
G01 X20.1647 Y16.4341
G01 X20.0935 Y16.3555
G01 X20.0149 Y16.2843
G01 X19.9332 Y16.2235
G01 X19.9262 Y16.2189
G01 X19.8424 Y16.1686
G01 X19.8351 Y16.1647
G01 X19.7429 Y16.1213
G01 X19.6452 Y16.0862
G01 X19.5402 Y16.0598
G01 X19.4353 Y16.0442
G01 X19.3294 Y16.0390
G01 X19.2235 Y16.0442
G01 X19.1186 Y16.0598
G01 X19.0157 Y16.0855
G01 X18.9159 Y16.1213
G01 X18.8237 Y16.1647
G01 X18.8164 Y16.1686
G01 X18.7291 Y16.2211
G01 X18.6439 Y16.2843
G01 X18.5653 Y16.3555
G01 X18.4968 Y16.4309
G01 X18.4915 Y16.4374
G01 X18.4309 Y16.5193
G01 X18.3784 Y16.6066
G01 X18.3745 Y16.6139
G01 X18.3327 Y16.7023
G01 X18.3302 Y16.7081
G01 X18.3253 Y16.7218
G01 X14.2800 Y16.6739
G01 X12.8011 Y16.6521
G01 X12.7831 Y16.6024
G01 X12.7375 Y16.5067
G01 X12.6841 Y16.4177
G01 X12.6223 Y16.3342
G01 X12.5497 Y16.2539
G01 X12.4743 Y16.1854
G01 X12.4678 Y16.1801
G01 X12.3841 Y16.1183
G01 X12.2950 Y16.0650
G01 X12.2029 Y16.0213
G01 X12.1952 Y16.0182
G01 X12.1032 Y15.9852
G01 X12.0953 Y15.9828
G01 X11.9964 Y15.9582
G01 X11.8915 Y15.9426
G01 X11.7856 Y15.9374
G01 X11.6838 Y15.9423
G01 X11.6755 Y15.9431
G01 X11.5748 Y15.9582
G01 X11.4759 Y15.9828
G01 X11.4680 Y15.9852
G01 X11.3721 Y16.0197
G01 X11.2799 Y16.0631
G01 X11.2726 Y16.0670
G01 X11.1888 Y16.1173
G01 X11.1818 Y16.1219
G01 X11.1001 Y16.1827
G01 X11.0245 Y16.2510
G01 X11.0186 Y16.2569
G01 X10.9503 Y16.3325
G01 X10.8895 Y16.4142
G01 X10.8849 Y16.4212
G01 X10.8326 Y16.5086
G01 X10.7873 Y16.6045
G01 X10.7515 Y16.7043
G01 X10.7258 Y16.8072
G01 X10.7102 Y16.9121
G01 X10.7050 Y17.0180
G01 X10.7102 Y17.1239
G01 X10.7258 Y17.2288
G01 X10.7515 Y17.3317
G01 X10.7873 Y17.4315
G01 X10.8326 Y17.5274
G01 X10.8871 Y17.6183
G01 X10.9503 Y17.7035
G01 X11.0215 Y17.7821
G01 X11.1001 Y17.8533
G01 X11.1853 Y17.9165
G01 X11.2762 Y17.9710
G01 X11.3721 Y18.0163
G01 X11.4719 Y18.0521
G01 X11.5748 Y18.0778
G01 X11.6797 Y18.0934
G01 X11.7856 Y18.0986
G01 X11.8915 Y18.0934
G01 X11.9964 Y18.0778
G01 X12.0993 Y18.0521
G01 X12.1991 Y18.0163
G01 X12.2950 Y17.9710
G01 X12.3859 Y17.9165
G01 X12.4711 Y17.8533
G01 X12.5497 Y17.7821
G01 X12.6209 Y17.7035
G01 X12.6841 Y17.6183
G01 X12.7386 Y17.5274
G01 X12.7792 Y17.4418
G00 X12.7792 Y17.4418
G01 F90.00
G01 Z-0.2000
G01 F150.00
G01 X14.1100 Y17.4614
G01 X16.5371 Y19.8642
G01 X16.5555 Y19.8813
G01 X16.5675 Y19.8913
G01 X16.5842 Y19.9040
G01 X16.5952 Y19.9116
G01 X16.6167 Y19.9251
G01 X16.6304 Y19.9326
G01 X16.6531 Y19.9438
G01 X16.6675 Y19.9499
G01 X16.6892 Y19.9579
G01 X16.7042 Y19.9625
G01 X16.7244 Y19.9678
G01 X16.7419 Y19.9715
G01 X16.7625 Y19.9749
G01 X16.7759 Y19.9764
G01 X16.8031 Y19.9782
G01 X18.3126 Y20.0219
G01 X18.3319 Y20.0752
G01 X18.3775 Y20.1709
G01 X18.4309 Y20.2599
G01 X18.4927 Y20.3434
G01 X18.5624 Y20.4207
G01 X18.5683 Y20.4266
G01 X18.6439 Y20.4949
G01 X18.7272 Y20.5568
G01 X18.8164 Y20.6106
G01 X18.8237 Y20.6145
G01 X18.9159 Y20.6579
G01 X19.0157 Y20.6937
G01 X19.1186 Y20.7194
G01 X19.2193 Y20.7345
G01 X19.2276 Y20.7353
G01 X19.3294 Y20.7402
G01 X19.4353 Y20.7350
G01 X19.5361 Y20.7202
G01 X19.5443 Y20.7185
G01 X19.6431 Y20.6937
G01 X19.7429 Y20.6579
G01 X19.8351 Y20.6145
G01 X19.8424 Y20.6106
G01 X19.9262 Y20.5603
G01 X19.9332 Y20.5557
G01 X20.0149 Y20.4949
G01 X20.0935 Y20.4237
G01 X20.1647 Y20.3451
G01 X20.2255 Y20.2634
G01 X20.2301 Y20.2564
G01 X20.2804 Y20.1726
G01 X20.2843 Y20.1653
G01 X20.3277 Y20.0731
G01 X20.3628 Y19.9754
G01 X20.3892 Y19.8704
G01 X20.4043 Y19.7697
G01 X20.4051 Y19.7614
G01 X20.4099 Y19.6638
G01 X20.4099 Y19.6554
G01 X20.4048 Y19.5537
G01 X20.3892 Y19.4488
G01 X20.3635 Y19.3459
G01 X20.3277 Y19.2461
G01 X20.2824 Y19.1502
G01 X20.2279 Y19.0593
G01 X20.1647 Y18.9741
G01 X20.0964 Y18.8985
G01 X20.0905 Y18.8926
G01 X20.0181 Y18.8270
G01 X20.0116 Y18.8217
G01 X19.9297 Y18.7611
G01 X19.8368 Y18.7056
G01 X19.7429 Y18.6613
G01 X19.6431 Y18.6255
G01 X19.5402 Y18.5998
G01 X19.4353 Y18.5842
G01 X19.3294 Y18.5790
G01 X19.2235 Y18.5842
G01 X19.1186 Y18.5998
G01 X19.0197 Y18.6244
G01 X19.0118 Y18.6268
G01 X18.9159 Y18.6613
G01 X18.8200 Y18.7066
G01 X18.7291 Y18.7611
G01 X18.6472 Y18.8217
G01 X18.6407 Y18.8270
G01 X18.5653 Y18.8955
G01 X18.4968 Y18.9709
G01 X18.4915 Y18.9774
G01 X18.4333 Y19.0558
G01 X18.4287 Y19.0628
G01 X18.3764 Y19.1502
G01 X18.3374 Y19.2324
G01 X16.9820 Y19.1931
G01 X15.2468 Y17.4753
G01 X18.3233 Y17.5117
G01 X18.3319 Y17.5352
G01 X18.3745 Y17.6253
G01 X18.3784 Y17.6326
G01 X18.4309 Y17.7199
G01 X18.4915 Y17.8018
G01 X18.4968 Y17.8083
G01 X18.5653 Y17.8837
G01 X18.6439 Y17.9549
G01 X18.7291 Y18.0181
G01 X18.8164 Y18.0706
G01 X18.8237 Y18.0745
G01 X18.9159 Y18.1179
G01 X19.0157 Y18.1537
G01 X19.1186 Y18.1794
G01 X19.2235 Y18.1950
G01 X19.3294 Y18.2002
G01 X19.4353 Y18.1950
G01 X19.5402 Y18.1794
G01 X19.6431 Y18.1537
G01 X19.7429 Y18.1179
G01 X19.8351 Y18.0745
G01 X19.8424 Y18.0706
G01 X19.9262 Y18.0203
G01 X19.9332 Y18.0157
G01 X20.0149 Y17.9549
G01 X20.0935 Y17.8837
G01 X20.1647 Y17.8051
G01 X20.2255 Y17.7234
G01 X20.2301 Y17.7164
G01 X20.2804 Y17.6326
G01 X20.2843 Y17.6253
G01 X20.3277 Y17.5331
G01 X20.3635 Y17.4333
G01 X20.3892 Y17.3304
G01 X20.4043 Y17.2297
G01 X20.4051 Y17.2214
G01 X20.4100 Y17.1196
G01 X20.4048 Y17.0137
G01 X20.3900 Y16.9129
G01 X20.3883 Y16.9047
G01 X20.3635 Y16.8059
G01 X20.3277 Y16.7061
G01 X20.2843 Y16.6139
G01 X20.2804 Y16.6066
G01 X20.2301 Y16.5228
G01 X20.2255 Y16.5158
G01 X20.1647 Y16.4341
G01 X20.0935 Y16.3555
G01 X20.0149 Y16.2843
G01 X19.9332 Y16.2235
G01 X19.9262 Y16.2189
G01 X19.8424 Y16.1686
G01 X19.8351 Y16.1647
G01 X19.7429 Y16.1213
G01 X19.6452 Y16.0862
G01 X19.5402 Y16.0598
G01 X19.4353 Y16.0442
G01 X19.3294 Y16.0390
G01 X19.2235 Y16.0442
G01 X19.1186 Y16.0598
G01 X19.0157 Y16.0855
G01 X18.9159 Y16.1213
G01 X18.8237 Y16.1647
G01 X18.8164 Y16.1686
G01 X18.7291 Y16.2211
G01 X18.6439 Y16.2843
G01 X18.5653 Y16.3555
G01 X18.4968 Y16.4309
G01 X18.4915 Y16.4374
G01 X18.4309 Y16.5193
G01 X18.3784 Y16.6066
G01 X18.3745 Y16.6139
G01 X18.3327 Y16.7023
G01 X18.3302 Y16.7081
G01 X18.3253 Y16.7218
G01 X14.2800 Y16.6739
G01 X12.8011 Y16.6521
G01 X12.7831 Y16.6024
G01 X12.7375 Y16.5067
G01 X12.6841 Y16.4177
G01 X12.6223 Y16.3342
G01 X12.5497 Y16.2539
G01 X12.4743 Y16.1854
G01 X12.4678 Y16.1801
G01 X12.3841 Y16.1183
G01 X12.2950 Y16.0650
G01 X12.2029 Y16.0213
G01 X12.1952 Y16.0182
G01 X12.1032 Y15.9852
G01 X12.0953 Y15.9828
G01 X11.9964 Y15.9582
G01 X11.8915 Y15.9426
G01 X11.7856 Y15.9374
G01 X11.6838 Y15.9423
G01 X11.6755 Y15.9431
G01 X11.5748 Y15.9582
G01 X11.4759 Y15.9828
G01 X11.4680 Y15.9852
G01 X11.3721 Y16.0197
G01 X11.2799 Y16.0631
G01 X11.2726 Y16.0670
G01 X11.1888 Y16.1173
G01 X11.1818 Y16.1219
G01 X11.1001 Y16.1827
G01 X11.0245 Y16.2510
G01 X11.0186 Y16.2569
G01 X10.9503 Y16.3325
G01 X10.8895 Y16.4142
G01 X10.8849 Y16.4212
G01 X10.8326 Y16.5086
G01 X10.7873 Y16.6045
G01 X10.7515 Y16.7043
G01 X10.7258 Y16.8072
G01 X10.7102 Y16.9121
G01 X10.7050 Y17.0180
G01 X10.7102 Y17.1239
G01 X10.7258 Y17.2288
G01 X10.7515 Y17.3317
G01 X10.7873 Y17.4315
G01 X10.8326 Y17.5274
G01 X10.8871 Y17.6183
G01 X10.9503 Y17.7035
G01 X11.0215 Y17.7821
G01 X11.1001 Y17.8533
G01 X11.1853 Y17.9165
G01 X11.2762 Y17.9710
G01 X11.3721 Y18.0163
G01 X11.4719 Y18.0521
G01 X11.5748 Y18.0778
G01 X11.6797 Y18.0934
G01 X11.7856 Y18.0986
G01 X11.8915 Y18.0934
G01 X11.9964 Y18.0778
G01 X12.0993 Y18.0521
G01 X12.1991 Y18.0163
G01 X12.2950 Y17.9710
G01 X12.3859 Y17.9165
G01 X12.4711 Y17.8533
G01 X12.5497 Y17.7821
G01 X12.6209 Y17.7035
G01 X12.6841 Y17.6183
G01 X12.7386 Y17.5274
G01 X12.7792 Y17.4418
G00 Z1.0000
G00 X12.2170 Y20.5480
G01 F90.00
G01 Z-0.1000
G01 F150.00
G01 X13.9968 Y22.3277
G01 X16.5371 Y24.8426
G01 X16.5445 Y24.8497
G01 X16.5626 Y24.8657
G01 X16.5722 Y24.8735
G01 X16.5952 Y24.8900
G01 X16.6058 Y24.8969
G01 X16.6304 Y24.9110
G01 X16.6397 Y24.9158
G01 X16.6617 Y24.9258
G01 X16.6752 Y24.9312
G01 X16.6999 Y24.9397
G01 X16.7121 Y24.9431
G01 X16.7397 Y24.9495
G01 X16.7500 Y24.9514
G01 X16.7781 Y24.9550
G01 X18.2995 Y25.0654
G01 X18.3311 Y25.1531
G01 X18.3745 Y25.2453
G01 X18.3784 Y25.2526
G01 X18.4309 Y25.3399
G01 X18.4915 Y25.4218
G01 X18.4968 Y25.4283
G01 X18.5653 Y25.5037
G01 X18.6439 Y25.5749
G01 X18.7256 Y25.6357
G01 X18.7326 Y25.6403
G01 X18.8200 Y25.6926
G01 X18.9159 Y25.7379
G01 X19.0157 Y25.7737
G01 X19.1145 Y25.7985
G01 X19.1227 Y25.8002
G01 X19.2235 Y25.8150
G01 X19.3252 Y25.8201
G01 X19.3336 Y25.8201
G01 X19.4353 Y25.8150
G01 X19.5402 Y25.7994
G01 X19.6431 Y25.7737
G01 X19.7390 Y25.7394
G01 X19.7467 Y25.7363
G01 X19.8388 Y25.6926
G01 X19.9297 Y25.6381
G01 X20.0116 Y25.5775
G01 X20.0181 Y25.5722
G01 X20.0935 Y25.5037
G01 X20.1620 Y25.4283
G01 X20.1673 Y25.4218
G01 X20.2279 Y25.3399
G01 X20.2804 Y25.2526
G01 X20.2843 Y25.2453
G01 X20.3277 Y25.1531
G01 X20.3635 Y25.0533
G01 X20.3892 Y24.9504
G01 X20.4048 Y24.8455
G01 X20.4100 Y24.7396
G01 X20.4048 Y24.6337
G01 X20.3892 Y24.5288
G01 X20.3635 Y24.4259
G01 X20.3277 Y24.3261
G01 X20.2824 Y24.2302
G01 X20.2279 Y24.1393
G01 X20.1647 Y24.0541
G01 X20.0935 Y23.9755
G01 X20.0149 Y23.9043
G01 X19.9297 Y23.8411
G01 X19.8407 Y23.7877
G01 X19.7429 Y23.7413
G01 X19.6431 Y23.7055
G01 X19.5402 Y23.6798
G01 X19.4353 Y23.6642
G01 X19.3294 Y23.6590
G01 X19.2235 Y23.6642
G01 X19.1186 Y23.6798
G01 X19.0136 Y23.7062
G01 X18.9159 Y23.7413
G01 X18.8200 Y23.7866
G01 X18.7291 Y23.8411
G01 X18.6422 Y23.9057
G01 X18.5653 Y23.9755
G01 X18.4927 Y24.0558
G01 X18.4297 Y24.1411
G01 X18.3775 Y24.2283
G01 X18.3540 Y24.2773
G01 X16.9889 Y24.1784
G01 X15.2649 Y22.4716
G01 X18.3126 Y22.5618
G01 X18.3319 Y22.6152
G01 X18.3775 Y22.7109
G01 X18.4309 Y22.7999
G01 X18.4955 Y22.8868
G01 X18.5653 Y22.9637
G01 X18.6439 Y23.0349
G01 X18.7291 Y23.0981
G01 X18.8220 Y23.1536
G01 X18.9159 Y23.1979
G01 X19.0157 Y23.2337
G01 X19.1186 Y23.2594
G01 X19.2235 Y23.2750
G01 X19.3294 Y23.2802
G01 X19.4353 Y23.2750
G01 X19.5402 Y23.2594
G01 X19.6410 Y23.2343
G01 X19.7390 Y23.1994
G01 X19.7467 Y23.1963
G01 X19.8388 Y23.1526
G01 X19.9297 Y23.0981
G01 X20.0149 Y23.0349
G01 X20.0905 Y22.9666
G01 X20.0964 Y22.9607
G01 X20.1647 Y22.8851
G01 X20.2279 Y22.7999
G01 X20.2804 Y22.7126
G01 X20.2843 Y22.7053
G01 X20.3277 Y22.6131
G01 X20.3635 Y22.5133
G01 X20.3883 Y22.4145
G01 X20.3900 Y22.4063
G01 X20.4048 Y22.3055
G01 X20.4099 Y22.2038
G01 X20.4099 Y22.1954
G01 X20.4048 Y22.0937
G01 X20.3892 Y21.9888
G01 X20.3646 Y21.8899
G01 X20.3622 Y21.8820
G01 X20.3277 Y21.7861
G01 X20.2824 Y21.6902
G01 X20.2301 Y21.6028
G01 X20.2255 Y21.5958
G01 X20.1647 Y21.5141
G01 X20.0935 Y21.4355
G01 X20.0181 Y21.3670
G01 X20.0116 Y21.3617
G01 X19.9297 Y21.3011
G01 X19.8424 Y21.2486
G01 X19.8351 Y21.2447
G01 X19.7429 Y21.2013
G01 X19.6431 Y21.1655
G01 X19.5402 Y21.1398
G01 X19.4353 Y21.1242
G01 X19.3294 Y21.1190
G01 X19.2235 Y21.1242
G01 X19.1186 Y21.1398
G01 X19.0197 Y21.1644
G01 X19.0118 Y21.1668
G01 X18.9159 Y21.2013
G01 X18.8200 Y21.2466
G01 X18.7291 Y21.3011
G01 X18.6472 Y21.3617
G01 X18.6407 Y21.3670
G01 X18.5653 Y21.4355
G01 X18.4968 Y21.5109
G01 X18.4915 Y21.5174
G01 X18.4333 Y21.5958
G01 X18.4287 Y21.6028
G01 X18.3764 Y21.6902
G01 X18.3375 Y21.7723
G01 X14.4432 Y21.6571
G01 X12.7756 Y19.9894
G01 X12.7831 Y19.9736
G01 X12.7854 Y19.9676
G01 X12.8184 Y19.8756
G01 X12.8208 Y19.8677
G01 X12.8454 Y19.7688
G01 X12.8610 Y19.6639
G01 X12.8661 Y19.5622
G01 X12.8661 Y19.5538
G01 X12.8610 Y19.4521
G01 X12.8454 Y19.3472
G01 X12.8208 Y19.2483
G01 X12.8184 Y19.2404
G01 X12.7839 Y19.1445
G01 X12.7386 Y19.0486
G01 X12.6863 Y18.9612
G01 X12.6817 Y18.9542
G01 X12.6209 Y18.8725
G01 X12.5497 Y18.7939
G01 X12.4711 Y18.7227
G01 X12.3894 Y18.6619
G01 X12.3824 Y18.6573
G01 X12.2950 Y18.6050
G01 X12.1991 Y18.5597
G01 X12.1032 Y18.5252
G01 X12.0953 Y18.5228
G01 X11.9964 Y18.4982
G01 X11.8957 Y18.4831
G01 X11.8874 Y18.4823
G01 X11.7856 Y18.4774
G01 X11.6797 Y18.4826
G01 X11.5789 Y18.4974
G01 X11.5707 Y18.4991
G01 X11.4719 Y18.5239
G01 X11.3721 Y18.5597
G01 X11.2762 Y18.6050
G01 X11.1853 Y18.6595
G01 X11.1001 Y18.7227
G01 X11.0215 Y18.7939
G01 X10.9503 Y18.8725
G01 X10.8871 Y18.9577
G01 X10.8326 Y19.0486
G01 X10.7873 Y19.1445
G01 X10.7515 Y19.2443
G01 X10.7258 Y19.3472
G01 X10.7102 Y19.4521
G01 X10.7050 Y19.5580
G01 X10.7102 Y19.6639
G01 X10.7258 Y19.7688
G01 X10.7515 Y19.8717
G01 X10.7873 Y19.9715
G01 X10.8326 Y20.0674
G01 X10.8871 Y20.1583
G01 X10.9503 Y20.2435
G01 X11.0215 Y20.3221
G01 X11.1001 Y20.3933
G01 X11.1853 Y20.4565
G01 X11.2762 Y20.5110
G01 X11.3721 Y20.5563
G01 X11.4719 Y20.5921
G01 X11.5748 Y20.6178
G01 X11.6797 Y20.6334
G01 X11.7856 Y20.6386
G01 X11.8915 Y20.6334
G01 X11.9964 Y20.6178
G01 X12.0993 Y20.5921
G01 X12.1971 Y20.5572
G01 X12.2170 Y20.5480
G00 X12.2170 Y20.5480
G01 F90.00
G01 Z-0.2000
G01 F150.00
G01 X13.9968 Y22.3277
G01 X16.5371 Y24.8426
G01 X16.5445 Y24.8497
G01 X16.5626 Y24.8657
G01 X16.5722 Y24.8735
G01 X16.5952 Y24.8900
G01 X16.6058 Y24.8969
G01 X16.6304 Y24.9110
G01 X16.6397 Y24.9158
G01 X16.6617 Y24.9258
G01 X16.6752 Y24.9312
G01 X16.6999 Y24.9397
G01 X16.7121 Y24.9431
G01 X16.7397 Y24.9495
G01 X16.7500 Y24.9514
G01 X16.7781 Y24.9550
G01 X18.2995 Y25.0654
G01 X18.3311 Y25.1531
G01 X18.3745 Y25.2453
G01 X18.3784 Y25.2526
G01 X18.4309 Y25.3399
G01 X18.4915 Y25.4218
G01 X18.4968 Y25.4283
G01 X18.5653 Y25.5037
G01 X18.6439 Y25.5749
G01 X18.7256 Y25.6357
G01 X18.7326 Y25.6403
G01 X18.8200 Y25.6926
G01 X18.9159 Y25.7379
G01 X19.0157 Y25.7737
G01 X19.1145 Y25.7985
G01 X19.1227 Y25.8002
G01 X19.2235 Y25.8150
G01 X19.3252 Y25.8201
G01 X19.3336 Y25.8201
G01 X19.4353 Y25.8150
G01 X19.5402 Y25.7994
G01 X19.6431 Y25.7737
G01 X19.7390 Y25.7394
G01 X19.7467 Y25.7363
G01 X19.8388 Y25.6926
G01 X19.9297 Y25.6381
G01 X20.0116 Y25.5775
G01 X20.0181 Y25.5722
G01 X20.0935 Y25.5037
G01 X20.1620 Y25.4283
G01 X20.1673 Y25.4218
G01 X20.2279 Y25.3399
G01 X20.2804 Y25.2526
G01 X20.2843 Y25.2453
G01 X20.3277 Y25.1531
G01 X20.3635 Y25.0533
G01 X20.3892 Y24.9504
G01 X20.4048 Y24.8455
G01 X20.4100 Y24.7396
G01 X20.4048 Y24.6337
G01 X20.3892 Y24.5288
G01 X20.3635 Y24.4259
G01 X20.3277 Y24.3261
G01 X20.2824 Y24.2302
G01 X20.2279 Y24.1393
G01 X20.1647 Y24.0541
G01 X20.0935 Y23.9755
G01 X20.0149 Y23.9043
G01 X19.9297 Y23.8411
G01 X19.8407 Y23.7877
G01 X19.7429 Y23.7413
G01 X19.6431 Y23.7055
G01 X19.5402 Y23.6798
G01 X19.4353 Y23.6642
G01 X19.3294 Y23.6590
G01 X19.2235 Y23.6642
G01 X19.1186 Y23.6798
G01 X19.0136 Y23.7062
G01 X18.9159 Y23.7413
G01 X18.8200 Y23.7866
G01 X18.7291 Y23.8411
G01 X18.6422 Y23.9057
G01 X18.5653 Y23.9755
G01 X18.4927 Y24.0558
G01 X18.4297 Y24.1411
G01 X18.3775 Y24.2283
G01 X18.3540 Y24.2773
G01 X16.9889 Y24.1784
G01 X15.2649 Y22.4716
G01 X18.3126 Y22.5618
G01 X18.3319 Y22.6152
G01 X18.3775 Y22.7109
G01 X18.4309 Y22.7999
G01 X18.4955 Y22.8868
G01 X18.5653 Y22.9637
G01 X18.6439 Y23.0349
G01 X18.7291 Y23.0981
G01 X18.8220 Y23.1536
G01 X18.9159 Y23.1979
G01 X19.0157 Y23.2337
G01 X19.1186 Y23.2594
G01 X19.2235 Y23.2750
G01 X19.3294 Y23.2802
G01 X19.4353 Y23.2750
G01 X19.5402 Y23.2594
G01 X19.6410 Y23.2343
G01 X19.7390 Y23.1994
G01 X19.7467 Y23.1963
G01 X19.8388 Y23.1526
G01 X19.9297 Y23.0981
G01 X20.0149 Y23.0349
G01 X20.0905 Y22.9666
G01 X20.0964 Y22.9607
G01 X20.1647 Y22.8851
G01 X20.2279 Y22.7999
G01 X20.2804 Y22.7126
G01 X20.2843 Y22.7053
G01 X20.3277 Y22.6131
G01 X20.3635 Y22.5133
G01 X20.3883 Y22.4145
G01 X20.3900 Y22.4063
G01 X20.4048 Y22.3055
G01 X20.4099 Y22.2038
G01 X20.4099 Y22.1954
G01 X20.4048 Y22.0937
G01 X20.3892 Y21.9888
G01 X20.3646 Y21.8899
G01 X20.3622 Y21.8820
G01 X20.3277 Y21.7861
G01 X20.2824 Y21.6902
G01 X20.2301 Y21.6028
G01 X20.2255 Y21.5958
G01 X20.1647 Y21.5141
G01 X20.0935 Y21.4355
G01 X20.0181 Y21.3670
G01 X20.0116 Y21.3617
G01 X19.9297 Y21.3011
G01 X19.8424 Y21.2486
G01 X19.8351 Y21.2447
G01 X19.7429 Y21.2013
G01 X19.6431 Y21.1655
G01 X19.5402 Y21.1398
G01 X19.4353 Y21.1242
G01 X19.3294 Y21.1190
G01 X19.2235 Y21.1242
G01 X19.1186 Y21.1398
G01 X19.0197 Y21.1644
G01 X19.0118 Y21.1668
G01 X18.9159 Y21.2013
G01 X18.8200 Y21.2466
G01 X18.7291 Y21.3011
G01 X18.6472 Y21.3617
G01 X18.6407 Y21.3670
G01 X18.5653 Y21.4355
G01 X18.4968 Y21.5109
G01 X18.4915 Y21.5174
G01 X18.4333 Y21.5958
G01 X18.4287 Y21.6028
G01 X18.3764 Y21.6902
G01 X18.3375 Y21.7723
G01 X14.4432 Y21.6571
G01 X12.7756 Y19.9894
G01 X12.7831 Y19.9736
G01 X12.7854 Y19.9676
G01 X12.8184 Y19.8756
G01 X12.8208 Y19.8677
G01 X12.8454 Y19.7688
G01 X12.8610 Y19.6639
G01 X12.8661 Y19.5622
G01 X12.8661 Y19.5538
G01 X12.8610 Y19.4521
G01 X12.8454 Y19.3472
G01 X12.8208 Y19.2483
G01 X12.8184 Y19.2404
G01 X12.7839 Y19.1445
G01 X12.7386 Y19.0486
G01 X12.6863 Y18.9612
G01 X12.6817 Y18.9542
G01 X12.6209 Y18.8725
G01 X12.5497 Y18.7939
G01 X12.4711 Y18.7227
G01 X12.3894 Y18.6619
G01 X12.3824 Y18.6573
G01 X12.2950 Y18.6050
G01 X12.1991 Y18.5597
G01 X12.1032 Y18.5252
G01 X12.0953 Y18.5228
G01 X11.9964 Y18.4982
G01 X11.8957 Y18.4831
G01 X11.8874 Y18.4823
G01 X11.7856 Y18.4774
G01 X11.6797 Y18.4826
G01 X11.5789 Y18.4974
G01 X11.5707 Y18.4991
G01 X11.4719 Y18.5239
G01 X11.3721 Y18.5597
G01 X11.2762 Y18.6050
G01 X11.1853 Y18.6595
G01 X11.1001 Y18.7227
G01 X11.0215 Y18.7939
G01 X10.9503 Y18.8725
G01 X10.8871 Y18.9577
G01 X10.8326 Y19.0486
G01 X10.7873 Y19.1445
G01 X10.7515 Y19.2443
G01 X10.7258 Y19.3472
G01 X10.7102 Y19.4521
G01 X10.7050 Y19.5580
G01 X10.7102 Y19.6639
G01 X10.7258 Y19.7688
G01 X10.7515 Y19.8717
G01 X10.7873 Y19.9715
G01 X10.8326 Y20.0674
G01 X10.8871 Y20.1583
G01 X10.9503 Y20.2435
G01 X11.0215 Y20.3221
G01 X11.1001 Y20.3933
G01 X11.1853 Y20.4565
G01 X11.2762 Y20.5110
G01 X11.3721 Y20.5563
G01 X11.4719 Y20.5921
G01 X11.5748 Y20.6178
G01 X11.6797 Y20.6334
G01 X11.7856 Y20.6386
G01 X11.8915 Y20.6334
G01 X11.9964 Y20.6178
G01 X12.0993 Y20.5921
G01 X12.1971 Y20.5572
G01 X12.2170 Y20.5480
G00 Z1.0000
G00 X7.7602 Y19.9312
G01 F90.00
G01 Z-0.1000
G01 F150.00
G01 X8.8506 Y19.9472
G01 X8.8507 Y22.0494
G01 X8.8524 Y22.0848
G01 X8.8573 Y22.1192
G01 X8.8591 Y22.1283
G01 X8.8677 Y22.1620
G01 X8.8803 Y22.1973
G01 X8.8949 Y22.2288
G01 X8.8993 Y22.2370
G01 X8.9184 Y22.2684
G01 X8.9404 Y22.2979
G01 X8.9655 Y22.3256
G01 X13.9962 Y27.3818
G01 X14.0235 Y27.4065
G01 X14.0511 Y27.4272
G01 X14.0597 Y27.4330
G01 X14.0895 Y27.4506
G01 X14.1227 Y27.4663
G01 X14.1552 Y27.4781
G01 X14.1651 Y27.4811
G01 X14.1987 Y27.4894
G01 X14.2351 Y27.4948
G01 X14.2738 Y27.4968
G01 X24.3591 Y27.4713
G01 X30.2616 Y27.4713
G01 X30.2617 Y28.5808
G01 X30.2633 Y28.5940
G01 X30.2669 Y28.6067
G01 X30.2722 Y28.6188
G01 X30.2793 Y28.6300
G01 X30.2880 Y28.6400
G01 X30.2980 Y28.6487
G01 X30.3072 Y28.6547
G01 X30.3192 Y28.6604
G01 X30.3276 Y28.6631
G01 X30.3340 Y28.6647
G01 X30.3428 Y28.6660
G01 X30.3514 Y28.6664
G01 X33.3518 Y28.6664
G01 X33.3604 Y28.6660
G01 X33.3692 Y28.6647
G01 X33.3777 Y28.6625
G01 X33.3860 Y28.6595
G01 X33.3940 Y28.6558
G01 X33.3997 Y28.6524
G01 X33.4070 Y28.6473
G01 X33.4137 Y28.6416
G01 X33.4197 Y28.6352
G01 X33.4252 Y28.6282
G01 X33.4299 Y28.6208
G01 X33.4330 Y28.6149
G01 X33.4363 Y28.6067
G01 X33.4389 Y28.5983
G01 X33.4403 Y28.5918
G01 X33.4414 Y28.5830
G01 X33.4416 Y27.4714
G01 X34.3651 Y27.4713
G01 X43.3682 Y27.5208
G01 X43.3763 Y27.5428
G01 X43.4189 Y27.6329
G01 X43.4228 Y27.6402
G01 X43.4753 Y27.7275
G01 X43.5385 Y27.8127
G01 X43.6097 Y27.8913
G01 X43.6851 Y27.9598
G01 X43.6916 Y27.9651
G01 X43.7735 Y28.0257
G01 X43.8644 Y28.0802
G01 X43.9565 Y28.1239
G01 X43.9642 Y28.1270
G01 X44.0601 Y28.1613
G01 X44.1589 Y28.1861
G01 X44.1671 Y28.1878
G01 X44.2679 Y28.2026
G01 X44.3738 Y28.2078
G01 X44.4797 Y28.2026
G01 X44.5805 Y28.1878
G01 X44.5887 Y28.1861
G01 X44.6835 Y28.1624
G01 X44.6914 Y28.1600
G01 X44.7873 Y28.1255
G01 X44.8832 Y28.0802
G01 X44.9741 Y28.0257
G01 X45.0593 Y27.9625
G01 X45.1379 Y27.8913
G01 X45.2091 Y27.8127
G01 X45.2723 Y27.7275
G01 X45.3248 Y27.6402
G01 X45.3287 Y27.6329
G01 X45.3705 Y27.5445
G01 X45.3736 Y27.5368
G01 X45.4079 Y27.4409
G01 X45.4336 Y27.3380
G01 X45.4492 Y27.2331
G01 X45.4544 Y27.1272
G01 X45.4492 Y27.0213
G01 X45.4344 Y26.9205
G01 X45.4327 Y26.9123
G01 X45.4090 Y26.8175
G01 X45.4066 Y26.8096
G01 X45.3721 Y26.7137
G01 X45.3287 Y26.6215
G01 X45.3248 Y26.6142
G01 X45.2723 Y26.5269
G01 X45.2117 Y26.4450
G01 X45.2064 Y26.4385
G01 X45.1379 Y26.3631
G01 X45.0593 Y26.2919
G01 X44.9741 Y26.2287
G01 X44.8832 Y26.1742
G01 X44.7873 Y26.1289
G01 X44.6875 Y26.0931
G01 X44.5846 Y26.0674
G01 X44.4839 Y26.0523
G01 X44.4756 Y26.0515
G01 X44.3738 Y26.0466
G01 X44.2679 Y26.0518
G01 X44.1630 Y26.0674
G01 X44.0641 Y26.0920
G01 X44.0562 Y26.0944
G01 X43.9642 Y26.1274
G01 X43.9565 Y26.1305
G01 X43.8644 Y26.1742
G01 X43.7770 Y26.2265
G01 X43.7700 Y26.2311
G01 X43.6916 Y26.2893
G01 X43.6851 Y26.2946
G01 X43.6097 Y26.3631
G01 X43.5385 Y26.4417
G01 X43.4753 Y26.5269
G01 X43.4228 Y26.6142
G01 X43.4189 Y26.6215
G01 X43.3771 Y26.7099
G01 X43.3746 Y26.7157
G01 X43.3692 Y26.7309
G01 X34.7612 Y26.6836
G01 X34.7611 Y17.4394
G01 X43.3685 Y17.4631
G01 X43.3746 Y17.4803
G01 X43.3771 Y17.4861
G01 X43.4189 Y17.5745
G01 X43.4228 Y17.5818
G01 X43.4753 Y17.6691
G01 X43.5359 Y17.7510
G01 X43.5412 Y17.7575
G01 X43.6097 Y17.8329
G01 X43.6883 Y17.9041
G01 X43.7735 Y17.9673
G01 X43.8644 Y18.0218
G01 X43.9603 Y18.0671
G01 X44.0562 Y18.1016
G01 X44.0641 Y18.1040
G01 X44.1589 Y18.1277
G01 X44.1671 Y18.1294
G01 X44.2679 Y18.1442
G01 X44.3738 Y18.1494
G01 X44.4797 Y18.1442
G01 X44.5805 Y18.1294
G01 X44.5887 Y18.1277
G01 X44.6835 Y18.1040
G01 X44.6914 Y18.1016
G01 X44.7873 Y18.0671
G01 X44.8795 Y18.0237
G01 X44.8868 Y18.0198
G01 X44.9741 Y17.9673
G01 X45.0593 Y17.9041
G01 X45.1379 Y17.8329
G01 X45.2064 Y17.7575
G01 X45.2117 Y17.7510
G01 X45.2723 Y17.6691
G01 X45.3268 Y17.5782
G01 X45.3721 Y17.4823
G01 X45.4079 Y17.3825
G01 X45.4336 Y17.2796
G01 X45.4492 Y17.1747
G01 X45.4544 Y17.0688
G01 X45.4492 Y16.9629
G01 X45.4336 Y16.8580
G01 X45.4079 Y16.7551
G01 X45.3721 Y16.6553
G01 X45.3287 Y16.5631
G01 X45.3248 Y16.5558
G01 X45.2723 Y16.4685
G01 X45.2117 Y16.3866
G01 X45.2064 Y16.3801
G01 X45.1408 Y16.3077
G01 X45.1349 Y16.3018
G01 X45.0593 Y16.2335
G01 X44.9741 Y16.1703
G01 X44.8832 Y16.1158
G01 X44.7873 Y16.0705
G01 X44.6875 Y16.0347
G01 X44.5846 Y16.0090
G01 X44.4797 Y15.9934
G01 X44.3760 Y15.9882
G01 X44.2720 Y15.9931
G01 X44.2637 Y15.9939
G01 X44.1630 Y16.0090
G01 X44.0601 Y16.0347
G01 X43.9603 Y16.0705
G01 X43.8681 Y16.1139
G01 X43.8608 Y16.1178
G01 X43.7735 Y16.1703
G01 X43.6883 Y16.2335
G01 X43.6127 Y16.3018
G01 X43.6068 Y16.3077
G01 X43.5385 Y16.3833
G01 X43.4753 Y16.4685
G01 X43.4228 Y16.5558
G01 X43.4189 Y16.5631
G01 X43.3771 Y16.6515
G01 X43.3746 Y16.6573
G01 X43.3689 Y16.6732
G01 X34.3661 Y16.6484
G01 X34.3274 Y16.6504
G01 X34.2890 Y16.6561
G01 X34.2514 Y16.6655
G01 X34.2149 Y16.6786
G01 X34.1799 Y16.6951
G01 X34.1467 Y16.7151
G01 X34.1155 Y16.7382
G01 X34.0907 Y16.7605
G01 X34.0854 Y16.7657
G01 X34.0608 Y16.7929
G01 X34.0377 Y16.8241
G01 X34.0178 Y16.8573
G01 X34.0013 Y16.8924
G01 X33.9882 Y16.9289
G01 X33.9791 Y16.9652
G01 X33.9733 Y17.0035
G01 X33.9713 Y17.0422
G01 X33.9713 Y26.6814
G01 X33.4416 Y26.6814
G01 X33.4416 Y25.5742
G01 X33.4406 Y25.5632
G01 X33.4383 Y25.5524
G01 X33.4347 Y25.5420
G01 X33.4310 Y25.5340
G01 X33.4252 Y25.5246
G01 X33.4197 Y25.5176
G01 X33.4120 Y25.5097
G01 X33.4034 Y25.5028
G01 X33.3921 Y25.4960
G01 X33.3798 Y25.4909
G01 X33.3670 Y25.4877
G01 X33.3538 Y25.4864
G01 X32.2466 Y25.4864
G01 X32.2466 Y23.0777
G01 X32.2631 Y23.0718
G01 X32.2689 Y23.0693
G01 X32.3573 Y23.0275
G01 X32.3646 Y23.0236
G01 X32.4519 Y22.9711
G01 X32.5371 Y22.9079
G01 X32.6157 Y22.8367
G01 X32.6842 Y22.7613
G01 X32.6895 Y22.7548
G01 X32.7477 Y22.6764
G01 X32.7523 Y22.6694
G01 X32.8046 Y22.5820
G01 X32.8499 Y22.4861
G01 X32.8857 Y22.3863
G01 X32.9105 Y22.2875
G01 X32.9122 Y22.2793
G01 X32.9265 Y22.1827
G01 X32.9273 Y22.1744
G01 X32.9322 Y22.0726
G01 X32.9270 Y21.9667
G01 X32.9114 Y21.8618
G01 X32.8857 Y21.7589
G01 X32.8499 Y21.6591
G01 X32.8065 Y21.5669
G01 X32.8026 Y21.5596
G01 X32.7523 Y21.4758
G01 X32.7477 Y21.4688
G01 X32.6869 Y21.3871
G01 X32.6186 Y21.3115
G01 X32.6127 Y21.3056
G01 X32.5371 Y21.2373
G01 X32.4519 Y21.1741
G01 X32.3610 Y21.1196
G01 X32.2651 Y21.0743
G01 X32.1653 Y21.0385
G01 X32.0624 Y21.0128
G01 X31.9575 Y20.9972
G01 X31.8516 Y20.9920
G01 X31.7457 Y20.9972
G01 X31.6408 Y21.0128
G01 X31.5379 Y21.0385
G01 X31.4381 Y21.0743
G01 X31.3422 Y21.1196
G01 X31.2513 Y21.1741
G01 X31.1661 Y21.2373
G01 X31.0905 Y21.3056
G01 X31.0846 Y21.3115
G01 X31.0190 Y21.3839
G01 X31.0137 Y21.3904
G01 X30.9531 Y21.4723
G01 X30.9006 Y21.5596
G01 X30.8967 Y21.5669
G01 X30.8533 Y21.6591
G01 X30.8175 Y21.7589
G01 X30.7918 Y21.8618
G01 X30.7762 Y21.9667
G01 X30.7710 Y22.0726
G01 X30.7759 Y22.1744
G01 X30.7767 Y22.1827
G01 X30.7910 Y22.2793
G01 X30.7927 Y22.2875
G01 X30.8175 Y22.3863
G01 X30.8533 Y22.4861
G01 X30.8986 Y22.5820
G01 X30.9509 Y22.6694
G01 X30.9555 Y22.6764
G01 X31.0137 Y22.7548
G01 X31.0190 Y22.7613
G01 X31.0875 Y22.8367
G01 X31.1661 Y22.9079
G01 X31.2513 Y22.9711
G01 X31.3386 Y23.0236
G01 X31.3459 Y23.0275
G01 X31.4343 Y23.0693
G01 X31.4401 Y23.0718
G01 X31.4566 Y23.0777
G01 X31.4567 Y25.4864
G01 X30.3494 Y25.4864
G01 X30.3406 Y25.4871
G01 X30.3319 Y25.4886
G01 X30.3234 Y25.4909
G01 X30.3151 Y25.4941
G01 X30.3092 Y25.4970
G01 X30.3016 Y25.5016
G01 X30.2945 Y25.5068
G01 X30.2880 Y25.5128
G01 X30.2820 Y25.5193
G01 X30.2768 Y25.5264
G01 X30.2722 Y25.5340
G01 X30.2693 Y25.5399
G01 X30.2661 Y25.5482
G01 X30.2638 Y25.5567
G01 X30.2623 Y25.5654
G01 X30.2616 Y25.5742
G01 X30.2616 Y26.6814
G01 X24.7474 Y26.6815
G01 X24.7320 Y25.6925
G01 X24.7447 Y25.6880
G01 X24.7505 Y25.6855
G01 X24.8389 Y25.6437
G01 X24.8462 Y25.6398
G01 X24.9335 Y25.5873
G01 X25.0187 Y25.5241
G01 X25.0973 Y25.4529
G01 X25.1658 Y25.3775
G01 X25.1711 Y25.3710
G01 X25.2317 Y25.2891
G01 X25.2862 Y25.1982
G01 X25.3299 Y25.1061
G01 X25.3330 Y25.0984
G01 X25.3673 Y25.0025
G01 X25.3930 Y24.8996
G01 X25.4081 Y24.7989
G01 X25.4089 Y24.7906
G01 X25.4138 Y24.6888
G01 X25.4086 Y24.5829
G01 X25.3938 Y24.4821
G01 X25.3921 Y24.4739
G01 X25.3673 Y24.3751
G01 X25.3315 Y24.2753
G01 X25.2881 Y24.1831
G01 X25.2842 Y24.1758
G01 X25.2317 Y24.0885
G01 X25.1711 Y24.0066
G01 X25.1658 Y24.0001
G01 X25.0973 Y23.9247
G01 X25.0187 Y23.8535
G01 X24.9335 Y23.7903
G01 X24.8462 Y23.7378
G01 X24.8389 Y23.7339
G01 X24.7505 Y23.6921
G01 X24.7447 Y23.6896
G01 X24.7282 Y23.6837
G01 X24.7282 Y23.1539
G01 X24.7447 Y23.1480
G01 X24.7505 Y23.1455
G01 X24.8389 Y23.1037
G01 X24.8462 Y23.0998
G01 X24.9335 Y23.0473
G01 X25.0187 Y22.9841
G01 X25.0973 Y22.9129
G01 X25.1658 Y22.8375
G01 X25.1711 Y22.8310
G01 X25.2317 Y22.7491
G01 X25.2862 Y22.6582
G01 X25.3299 Y22.5661
G01 X25.3330 Y22.5584
G01 X25.3673 Y22.4625
G01 X25.3930 Y22.3596
G01 X25.4081 Y22.2589
G01 X25.4089 Y22.2506
G01 X25.4138 Y22.1488
G01 X25.4086 Y22.0429
G01 X25.3938 Y21.9421
G01 X25.3921 Y21.9339
G01 X25.3673 Y21.8351
G01 X25.3330 Y21.7392
G01 X25.3299 Y21.7315
G01 X25.2862 Y21.6394
G01 X25.2317 Y21.5485
G01 X25.1711 Y21.4666
G01 X25.1658 Y21.4601
G01 X25.0973 Y21.3847
G01 X25.0187 Y21.3135
G01 X24.9335 Y21.2503
G01 X24.8462 Y21.1978
G01 X24.8389 Y21.1939
G01 X24.7505 Y21.1521
G01 X24.7447 Y21.1496
G01 X24.7282 Y21.1437
G01 X24.7282 Y20.6139
G01 X24.7447 Y20.6080
G01 X24.7505 Y20.6055
G01 X24.8389 Y20.5637
G01 X24.8462 Y20.5598
G01 X24.9335 Y20.5073
G01 X25.0187 Y20.4441
G01 X25.0943 Y20.3758
G01 X25.1002 Y20.3699
G01 X25.1685 Y20.2943
G01 X25.2317 Y20.2091
G01 X25.2842 Y20.1218
G01 X25.2881 Y20.1145
G01 X25.3315 Y20.0223
G01 X25.3673 Y19.9225
G01 X25.3930 Y19.8196
G01 X25.4081 Y19.7189
G01 X25.4089 Y19.7106
G01 X25.4138 Y19.6088
G01 X25.4086 Y19.5029
G01 X25.3938 Y19.4021
G01 X25.3921 Y19.3939
G01 X25.3673 Y19.2951
G01 X25.3330 Y19.1992
G01 X25.3299 Y19.1915
G01 X25.2862 Y19.0994
G01 X25.2317 Y19.0085
G01 X25.1685 Y18.9233
G01 X25.1002 Y18.8477
G01 X25.0943 Y18.8418
G01 X25.0187 Y18.7735
G01 X24.9335 Y18.7103
G01 X24.8462 Y18.6578
G01 X24.8389 Y18.6539
G01 X24.7505 Y18.6121
G01 X24.7447 Y18.6096
G01 X24.7282 Y18.6037
G01 X24.7282 Y18.0739
G01 X24.7447 Y18.0680
G01 X24.7505 Y18.0655
G01 X24.8389 Y18.0237
G01 X24.8462 Y18.0198
G01 X24.9335 Y17.9673
G01 X25.0187 Y17.9041
G01 X25.0973 Y17.8329
G01 X25.1658 Y17.7575
G01 X25.1711 Y17.7510
G01 X25.2317 Y17.6691
G01 X25.2862 Y17.5782
G01 X25.3299 Y17.4861
G01 X25.3330 Y17.4784
G01 X25.3673 Y17.3825
G01 X25.3930 Y17.2796
G01 X25.4081 Y17.1789
G01 X25.4089 Y17.1706
G01 X25.4138 Y17.0688
G01 X25.4086 Y16.9629
G01 X25.3938 Y16.8621
G01 X25.3921 Y16.8539
G01 X25.3673 Y16.7551
G01 X25.3330 Y16.6592
G01 X25.3299 Y16.6515
G01 X25.2862 Y16.5594
G01 X25.2317 Y16.4685
G01 X25.1685 Y16.3833
G01 X25.1002 Y16.3077
G01 X25.0943 Y16.3018
G01 X25.0187 Y16.2335
G01 X24.9335 Y16.1703
G01 X24.8462 Y16.1178
G01 X24.8389 Y16.1139
G01 X24.7505 Y16.0721
G01 X24.7447 Y16.0696
G01 X24.7282 Y16.0637
G01 X24.7282 Y15.5339
G01 X24.7447 Y15.5280
G01 X24.7505 Y15.5255
G01 X24.8389 Y15.4837
G01 X24.8462 Y15.4798
G01 X24.9335 Y15.4273
G01 X25.0187 Y15.3641
G01 X25.0973 Y15.2929
G01 X25.1658 Y15.2175
G01 X25.1711 Y15.2110
G01 X25.2317 Y15.1291
G01 X25.2862 Y15.0382
G01 X25.3299 Y14.9461
G01 X25.3330 Y14.9384
G01 X25.3673 Y14.8425
G01 X25.3930 Y14.7396
G01 X25.4081 Y14.6389
G01 X25.4089 Y14.6306
G01 X25.4138 Y14.5288
G01 X25.4086 Y14.4229
G01 X25.3938 Y14.3221
G01 X25.3921 Y14.3139
G01 X25.3673 Y14.2151
G01 X25.3315 Y14.1153
G01 X25.2881 Y14.0231
G01 X25.2842 Y14.0158
G01 X25.2317 Y13.9285
G01 X25.1685 Y13.8433
G01 X25.1002 Y13.7677
G01 X25.0943 Y13.7618
G01 X25.0187 Y13.6935
G01 X24.9335 Y13.6303
G01 X24.8462 Y13.5778
G01 X24.8389 Y13.5739
G01 X24.7505 Y13.5321
G01 X24.7447 Y13.5296
G01 X24.7282 Y13.5237
G01 X24.7282 Y12.9939
G01 X24.7447 Y12.9880
G01 X24.7505 Y12.9855
G01 X24.8389 Y12.9437
G01 X24.8462 Y12.9398
G01 X24.9335 Y12.8873
G01 X25.0187 Y12.8241
G01 X25.0943 Y12.7558
G01 X25.1002 Y12.7499
G01 X25.1685 Y12.6743
G01 X25.2317 Y12.5891
G01 X25.2842 Y12.5018
G01 X25.2881 Y12.4945
G01 X25.3315 Y12.4023
G01 X25.3673 Y12.3025
G01 X25.3930 Y12.1996
G01 X25.4081 Y12.0989
G01 X25.4089 Y12.0906
G01 X25.4138 Y11.9866
G01 X25.4086 Y11.8829
G01 X25.3930 Y11.7780
G01 X25.3673 Y11.6751
G01 X25.3330 Y11.5792
G01 X25.3299 Y11.5715
G01 X25.2881 Y11.4831
G01 X25.2842 Y11.4758
G01 X25.2317 Y11.3885
G01 X25.1685 Y11.3033
G01 X25.0973 Y11.2247
G01 X25.0219 Y11.1562
G01 X25.0154 Y11.1509
G01 X24.9370 Y11.0927
G01 X24.9300 Y11.0881
G01 X24.8426 Y11.0358
G01 X24.7467 Y10.9905
G01 X24.6469 Y10.9547
G01 X24.5440 Y10.9290
G01 X24.4391 Y10.9134
G01 X24.3374 Y10.9083
G01 X24.3290 Y10.9083
G01 X24.2314 Y10.9131
G01 X24.2231 Y10.9139
G01 X24.1224 Y10.9290
G01 X24.0235 Y10.9536
G01 X24.0156 Y10.9560
G01 X23.9197 Y10.9905
G01 X23.8238 Y11.0358
G01 X23.7329 Y11.0903
G01 X23.6477 Y11.1535
G01 X23.5691 Y11.2247
G01 X23.4979 Y11.3033
G01 X23.4347 Y11.3885
G01 X23.3822 Y11.4758
G01 X23.3783 Y11.4831
G01 X23.3349 Y11.5753
G01 X23.3004 Y11.6712
G01 X23.2980 Y11.6791
G01 X23.2734 Y11.7780
G01 X23.2583 Y11.8787
G01 X23.2575 Y11.8870
G01 X23.2527 Y11.9846
G01 X23.2527 Y11.9930
G01 X23.2575 Y12.0906
G01 X23.2583 Y12.0989
G01 X23.2734 Y12.1996
G01 X23.2991 Y12.3025
G01 X23.3349 Y12.4023
G01 X23.3783 Y12.4945
G01 X23.3822 Y12.5018
G01 X23.4347 Y12.5891
G01 X23.4979 Y12.6743
G01 X23.5662 Y12.7499
G01 X23.5721 Y12.7558
G01 X23.6477 Y12.8241
G01 X23.7329 Y12.8873
G01 X23.8202 Y12.9398
G01 X23.8275 Y12.9437
G01 X23.9159 Y12.9855
G01 X23.9217 Y12.9880
G01 X23.9382 Y12.9939
G01 X23.9382 Y13.5237
G01 X23.9217 Y13.5296
G01 X23.9159 Y13.5321
G01 X23.8275 Y13.5739
G01 X23.8202 Y13.5778
G01 X23.7329 Y13.6303
G01 X23.6477 Y13.6935
G01 X23.5721 Y13.7618
G01 X23.5662 Y13.7677
G01 X23.4979 Y13.8433
G01 X23.4347 Y13.9285
G01 X23.3802 Y14.0194
G01 X23.3365 Y14.1115
G01 X23.3334 Y14.1192
G01 X23.2991 Y14.2151
G01 X23.2743 Y14.3139
G01 X23.2726 Y14.3221
G01 X23.2578 Y14.4229
G01 X23.2526 Y14.5288
G01 X23.2575 Y14.6306
G01 X23.2583 Y14.6389
G01 X23.2734 Y14.7396
G01 X23.2991 Y14.8425
G01 X23.3334 Y14.9384
G01 X23.3365 Y14.9461
G01 X23.3802 Y15.0382
G01 X23.4347 Y15.1291
G01 X23.4953 Y15.2110
G01 X23.5006 Y15.2175
G01 X23.5691 Y15.2929
G01 X23.6477 Y15.3641
G01 X23.7329 Y15.4273
G01 X23.8202 Y15.4798
G01 X23.8275 Y15.4837
G01 X23.9159 Y15.5255
G01 X23.9217 Y15.5280
G01 X23.9382 Y15.5339
G01 X23.9382 Y16.0637
G01 X23.9217 Y16.0696
G01 X23.9159 Y16.0721
G01 X23.8275 Y16.1139
G01 X23.8202 Y16.1178
G01 X23.7329 Y16.1703
G01 X23.6477 Y16.2335
G01 X23.5721 Y16.3018
G01 X23.5662 Y16.3077
G01 X23.4979 Y16.3833
G01 X23.4347 Y16.4685
G01 X23.3802 Y16.5594
G01 X23.3365 Y16.6515
G01 X23.3334 Y16.6592
G01 X23.2991 Y16.7551
G01 X23.2743 Y16.8539
G01 X23.2726 Y16.8621
G01 X23.2578 Y16.9629
G01 X23.2526 Y17.0688
G01 X23.2575 Y17.1706
G01 X23.2583 Y17.1789
G01 X23.2734 Y17.2796
G01 X23.2991 Y17.3825
G01 X23.3349 Y17.4823
G01 X23.3783 Y17.5745
G01 X23.3822 Y17.5818
G01 X23.4347 Y17.6691
G01 X23.4979 Y17.7543
G01 X23.5662 Y17.8299
G01 X23.5721 Y17.8358
G01 X23.6477 Y17.9041
G01 X23.7329 Y17.9673
G01 X23.8202 Y18.0198
G01 X23.8275 Y18.0237
G01 X23.9159 Y18.0655
G01 X23.9217 Y18.0680
G01 X23.9382 Y18.0739
G01 X23.9382 Y18.6037
G01 X23.9217 Y18.6096
G01 X23.9159 Y18.6121
G01 X23.8275 Y18.6539
G01 X23.8202 Y18.6578
G01 X23.7329 Y18.7103
G01 X23.6477 Y18.7735
G01 X23.5691 Y18.8447
G01 X23.5006 Y18.9201
G01 X23.4953 Y18.9266
G01 X23.4347 Y19.0085
G01 X23.3802 Y19.0994
G01 X23.3365 Y19.1915
G01 X23.3334 Y19.1992
G01 X23.2991 Y19.2951
G01 X23.2743 Y19.3939
G01 X23.2726 Y19.4021
G01 X23.2578 Y19.5029
G01 X23.2526 Y19.6088
G01 X23.2575 Y19.7106
G01 X23.2583 Y19.7189
G01 X23.2734 Y19.8196
G01 X23.2991 Y19.9225
G01 X23.3349 Y20.0223
G01 X23.3783 Y20.1145
G01 X23.3822 Y20.1218
G01 X23.4347 Y20.2091
G01 X23.4979 Y20.2943
G01 X23.5662 Y20.3699
G01 X23.5721 Y20.3758
G01 X23.6477 Y20.4441
G01 X23.7329 Y20.5073
G01 X23.8202 Y20.5598
G01 X23.8275 Y20.5637
G01 X23.9159 Y20.6055
G01 X23.9217 Y20.6080
G01 X23.9382 Y20.6139
G01 X23.9382 Y21.1437
G01 X23.9217 Y21.1496
G01 X23.9159 Y21.1521
G01 X23.8275 Y21.1939
G01 X23.8202 Y21.1978
G01 X23.7329 Y21.2503
G01 X23.6477 Y21.3135
G01 X23.5721 Y21.3818
G01 X23.5662 Y21.3877
G01 X23.4979 Y21.4633
G01 X23.4347 Y21.5485
G01 X23.3822 Y21.6358
G01 X23.3783 Y21.6431
G01 X23.3349 Y21.7353
G01 X23.2991 Y21.8351
G01 X23.2743 Y21.9339
G01 X23.2726 Y21.9421
G01 X23.2578 Y22.0429
G01 X23.2526 Y22.1488
G01 X23.2575 Y22.2506
G01 X23.2583 Y22.2589
G01 X23.2734 Y22.3596
G01 X23.2991 Y22.4625
G01 X23.3334 Y22.5584
G01 X23.3365 Y22.5661
G01 X23.3802 Y22.6582
G01 X23.4347 Y22.7491
G01 X23.4953 Y22.8310
G01 X23.5006 Y22.8375
G01 X23.5691 Y22.9129
G01 X23.6477 Y22.9841
G01 X23.7329 Y23.0473
G01 X23.8202 Y23.0998
G01 X23.8275 Y23.1037
G01 X23.9159 Y23.1455
G01 X23.9217 Y23.1480
G01 X23.9382 Y23.1539
G01 X23.9382 Y23.6837
G01 X23.9217 Y23.6896
G01 X23.9159 Y23.6921
G01 X23.8275 Y23.7339
G01 X23.8202 Y23.7378
G01 X23.7329 Y23.7903
G01 X23.6477 Y23.8535
G01 X23.5721 Y23.9218
G01 X23.5662 Y23.9277
G01 X23.4979 Y24.0033
G01 X23.4347 Y24.0885
G01 X23.3822 Y24.1758
G01 X23.3783 Y24.1831
G01 X23.3349 Y24.2753
G01 X23.2991 Y24.3751
G01 X23.2743 Y24.4739
G01 X23.2726 Y24.4821
G01 X23.2578 Y24.5829
G01 X23.2526 Y24.6888
G01 X23.2578 Y24.7947
G01 X23.2726 Y24.8955
G01 X23.2743 Y24.9037
G01 X23.2991 Y25.0025
G01 X23.3349 Y25.1023
G01 X23.3783 Y25.1945
G01 X23.3822 Y25.2018
G01 X23.4347 Y25.2891
G01 X23.4979 Y25.3743
G01 X23.5662 Y25.4499
G01 X23.5721 Y25.4558
G01 X23.6477 Y25.5241
G01 X23.7329 Y25.5873
G01 X23.8219 Y25.6407
G01 X23.9176 Y25.6863
G01 X23.9420 Y25.6953
G01 X23.9574 Y26.6825
G01 X14.4386 Y26.7064
G01 X9.6406 Y21.8842
G01 X9.6405 Y19.5578
G01 X9.6393 Y19.5273
G01 X9.6384 Y19.5171
G01 X9.6341 Y19.4867
G01 X9.6325 Y19.4788
G01 X9.6252 Y19.4489
G01 X9.6229 Y19.4412
G01 X9.6127 Y19.4122
G01 X9.6096 Y19.4048
G01 X9.5966 Y19.3770
G01 X9.5929 Y19.3699
G01 X9.5772 Y19.3434
G01 X9.5727 Y19.3368
G01 X9.5546 Y19.3120
G01 X9.5495 Y19.3058
G01 X9.5290 Y19.2829
G01 X9.5233 Y19.2772
G01 X9.5023 Y19.2579
G01 X9.4944 Y19.2513
G01 X9.4732 Y19.2353
G01 X9.4632 Y19.2284
G01 X9.4388 Y19.2136
G01 X9.4318 Y19.2097
G01 X9.4021 Y19.1954
G01 X9.3947 Y19.1923
G01 X9.3658 Y19.1818
G01 X9.3581 Y19.1794
G01 X9.3324 Y19.1728
G01 X9.3185 Y19.1699
G01 X9.2923 Y19.1658
G01 X9.2821 Y19.1648
G01 X9.2517 Y19.1631
G01 X7.7628 Y19.1412
G01 X7.7539 Y19.1170
G01 X7.7083 Y19.0213
G01 X7.6549 Y18.9323
G01 X7.5931 Y18.8488
G01 X7.5234 Y18.7715
G01 X7.5175 Y18.7656
G01 X7.4419 Y18.6973
G01 X7.3586 Y18.6354
G01 X7.2694 Y18.5816
G01 X7.2621 Y18.5777
G01 X7.1699 Y18.5343
G01 X7.0701 Y18.4985
G01 X6.9713 Y18.4737
G01 X6.9631 Y18.4720
G01 X6.8623 Y18.4572
G01 X6.7606 Y18.4521
G01 X6.7522 Y18.4521
G01 X6.6546 Y18.4569
G01 X6.6463 Y18.4577
G01 X6.5456 Y18.4728
G01 X6.4427 Y18.4985
G01 X6.3468 Y18.5328
G01 X6.3391 Y18.5359
G01 X6.2470 Y18.5796
G01 X6.1561 Y18.6341
G01 X6.0709 Y18.6973
G01 X5.9953 Y18.7656
G01 X5.9894 Y18.7715
G01 X5.9211 Y18.8471
G01 X5.8603 Y18.9288
G01 X5.8557 Y18.9358
G01 X5.8034 Y19.0232
G01 X5.7581 Y19.1191
G01 X5.7223 Y19.2189
G01 X5.6966 Y19.3218
G01 X5.6810 Y19.4267
G01 X5.6758 Y19.5326
G01 X5.6810 Y19.6385
G01 X5.6966 Y19.7434
G01 X5.7223 Y19.8463
G01 X5.7581 Y19.9461
G01 X5.8034 Y20.0420
G01 X5.8579 Y20.1329
G01 X5.9211 Y20.2181
G01 X5.9923 Y20.2967
G01 X6.0709 Y20.3679
G01 X6.1561 Y20.4311
G01 X6.2470 Y20.4856
G01 X6.3429 Y20.5309
G01 X6.4427 Y20.5667
G01 X6.5456 Y20.5924
G01 X6.6505 Y20.6080
G01 X6.7564 Y20.6132
G01 X6.8623 Y20.6080
G01 X6.9672 Y20.5924
G01 X7.0701 Y20.5667
G01 X7.1699 Y20.5309
G01 X7.2658 Y20.4856
G01 X7.3567 Y20.4311
G01 X7.4419 Y20.3679
G01 X7.5205 Y20.2967
G01 X7.5917 Y20.2181
G01 X7.6549 Y20.1329
G01 X7.7094 Y20.0420
G01 X7.7531 Y19.9499
G01 X7.7556 Y19.9441
G01 X7.7602 Y19.9312
G00 X7.7602 Y19.9312
G01 F90.00
G01 Z-0.2000
G01 F150.00
G01 X8.8506 Y19.9472
G01 X8.8507 Y22.0494
G01 X8.8524 Y22.0848
G01 X8.8573 Y22.1192
G01 X8.8591 Y22.1283
G01 X8.8677 Y22.1620
G01 X8.8803 Y22.1973
G01 X8.8949 Y22.2288
G01 X8.8993 Y22.2370
G01 X8.9184 Y22.2684
G01 X8.9404 Y22.2979
G01 X8.9655 Y22.3256
G01 X13.9962 Y27.3818
G01 X14.0235 Y27.4065
G01 X14.0511 Y27.4272
G01 X14.0597 Y27.4330
G01 X14.0895 Y27.4506
G01 X14.1227 Y27.4663
G01 X14.1552 Y27.4781
G01 X14.1651 Y27.4811
G01 X14.1987 Y27.4894
G01 X14.2351 Y27.4948
G01 X14.2738 Y27.4968
G01 X24.3591 Y27.4713
G01 X30.2616 Y27.4713
G01 X30.2617 Y28.5808
G01 X30.2633 Y28.5940
G01 X30.2669 Y28.6067
G01 X30.2722 Y28.6188
G01 X30.2793 Y28.6300
G01 X30.2880 Y28.6400
G01 X30.2980 Y28.6487
G01 X30.3072 Y28.6547
G01 X30.3192 Y28.6604
G01 X30.3276 Y28.6631
G01 X30.3340 Y28.6647
G01 X30.3428 Y28.6660
G01 X30.3514 Y28.6664
G01 X33.3518 Y28.6664
G01 X33.3604 Y28.6660
G01 X33.3692 Y28.6647
G01 X33.3777 Y28.6625
G01 X33.3860 Y28.6595
G01 X33.3940 Y28.6558
G01 X33.3997 Y28.6524
G01 X33.4070 Y28.6473
G01 X33.4137 Y28.6416
G01 X33.4197 Y28.6352
G01 X33.4252 Y28.6282
G01 X33.4299 Y28.6208
G01 X33.4330 Y28.6149
G01 X33.4363 Y28.6067
G01 X33.4389 Y28.5983
G01 X33.4403 Y28.5918
G01 X33.4414 Y28.5830
G01 X33.4416 Y27.4714
G01 X34.3651 Y27.4713
G01 X43.3682 Y27.5208
G01 X43.3763 Y27.5428
G01 X43.4189 Y27.6329
G01 X43.4228 Y27.6402
G01 X43.4753 Y27.7275
G01 X43.5385 Y27.8127
G01 X43.6097 Y27.8913
G01 X43.6851 Y27.9598
G01 X43.6916 Y27.9651
G01 X43.7735 Y28.0257
G01 X43.8644 Y28.0802
G01 X43.9565 Y28.1239
G01 X43.9642 Y28.1270
G01 X44.0601 Y28.1613
G01 X44.1589 Y28.1861
G01 X44.1671 Y28.1878
G01 X44.2679 Y28.2026
G01 X44.3738 Y28.2078
G01 X44.4797 Y28.2026
G01 X44.5805 Y28.1878
G01 X44.5887 Y28.1861
G01 X44.6835 Y28.1624
G01 X44.6914 Y28.1600
G01 X44.7873 Y28.1255
G01 X44.8832 Y28.0802
G01 X44.9741 Y28.0257
G01 X45.0593 Y27.9625
G01 X45.1379 Y27.8913
G01 X45.2091 Y27.8127
G01 X45.2723 Y27.7275
G01 X45.3248 Y27.6402
G01 X45.3287 Y27.6329
G01 X45.3705 Y27.5445
G01 X45.3736 Y27.5368
G01 X45.4079 Y27.4409
G01 X45.4336 Y27.3380
G01 X45.4492 Y27.2331
G01 X45.4544 Y27.1272
G01 X45.4492 Y27.0213
G01 X45.4344 Y26.9205
G01 X45.4327 Y26.9123
G01 X45.4090 Y26.8175
G01 X45.4066 Y26.8096
G01 X45.3721 Y26.7137
G01 X45.3287 Y26.6215
G01 X45.3248 Y26.6142
G01 X45.2723 Y26.5269
G01 X45.2117 Y26.4450
G01 X45.2064 Y26.4385
G01 X45.1379 Y26.3631
G01 X45.0593 Y26.2919
G01 X44.9741 Y26.2287
G01 X44.8832 Y26.1742
G01 X44.7873 Y26.1289
G01 X44.6875 Y26.0931
G01 X44.5846 Y26.0674
G01 X44.4839 Y26.0523
G01 X44.4756 Y26.0515
G01 X44.3738 Y26.0466
G01 X44.2679 Y26.0518
G01 X44.1630 Y26.0674
G01 X44.0641 Y26.0920
G01 X44.0562 Y26.0944
G01 X43.9642 Y26.1274
G01 X43.9565 Y26.1305
G01 X43.8644 Y26.1742
G01 X43.7770 Y26.2265
G01 X43.7700 Y26.2311
G01 X43.6916 Y26.2893
G01 X43.6851 Y26.2946
G01 X43.6097 Y26.3631
G01 X43.5385 Y26.4417
G01 X43.4753 Y26.5269
G01 X43.4228 Y26.6142
G01 X43.4189 Y26.6215
G01 X43.3771 Y26.7099
G01 X43.3746 Y26.7157
G01 X43.3692 Y26.7309
G01 X34.7612 Y26.6836
G01 X34.7611 Y17.4394
G01 X43.3685 Y17.4631
G01 X43.3746 Y17.4803
G01 X43.3771 Y17.4861
G01 X43.4189 Y17.5745
G01 X43.4228 Y17.5818
G01 X43.4753 Y17.6691
G01 X43.5359 Y17.7510
G01 X43.5412 Y17.7575
G01 X43.6097 Y17.8329
G01 X43.6883 Y17.9041
G01 X43.7735 Y17.9673
G01 X43.8644 Y18.0218
G01 X43.9603 Y18.0671
G01 X44.0562 Y18.1016
G01 X44.0641 Y18.1040
G01 X44.1589 Y18.1277
G01 X44.1671 Y18.1294
G01 X44.2679 Y18.1442
G01 X44.3738 Y18.1494
G01 X44.4797 Y18.1442
G01 X44.5805 Y18.1294
G01 X44.5887 Y18.1277
G01 X44.6835 Y18.1040
G01 X44.6914 Y18.1016
G01 X44.7873 Y18.0671
G01 X44.8795 Y18.0237
G01 X44.8868 Y18.0198
G01 X44.9741 Y17.9673
G01 X45.0593 Y17.9041
G01 X45.1379 Y17.8329
G01 X45.2064 Y17.7575
G01 X45.2117 Y17.7510
G01 X45.2723 Y17.6691
G01 X45.3268 Y17.5782
G01 X45.3721 Y17.4823
G01 X45.4079 Y17.3825
G01 X45.4336 Y17.2796
G01 X45.4492 Y17.1747
G01 X45.4544 Y17.0688
G01 X45.4492 Y16.9629
G01 X45.4336 Y16.8580
G01 X45.4079 Y16.7551
G01 X45.3721 Y16.6553
G01 X45.3287 Y16.5631
G01 X45.3248 Y16.5558
G01 X45.2723 Y16.4685
G01 X45.2117 Y16.3866
G01 X45.2064 Y16.3801
G01 X45.1408 Y16.3077
G01 X45.1349 Y16.3018
G01 X45.0593 Y16.2335
G01 X44.9741 Y16.1703
G01 X44.8832 Y16.1158
G01 X44.7873 Y16.0705
G01 X44.6875 Y16.0347
G01 X44.5846 Y16.0090
G01 X44.4797 Y15.9934
G01 X44.3760 Y15.9882
G01 X44.2720 Y15.9931
G01 X44.2637 Y15.9939
G01 X44.1630 Y16.0090
G01 X44.0601 Y16.0347
G01 X43.9603 Y16.0705
G01 X43.8681 Y16.1139
G01 X43.8608 Y16.1178
G01 X43.7735 Y16.1703
G01 X43.6883 Y16.2335
G01 X43.6127 Y16.3018
G01 X43.6068 Y16.3077
G01 X43.5385 Y16.3833
G01 X43.4753 Y16.4685
G01 X43.4228 Y16.5558
G01 X43.4189 Y16.5631
G01 X43.3771 Y16.6515
G01 X43.3746 Y16.6573
G01 X43.3689 Y16.6732
G01 X34.3661 Y16.6484
G01 X34.3274 Y16.6504
G01 X34.2890 Y16.6561
G01 X34.2514 Y16.6655
G01 X34.2149 Y16.6786
G01 X34.1799 Y16.6951
G01 X34.1467 Y16.7151
G01 X34.1155 Y16.7382
G01 X34.0907 Y16.7605
G01 X34.0854 Y16.7657
G01 X34.0608 Y16.7929
G01 X34.0377 Y16.8241
G01 X34.0178 Y16.8573
G01 X34.0013 Y16.8924
G01 X33.9882 Y16.9289
G01 X33.9791 Y16.9652
G01 X33.9733 Y17.0035
G01 X33.9713 Y17.0422
G01 X33.9713 Y26.6814
G01 X33.4416 Y26.6814
G01 X33.4416 Y25.5742
G01 X33.4406 Y25.5632
G01 X33.4383 Y25.5524
G01 X33.4347 Y25.5420
G01 X33.4310 Y25.5340
G01 X33.4252 Y25.5246
G01 X33.4197 Y25.5176
G01 X33.4120 Y25.5097
G01 X33.4034 Y25.5028
G01 X33.3921 Y25.4960
G01 X33.3798 Y25.4909
G01 X33.3670 Y25.4877
G01 X33.3538 Y25.4864
G01 X32.2466 Y25.4864
G01 X32.2466 Y23.0777
G01 X32.2631 Y23.0718
G01 X32.2689 Y23.0693
G01 X32.3573 Y23.0275
G01 X32.3646 Y23.0236
G01 X32.4519 Y22.9711
G01 X32.5371 Y22.9079
G01 X32.6157 Y22.8367
G01 X32.6842 Y22.7613
G01 X32.6895 Y22.7548
G01 X32.7477 Y22.6764
G01 X32.7523 Y22.6694
G01 X32.8046 Y22.5820
G01 X32.8499 Y22.4861
G01 X32.8857 Y22.3863
G01 X32.9105 Y22.2875
G01 X32.9122 Y22.2793
G01 X32.9265 Y22.1827
G01 X32.9273 Y22.1744
G01 X32.9322 Y22.0726
G01 X32.9270 Y21.9667
G01 X32.9114 Y21.8618
G01 X32.8857 Y21.7589
G01 X32.8499 Y21.6591
G01 X32.8065 Y21.5669
G01 X32.8026 Y21.5596
G01 X32.7523 Y21.4758
G01 X32.7477 Y21.4688
G01 X32.6869 Y21.3871
G01 X32.6186 Y21.3115
G01 X32.6127 Y21.3056
G01 X32.5371 Y21.2373
G01 X32.4519 Y21.1741
G01 X32.3610 Y21.1196
G01 X32.2651 Y21.0743
G01 X32.1653 Y21.0385
G01 X32.0624 Y21.0128
G01 X31.9575 Y20.9972
G01 X31.8516 Y20.9920
G01 X31.7457 Y20.9972
G01 X31.6408 Y21.0128
G01 X31.5379 Y21.0385
G01 X31.4381 Y21.0743
G01 X31.3422 Y21.1196
G01 X31.2513 Y21.1741
G01 X31.1661 Y21.2373
G01 X31.0905 Y21.3056
G01 X31.0846 Y21.3115
G01 X31.0190 Y21.3839
G01 X31.0137 Y21.3904
G01 X30.9531 Y21.4723
G01 X30.9006 Y21.5596
G01 X30.8967 Y21.5669
G01 X30.8533 Y21.6591
G01 X30.8175 Y21.7589
G01 X30.7918 Y21.8618
G01 X30.7762 Y21.9667
G01 X30.7710 Y22.0726
G01 X30.7759 Y22.1744
G01 X30.7767 Y22.1827
G01 X30.7910 Y22.2793
G01 X30.7927 Y22.2875
G01 X30.8175 Y22.3863
G01 X30.8533 Y22.4861
G01 X30.8986 Y22.5820
G01 X30.9509 Y22.6694
G01 X30.9555 Y22.6764
G01 X31.0137 Y22.7548
G01 X31.0190 Y22.7613
G01 X31.0875 Y22.8367
G01 X31.1661 Y22.9079
G01 X31.2513 Y22.9711
G01 X31.3386 Y23.0236
G01 X31.3459 Y23.0275
G01 X31.4343 Y23.0693
G01 X31.4401 Y23.0718
G01 X31.4566 Y23.0777
G01 X31.4567 Y25.4864
G01 X30.3494 Y25.4864
G01 X30.3406 Y25.4871
G01 X30.3319 Y25.4886
G01 X30.3234 Y25.4909
G01 X30.3151 Y25.4941
G01 X30.3092 Y25.4970
G01 X30.3016 Y25.5016
G01 X30.2945 Y25.5068
G01 X30.2880 Y25.5128
G01 X30.2820 Y25.5193
G01 X30.2768 Y25.5264
G01 X30.2722 Y25.5340
G01 X30.2693 Y25.5399
G01 X30.2661 Y25.5482
G01 X30.2638 Y25.5567
G01 X30.2623 Y25.5654
G01 X30.2616 Y25.5742
G01 X30.2616 Y26.6814
G01 X24.7474 Y26.6815
G01 X24.7320 Y25.6925
G01 X24.7447 Y25.6880
G01 X24.7505 Y25.6855
G01 X24.8389 Y25.6437
G01 X24.8462 Y25.6398
G01 X24.9335 Y25.5873
G01 X25.0187 Y25.5241
G01 X25.0973 Y25.4529
G01 X25.1658 Y25.3775
G01 X25.1711 Y25.3710
G01 X25.2317 Y25.2891
G01 X25.2862 Y25.1982
G01 X25.3299 Y25.1061
G01 X25.3330 Y25.0984
G01 X25.3673 Y25.0025
G01 X25.3930 Y24.8996
G01 X25.4081 Y24.7989
G01 X25.4089 Y24.7906
G01 X25.4138 Y24.6888
G01 X25.4086 Y24.5829
G01 X25.3938 Y24.4821
G01 X25.3921 Y24.4739
G01 X25.3673 Y24.3751
G01 X25.3315 Y24.2753
G01 X25.2881 Y24.1831
G01 X25.2842 Y24.1758
G01 X25.2317 Y24.0885
G01 X25.1711 Y24.0066
G01 X25.1658 Y24.0001
G01 X25.0973 Y23.9247
G01 X25.0187 Y23.8535
G01 X24.9335 Y23.7903
G01 X24.8462 Y23.7378
G01 X24.8389 Y23.7339
G01 X24.7505 Y23.6921
G01 X24.7447 Y23.6896
G01 X24.7282 Y23.6837
G01 X24.7282 Y23.1539
G01 X24.7447 Y23.1480
G01 X24.7505 Y23.1455
G01 X24.8389 Y23.1037
G01 X24.8462 Y23.0998
G01 X24.9335 Y23.0473
G01 X25.0187 Y22.9841
G01 X25.0973 Y22.9129
G01 X25.1658 Y22.8375
G01 X25.1711 Y22.8310
G01 X25.2317 Y22.7491
G01 X25.2862 Y22.6582
G01 X25.3299 Y22.5661
G01 X25.3330 Y22.5584
G01 X25.3673 Y22.4625
G01 X25.3930 Y22.3596
G01 X25.4081 Y22.2589
G01 X25.4089 Y22.2506
G01 X25.4138 Y22.1488
G01 X25.4086 Y22.0429
G01 X25.3938 Y21.9421
G01 X25.3921 Y21.9339
G01 X25.3673 Y21.8351
G01 X25.3330 Y21.7392
G01 X25.3299 Y21.7315
G01 X25.2862 Y21.6394
G01 X25.2317 Y21.5485
G01 X25.1711 Y21.4666
G01 X25.1658 Y21.4601
G01 X25.0973 Y21.3847
G01 X25.0187 Y21.3135
G01 X24.9335 Y21.2503
G01 X24.8462 Y21.1978
G01 X24.8389 Y21.1939
G01 X24.7505 Y21.1521
G01 X24.7447 Y21.1496
G01 X24.7282 Y21.1437
G01 X24.7282 Y20.6139
G01 X24.7447 Y20.6080
G01 X24.7505 Y20.6055
G01 X24.8389 Y20.5637
G01 X24.8462 Y20.5598
G01 X24.9335 Y20.5073
G01 X25.0187 Y20.4441
G01 X25.0943 Y20.3758
G01 X25.1002 Y20.3699
G01 X25.1685 Y20.2943
G01 X25.2317 Y20.2091
G01 X25.2842 Y20.1218
G01 X25.2881 Y20.1145
G01 X25.3315 Y20.0223
G01 X25.3673 Y19.9225
G01 X25.3930 Y19.8196
G01 X25.4081 Y19.7189
G01 X25.4089 Y19.7106
G01 X25.4138 Y19.6088
G01 X25.4086 Y19.5029
G01 X25.3938 Y19.4021
G01 X25.3921 Y19.3939
G01 X25.3673 Y19.2951
G01 X25.3330 Y19.1992
G01 X25.3299 Y19.1915
G01 X25.2862 Y19.0994
G01 X25.2317 Y19.0085
G01 X25.1685 Y18.9233
G01 X25.1002 Y18.8477
G01 X25.0943 Y18.8418
G01 X25.0187 Y18.7735
G01 X24.9335 Y18.7103
G01 X24.8462 Y18.6578
G01 X24.8389 Y18.6539
G01 X24.7505 Y18.6121
G01 X24.7447 Y18.6096
G01 X24.7282 Y18.6037
G01 X24.7282 Y18.0739
G01 X24.7447 Y18.0680
G01 X24.7505 Y18.0655
G01 X24.8389 Y18.0237
G01 X24.8462 Y18.0198
G01 X24.9335 Y17.9673
G01 X25.0187 Y17.9041
G01 X25.0973 Y17.8329
G01 X25.1658 Y17.7575
G01 X25.1711 Y17.7510
G01 X25.2317 Y17.6691
G01 X25.2862 Y17.5782
G01 X25.3299 Y17.4861
G01 X25.3330 Y17.4784
G01 X25.3673 Y17.3825
G01 X25.3930 Y17.2796
G01 X25.4081 Y17.1789
G01 X25.4089 Y17.1706
G01 X25.4138 Y17.0688
G01 X25.4086 Y16.9629
G01 X25.3938 Y16.8621
G01 X25.3921 Y16.8539
G01 X25.3673 Y16.7551
G01 X25.3330 Y16.6592
G01 X25.3299 Y16.6515
G01 X25.2862 Y16.5594
G01 X25.2317 Y16.4685
G01 X25.1685 Y16.3833
G01 X25.1002 Y16.3077
G01 X25.0943 Y16.3018
G01 X25.0187 Y16.2335
G01 X24.9335 Y16.1703
G01 X24.8462 Y16.1178
G01 X24.8389 Y16.1139
G01 X24.7505 Y16.0721
G01 X24.7447 Y16.0696
G01 X24.7282 Y16.0637
G01 X24.7282 Y15.5339
G01 X24.7447 Y15.5280
G01 X24.7505 Y15.5255
G01 X24.8389 Y15.4837
G01 X24.8462 Y15.4798
G01 X24.9335 Y15.4273
G01 X25.0187 Y15.3641
G01 X25.0973 Y15.2929
G01 X25.1658 Y15.2175
G01 X25.1711 Y15.2110
G01 X25.2317 Y15.1291
G01 X25.2862 Y15.0382
G01 X25.3299 Y14.9461
G01 X25.3330 Y14.9384
G01 X25.3673 Y14.8425
G01 X25.3930 Y14.7396
G01 X25.4081 Y14.6389
G01 X25.4089 Y14.6306
G01 X25.4138 Y14.5288
G01 X25.4086 Y14.4229
G01 X25.3938 Y14.3221
G01 X25.3921 Y14.3139
G01 X25.3673 Y14.2151
G01 X25.3315 Y14.1153
G01 X25.2881 Y14.0231
G01 X25.2842 Y14.0158
G01 X25.2317 Y13.9285
G01 X25.1685 Y13.8433
G01 X25.1002 Y13.7677
G01 X25.0943 Y13.7618
G01 X25.0187 Y13.6935
G01 X24.9335 Y13.6303
G01 X24.8462 Y13.5778
G01 X24.8389 Y13.5739
G01 X24.7505 Y13.5321
G01 X24.7447 Y13.5296
G01 X24.7282 Y13.5237
G01 X24.7282 Y12.9939
G01 X24.7447 Y12.9880
G01 X24.7505 Y12.9855
G01 X24.8389 Y12.9437
G01 X24.8462 Y12.9398
G01 X24.9335 Y12.8873
G01 X25.0187 Y12.8241
G01 X25.0943 Y12.7558
G01 X25.1002 Y12.7499
G01 X25.1685 Y12.6743
G01 X25.2317 Y12.5891
G01 X25.2842 Y12.5018
G01 X25.2881 Y12.4945
G01 X25.3315 Y12.4023
G01 X25.3673 Y12.3025
G01 X25.3930 Y12.1996
G01 X25.4081 Y12.0989
G01 X25.4089 Y12.0906
G01 X25.4138 Y11.9866
G01 X25.4086 Y11.8829
G01 X25.3930 Y11.7780
G01 X25.3673 Y11.6751
G01 X25.3330 Y11.5792
G01 X25.3299 Y11.5715
G01 X25.2881 Y11.4831
G01 X25.2842 Y11.4758
G01 X25.2317 Y11.3885
G01 X25.1685 Y11.3033
G01 X25.0973 Y11.2247
G01 X25.0219 Y11.1562
G01 X25.0154 Y11.1509
G01 X24.9370 Y11.0927
G01 X24.9300 Y11.0881
G01 X24.8426 Y11.0358
G01 X24.7467 Y10.9905
G01 X24.6469 Y10.9547
G01 X24.5440 Y10.9290
G01 X24.4391 Y10.9134
G01 X24.3374 Y10.9083
G01 X24.3290 Y10.9083
G01 X24.2314 Y10.9131
G01 X24.2231 Y10.9139
G01 X24.1224 Y10.9290
G01 X24.0235 Y10.9536
G01 X24.0156 Y10.9560
G01 X23.9197 Y10.9905
G01 X23.8238 Y11.0358
G01 X23.7329 Y11.0903
G01 X23.6477 Y11.1535
G01 X23.5691 Y11.2247
G01 X23.4979 Y11.3033
G01 X23.4347 Y11.3885
G01 X23.3822 Y11.4758
G01 X23.3783 Y11.4831
G01 X23.3349 Y11.5753
G01 X23.3004 Y11.6712
G01 X23.2980 Y11.6791
G01 X23.2734 Y11.7780
G01 X23.2583 Y11.8787
G01 X23.2575 Y11.8870
G01 X23.2527 Y11.9846
G01 X23.2527 Y11.9930
G01 X23.2575 Y12.0906
G01 X23.2583 Y12.0989
G01 X23.2734 Y12.1996
G01 X23.2991 Y12.3025
G01 X23.3349 Y12.4023
G01 X23.3783 Y12.4945
G01 X23.3822 Y12.5018
G01 X23.4347 Y12.5891
G01 X23.4979 Y12.6743
G01 X23.5662 Y12.7499
G01 X23.5721 Y12.7558
G01 X23.6477 Y12.8241
G01 X23.7329 Y12.8873
G01 X23.8202 Y12.9398
G01 X23.8275 Y12.9437
G01 X23.9159 Y12.9855
G01 X23.9217 Y12.9880
G01 X23.9382 Y12.9939
G01 X23.9382 Y13.5237
G01 X23.9217 Y13.5296
G01 X23.9159 Y13.5321
G01 X23.8275 Y13.5739
G01 X23.8202 Y13.5778
G01 X23.7329 Y13.6303
G01 X23.6477 Y13.6935
G01 X23.5721 Y13.7618
G01 X23.5662 Y13.7677
G01 X23.4979 Y13.8433
G01 X23.4347 Y13.9285
G01 X23.3802 Y14.0194
G01 X23.3365 Y14.1115
G01 X23.3334 Y14.1192
G01 X23.2991 Y14.2151
G01 X23.2743 Y14.3139
G01 X23.2726 Y14.3221
G01 X23.2578 Y14.4229
G01 X23.2526 Y14.5288
G01 X23.2575 Y14.6306
G01 X23.2583 Y14.6389
G01 X23.2734 Y14.7396
G01 X23.2991 Y14.8425
G01 X23.3334 Y14.9384
G01 X23.3365 Y14.9461
G01 X23.3802 Y15.0382
G01 X23.4347 Y15.1291
G01 X23.4953 Y15.2110
G01 X23.5006 Y15.2175
G01 X23.5691 Y15.2929
G01 X23.6477 Y15.3641
G01 X23.7329 Y15.4273
G01 X23.8202 Y15.4798
G01 X23.8275 Y15.4837
G01 X23.9159 Y15.5255
G01 X23.9217 Y15.5280
G01 X23.9382 Y15.5339
G01 X23.9382 Y16.0637
G01 X23.9217 Y16.0696
G01 X23.9159 Y16.0721
G01 X23.8275 Y16.1139
G01 X23.8202 Y16.1178
G01 X23.7329 Y16.1703
G01 X23.6477 Y16.2335
G01 X23.5721 Y16.3018
G01 X23.5662 Y16.3077
G01 X23.4979 Y16.3833
G01 X23.4347 Y16.4685
G01 X23.3802 Y16.5594
G01 X23.3365 Y16.6515
G01 X23.3334 Y16.6592
G01 X23.2991 Y16.7551
G01 X23.2743 Y16.8539
G01 X23.2726 Y16.8621
G01 X23.2578 Y16.9629
G01 X23.2526 Y17.0688
G01 X23.2575 Y17.1706
G01 X23.2583 Y17.1789
G01 X23.2734 Y17.2796
G01 X23.2991 Y17.3825
G01 X23.3349 Y17.4823
G01 X23.3783 Y17.5745
G01 X23.3822 Y17.5818
G01 X23.4347 Y17.6691
G01 X23.4979 Y17.7543
G01 X23.5662 Y17.8299
G01 X23.5721 Y17.8358
G01 X23.6477 Y17.9041
G01 X23.7329 Y17.9673
G01 X23.8202 Y18.0198
G01 X23.8275 Y18.0237
G01 X23.9159 Y18.0655
G01 X23.9217 Y18.0680
G01 X23.9382 Y18.0739
G01 X23.9382 Y18.6037
G01 X23.9217 Y18.6096
G01 X23.9159 Y18.6121
G01 X23.8275 Y18.6539
G01 X23.8202 Y18.6578
G01 X23.7329 Y18.7103
G01 X23.6477 Y18.7735
G01 X23.5691 Y18.8447
G01 X23.5006 Y18.9201
G01 X23.4953 Y18.9266
G01 X23.4347 Y19.0085
G01 X23.3802 Y19.0994
G01 X23.3365 Y19.1915
G01 X23.3334 Y19.1992
G01 X23.2991 Y19.2951
G01 X23.2743 Y19.3939
G01 X23.2726 Y19.4021
G01 X23.2578 Y19.5029
G01 X23.2526 Y19.6088
G01 X23.2575 Y19.7106
G01 X23.2583 Y19.7189
G01 X23.2734 Y19.8196
G01 X23.2991 Y19.9225
G01 X23.3349 Y20.0223
G01 X23.3783 Y20.1145
G01 X23.3822 Y20.1218
G01 X23.4347 Y20.2091
G01 X23.4979 Y20.2943
G01 X23.5662 Y20.3699
G01 X23.5721 Y20.3758
G01 X23.6477 Y20.4441
G01 X23.7329 Y20.5073
G01 X23.8202 Y20.5598
G01 X23.8275 Y20.5637
G01 X23.9159 Y20.6055
G01 X23.9217 Y20.6080
G01 X23.9382 Y20.6139
G01 X23.9382 Y21.1437
G01 X23.9217 Y21.1496
G01 X23.9159 Y21.1521
G01 X23.8275 Y21.1939
G01 X23.8202 Y21.1978
G01 X23.7329 Y21.2503
G01 X23.6477 Y21.3135
G01 X23.5721 Y21.3818
G01 X23.5662 Y21.3877
G01 X23.4979 Y21.4633
G01 X23.4347 Y21.5485
G01 X23.3822 Y21.6358
G01 X23.3783 Y21.6431
G01 X23.3349 Y21.7353
G01 X23.2991 Y21.8351
G01 X23.2743 Y21.9339
G01 X23.2726 Y21.9421
G01 X23.2578 Y22.0429
G01 X23.2526 Y22.1488
G01 X23.2575 Y22.2506
G01 X23.2583 Y22.2589
G01 X23.2734 Y22.3596
G01 X23.2991 Y22.4625
G01 X23.3334 Y22.5584
G01 X23.3365 Y22.5661
G01 X23.3802 Y22.6582
G01 X23.4347 Y22.7491
G01 X23.4953 Y22.8310
G01 X23.5006 Y22.8375
G01 X23.5691 Y22.9129
G01 X23.6477 Y22.9841
G01 X23.7329 Y23.0473
G01 X23.8202 Y23.0998
G01 X23.8275 Y23.1037
G01 X23.9159 Y23.1455
G01 X23.9217 Y23.1480
G01 X23.9382 Y23.1539
G01 X23.9382 Y23.6837
G01 X23.9217 Y23.6896
G01 X23.9159 Y23.6921
G01 X23.8275 Y23.7339
G01 X23.8202 Y23.7378
G01 X23.7329 Y23.7903
G01 X23.6477 Y23.8535
G01 X23.5721 Y23.9218
G01 X23.5662 Y23.9277
G01 X23.4979 Y24.0033
G01 X23.4347 Y24.0885
G01 X23.3822 Y24.1758
G01 X23.3783 Y24.1831
G01 X23.3349 Y24.2753
G01 X23.2991 Y24.3751
G01 X23.2743 Y24.4739
G01 X23.2726 Y24.4821
G01 X23.2578 Y24.5829
G01 X23.2526 Y24.6888
G01 X23.2578 Y24.7947
G01 X23.2726 Y24.8955
G01 X23.2743 Y24.9037
G01 X23.2991 Y25.0025
G01 X23.3349 Y25.1023
G01 X23.3783 Y25.1945
G01 X23.3822 Y25.2018
G01 X23.4347 Y25.2891
G01 X23.4979 Y25.3743
G01 X23.5662 Y25.4499
G01 X23.5721 Y25.4558
G01 X23.6477 Y25.5241
G01 X23.7329 Y25.5873
G01 X23.8219 Y25.6407
G01 X23.9176 Y25.6863
G01 X23.9420 Y25.6953
G01 X23.9574 Y26.6825
G01 X14.4386 Y26.7064
G01 X9.6406 Y21.8842
G01 X9.6405 Y19.5578
G01 X9.6393 Y19.5273
G01 X9.6384 Y19.5171
G01 X9.6341 Y19.4867
G01 X9.6325 Y19.4788
G01 X9.6252 Y19.4489
G01 X9.6229 Y19.4412
G01 X9.6127 Y19.4122
G01 X9.6096 Y19.4048
G01 X9.5966 Y19.3770
G01 X9.5929 Y19.3699
G01 X9.5772 Y19.3434
G01 X9.5727 Y19.3368
G01 X9.5546 Y19.3120
G01 X9.5495 Y19.3058
G01 X9.5290 Y19.2829
G01 X9.5233 Y19.2772
G01 X9.5023 Y19.2579
G01 X9.4944 Y19.2513
G01 X9.4732 Y19.2353
G01 X9.4632 Y19.2284
G01 X9.4388 Y19.2136
G01 X9.4318 Y19.2097
G01 X9.4021 Y19.1954
G01 X9.3947 Y19.1923
G01 X9.3658 Y19.1818
G01 X9.3581 Y19.1794
G01 X9.3324 Y19.1728
G01 X9.3185 Y19.1699
G01 X9.2923 Y19.1658
G01 X9.2821 Y19.1648
G01 X9.2517 Y19.1631
G01 X7.7628 Y19.1412
G01 X7.7539 Y19.1170
G01 X7.7083 Y19.0213
G01 X7.6549 Y18.9323
G01 X7.5931 Y18.8488
G01 X7.5234 Y18.7715
G01 X7.5175 Y18.7656
G01 X7.4419 Y18.6973
G01 X7.3586 Y18.6354
G01 X7.2694 Y18.5816
G01 X7.2621 Y18.5777
G01 X7.1699 Y18.5343
G01 X7.0701 Y18.4985
G01 X6.9713 Y18.4737
G01 X6.9631 Y18.4720
G01 X6.8623 Y18.4572
G01 X6.7606 Y18.4521
G01 X6.7522 Y18.4521
G01 X6.6546 Y18.4569
G01 X6.6463 Y18.4577
G01 X6.5456 Y18.4728
G01 X6.4427 Y18.4985
G01 X6.3468 Y18.5328
G01 X6.3391 Y18.5359
G01 X6.2470 Y18.5796
G01 X6.1561 Y18.6341
G01 X6.0709 Y18.6973
G01 X5.9953 Y18.7656
G01 X5.9894 Y18.7715
G01 X5.9211 Y18.8471
G01 X5.8603 Y18.9288
G01 X5.8557 Y18.9358
G01 X5.8034 Y19.0232
G01 X5.7581 Y19.1191
G01 X5.7223 Y19.2189
G01 X5.6966 Y19.3218
G01 X5.6810 Y19.4267
G01 X5.6758 Y19.5326
G01 X5.6810 Y19.6385
G01 X5.6966 Y19.7434
G01 X5.7223 Y19.8463
G01 X5.7581 Y19.9461
G01 X5.8034 Y20.0420
G01 X5.8579 Y20.1329
G01 X5.9211 Y20.2181
G01 X5.9923 Y20.2967
G01 X6.0709 Y20.3679
G01 X6.1561 Y20.4311
G01 X6.2470 Y20.4856
G01 X6.3429 Y20.5309
G01 X6.4427 Y20.5667
G01 X6.5456 Y20.5924
G01 X6.6505 Y20.6080
G01 X6.7564 Y20.6132
G01 X6.8623 Y20.6080
G01 X6.9672 Y20.5924
G01 X7.0701 Y20.5667
G01 X7.1699 Y20.5309
G01 X7.2658 Y20.4856
G01 X7.3567 Y20.4311
G01 X7.4419 Y20.3679
G01 X7.5205 Y20.2967
G01 X7.5917 Y20.2181
G01 X7.6549 Y20.1329
G01 X7.7094 Y20.0420
G01 X7.7531 Y19.9499
G01 X7.7556 Y19.9441
G01 X7.7602 Y19.9312
G00 Z1.0000
G00 X5.2562 Y25.4864
G01 F90.00
G01 Z-0.1000
G01 F150.00
G01 X5.2476 Y25.4868
G01 X5.2388 Y25.4881
G01 X5.2303 Y25.4903
G01 X5.2220 Y25.4933
G01 X5.2140 Y25.4970
G01 X5.2064 Y25.5016
G01 X5.1993 Y25.5068
G01 X5.1928 Y25.5128
G01 X5.1868 Y25.5193
G01 X5.1816 Y25.5264
G01 X5.1770 Y25.5340
G01 X5.1733 Y25.5420
G01 X5.1709 Y25.5482
G01 X5.1686 Y25.5567
G01 X5.1671 Y25.5654
G01 X5.1664 Y25.5742
G01 X5.1664 Y28.5766
G01 X5.1668 Y28.5852
G01 X5.1681 Y28.5940
G01 X5.1703 Y28.6025
G01 X5.1733 Y28.6108
G01 X5.1770 Y28.6188
G01 X5.1804 Y28.6245
G01 X5.1855 Y28.6318
G01 X5.1912 Y28.6385
G01 X5.1976 Y28.6445
G01 X5.2046 Y28.6500
G01 X5.2120 Y28.6547
G01 X5.2199 Y28.6587
G01 X5.2282 Y28.6619
G01 X5.2367 Y28.6642
G01 X5.2454 Y28.6657
G01 X5.2562 Y28.6664
G01 X8.2566 Y28.6664
G01 X8.2652 Y28.6660
G01 X8.2740 Y28.6647
G01 X8.2825 Y28.6625
G01 X8.2908 Y28.6595
G01 X8.2988 Y28.6558
G01 X8.3045 Y28.6524
G01 X8.3118 Y28.6473
G01 X8.3185 Y28.6416
G01 X8.3245 Y28.6352
G01 X8.3300 Y28.6282
G01 X8.3347 Y28.6208
G01 X8.3387 Y28.6129
G01 X8.3419 Y28.6046
G01 X8.3442 Y28.5961
G01 X8.3457 Y28.5874
G01 X8.3464 Y28.5766
G01 X8.3464 Y25.5762
G01 X8.3460 Y25.5676
G01 X8.3447 Y25.5588
G01 X8.3431 Y25.5524
G01 X8.3404 Y25.5440
G01 X8.3358 Y25.5340
G01 X8.3287 Y25.5228
G01 X8.3200 Y25.5128
G01 X8.3100 Y25.5041
G01 X8.2988 Y25.4970
G01 X8.2867 Y25.4917
G01 X8.2740 Y25.4881
G01 X8.2608 Y25.4865
G01 X7.1334 Y25.4864
G01 X7.1497 Y23.0783
G01 X7.1720 Y23.0701
G01 X7.2621 Y23.0275
G01 X7.2694 Y23.0236
G01 X7.3567 Y22.9711
G01 X7.4419 Y22.9079
G01 X7.5205 Y22.8367
G01 X7.5890 Y22.7613
G01 X7.5943 Y22.7548
G01 X7.6549 Y22.6729
G01 X7.7094 Y22.5820
G01 X7.7531 Y22.4899
G01 X7.7562 Y22.4822
G01 X7.7905 Y22.3863
G01 X7.8162 Y22.2834
G01 X7.8313 Y22.1827
G01 X7.8321 Y22.1744
G01 X7.8370 Y22.0726
G01 X7.8318 Y21.9667
G01 X7.8170 Y21.8659
G01 X7.8153 Y21.8577
G01 X7.7905 Y21.7589
G01 X7.7562 Y21.6630
G01 X7.7531 Y21.6553
G01 X7.7094 Y21.5632
G01 X7.6549 Y21.4723
G01 X7.5943 Y21.3904
G01 X7.5890 Y21.3839
G01 X7.5205 Y21.3085
G01 X7.4419 Y21.2373
G01 X7.3602 Y21.1765
G01 X7.3532 Y21.1719
G01 X7.2658 Y21.1196
G01 X7.1720 Y21.0751
G01 X7.0701 Y21.0385
G01 X6.9672 Y21.0128
G01 X6.8623 Y20.9972
G01 X6.7564 Y20.9920
G01 X6.6505 Y20.9972
G01 X6.5456 Y21.0128
G01 X6.4427 Y21.0385
G01 X6.3429 Y21.0743
G01 X6.2470 Y21.1196
G01 X6.1561 Y21.1741
G01 X6.0709 Y21.2373
G01 X5.9923 Y21.3085
G01 X5.9211 Y21.3871
G01 X5.8579 Y21.4723
G01 X5.8034 Y21.5632
G01 X5.7589 Y21.6570
G01 X5.7223 Y21.7589
G01 X5.6966 Y21.8618
G01 X5.6810 Y21.9667
G01 X5.6758 Y22.0726
G01 X5.6810 Y22.1785
G01 X5.6966 Y22.2834
G01 X5.7223 Y22.3863
G01 X5.7581 Y22.4861
G01 X5.8034 Y22.5820
G01 X5.8579 Y22.6729
G01 X5.9211 Y22.7581
G01 X5.9923 Y22.8367
G01 X6.0709 Y22.9079
G01 X6.1561 Y22.9711
G01 X6.2470 Y23.0256
G01 X6.3408 Y23.0701
G01 X6.3598 Y23.0771
G01 X6.3435 Y25.4864
G01 X5.2562 Y25.4864
G00 X5.2562 Y25.4864
G01 F90.00
G01 Z-0.2000
G01 F150.00
G01 X5.2476 Y25.4868
G01 X5.2388 Y25.4881
G01 X5.2303 Y25.4903
G01 X5.2220 Y25.4933
G01 X5.2140 Y25.4970
G01 X5.2064 Y25.5016
G01 X5.1993 Y25.5068
G01 X5.1928 Y25.5128
G01 X5.1868 Y25.5193
G01 X5.1816 Y25.5264
G01 X5.1770 Y25.5340
G01 X5.1733 Y25.5420
G01 X5.1709 Y25.5482
G01 X5.1686 Y25.5567
G01 X5.1671 Y25.5654
G01 X5.1664 Y25.5742
G01 X5.1664 Y28.5766
G01 X5.1668 Y28.5852
G01 X5.1681 Y28.5940
G01 X5.1703 Y28.6025
G01 X5.1733 Y28.6108
G01 X5.1770 Y28.6188
G01 X5.1804 Y28.6245
G01 X5.1855 Y28.6318
G01 X5.1912 Y28.6385
G01 X5.1976 Y28.6445
G01 X5.2046 Y28.6500
G01 X5.2120 Y28.6547
G01 X5.2199 Y28.6587
G01 X5.2282 Y28.6619
G01 X5.2367 Y28.6642
G01 X5.2454 Y28.6657
G01 X5.2562 Y28.6664
G01 X8.2566 Y28.6664
G01 X8.2652 Y28.6660
G01 X8.2740 Y28.6647
G01 X8.2825 Y28.6625
G01 X8.2908 Y28.6595
G01 X8.2988 Y28.6558
G01 X8.3045 Y28.6524
G01 X8.3118 Y28.6473
G01 X8.3185 Y28.6416
G01 X8.3245 Y28.6352
G01 X8.3300 Y28.6282
G01 X8.3347 Y28.6208
G01 X8.3387 Y28.6129
G01 X8.3419 Y28.6046
G01 X8.3442 Y28.5961
G01 X8.3457 Y28.5874
G01 X8.3464 Y28.5766
G01 X8.3464 Y25.5762
G01 X8.3460 Y25.5676
G01 X8.3447 Y25.5588
G01 X8.3431 Y25.5524
G01 X8.3404 Y25.5440
G01 X8.3358 Y25.5340
G01 X8.3287 Y25.5228
G01 X8.3200 Y25.5128
G01 X8.3100 Y25.5041
G01 X8.2988 Y25.4970
G01 X8.2867 Y25.4917
G01 X8.2740 Y25.4881
G01 X8.2608 Y25.4865
G01 X7.1334 Y25.4864
G01 X7.1497 Y23.0783
G01 X7.1720 Y23.0701
G01 X7.2621 Y23.0275
G01 X7.2694 Y23.0236
G01 X7.3567 Y22.9711
G01 X7.4419 Y22.9079
G01 X7.5205 Y22.8367
G01 X7.5890 Y22.7613
G01 X7.5943 Y22.7548
G01 X7.6549 Y22.6729
G01 X7.7094 Y22.5820
G01 X7.7531 Y22.4899
G01 X7.7562 Y22.4822
G01 X7.7905 Y22.3863
G01 X7.8162 Y22.2834
G01 X7.8313 Y22.1827
G01 X7.8321 Y22.1744
G01 X7.8370 Y22.0726
G01 X7.8318 Y21.9667
G01 X7.8170 Y21.8659
G01 X7.8153 Y21.8577
G01 X7.7905 Y21.7589
G01 X7.7562 Y21.6630
G01 X7.7531 Y21.6553
G01 X7.7094 Y21.5632
G01 X7.6549 Y21.4723
G01 X7.5943 Y21.3904
G01 X7.5890 Y21.3839
G01 X7.5205 Y21.3085
G01 X7.4419 Y21.2373
G01 X7.3602 Y21.1765
G01 X7.3532 Y21.1719
G01 X7.2658 Y21.1196
G01 X7.1720 Y21.0751
G01 X7.0701 Y21.0385
G01 X6.9672 Y21.0128
G01 X6.8623 Y20.9972
G01 X6.7564 Y20.9920
G01 X6.6505 Y20.9972
G01 X6.5456 Y21.0128
G01 X6.4427 Y21.0385
G01 X6.3429 Y21.0743
G01 X6.2470 Y21.1196
G01 X6.1561 Y21.1741
G01 X6.0709 Y21.2373
G01 X5.9923 Y21.3085
G01 X5.9211 Y21.3871
G01 X5.8579 Y21.4723
G01 X5.8034 Y21.5632
G01 X5.7589 Y21.6570
G01 X5.7223 Y21.7589
G01 X5.6966 Y21.8618
G01 X5.6810 Y21.9667
G01 X5.6758 Y22.0726
G01 X5.6810 Y22.1785
G01 X5.6966 Y22.2834
G01 X5.7223 Y22.3863
