(G-CODE GENERATED BY FLATCAM v8.993 - www.flatcam.org - Version Date: 2020/06/05)

(Name: cnc_socketplate_drill.txt_mill_cnc)
(Type: G-code from Geometry)
(Units: MM)

(Created on Saturday, 26 June 2021 at 15:56)

(This preprocessor is the default preprocessor used by FlatCAM.)
(It is made to work with MACH3 compatible motion controllers.)

(TOOL DIAMETER: 2.5 mm)
(Feedrate_XY: 120.0 mm/min)
(Feedrate_Z: 60.0 mm/min)
(Feedrate rapids 1500.0 mm/min)

(Z_Cut: -2.1 mm)
(DepthPerCut: 0.8 mm <=>3 passes)
(Z_Move: 2.0 mm)
(Z Start: None mm)
(Z End: 15.0 mm)
(Steps per circle: 64)
(Preprocessor Geometry: default)

(X range:    3.4029 ...   82.1037  mm)
(Y range:    3.4435 ...   52.0250  mm)

(Spindle Speed: 1000 RPM)
G21
G90
G94



G01 F120.00
G00 Z2.0000

M03 S1000
G00 X6.8029 Y5.1435
G01 F60.00
G01 Z-0.8000
G01 F120.00
G01 X6.7947 Y4.9769
G01 X6.7702 Y4.8118
G01 X6.7297 Y4.6500
G01 X6.6735 Y4.4929
G01 X6.6021 Y4.3421
G01 X6.5164 Y4.1990
G01 X6.4170 Y4.0650
G01 X6.3049 Y3.9414
G01 X6.1813 Y3.8294
G01 X6.0473 Y3.7300
G01 X5.9042 Y3.6442
G01 X5.7534 Y3.5729
G01 X5.5963 Y3.5167
G01 X5.4345 Y3.4762
G01 X5.2695 Y3.4517
G01 X5.1029 Y3.4435
G01 X4.9362 Y3.4517
G01 X4.7712 Y3.4762
G01 X4.6094 Y3.5167
G01 X4.4523 Y3.5729
G01 X4.3015 Y3.6442
G01 X4.1584 Y3.7300
G01 X4.0244 Y3.8294
G01 X3.9008 Y3.9414
G01 X3.7887 Y4.0650
G01 X3.6894 Y4.1990
G01 X3.6036 Y4.3421
G01 X3.5323 Y4.4929
G01 X3.4761 Y4.6500
G01 X3.4355 Y4.8118
G01 X3.4111 Y4.9769
G01 X3.4029 Y5.1435
G01 X3.4111 Y5.3101
G01 X3.4355 Y5.4752
G01 X3.4761 Y5.6370
G01 X3.5323 Y5.7941
G01 X3.6036 Y5.9449
G01 X3.6894 Y6.0880
G01 X3.7887 Y6.2220
G01 X3.9008 Y6.3456
G01 X4.0244 Y6.4576
G01 X4.1584 Y6.5570
G01 X4.3015 Y6.6428
G01 X4.4523 Y6.7141
G01 X4.6094 Y6.7703
G01 X4.7712 Y6.8108
G01 X4.9362 Y6.8353
G01 X5.1029 Y6.8435
G01 X5.2695 Y6.8353
G01 X5.4345 Y6.8108
G01 X5.5963 Y6.7703
G01 X5.7534 Y6.7141
G01 X5.9042 Y6.6428
G01 X6.0473 Y6.5570
G01 X6.1813 Y6.4576
G01 X6.3049 Y6.3456
G01 X6.4170 Y6.2220
G01 X6.5164 Y6.0880
G01 X6.6021 Y5.9449
G01 X6.6735 Y5.7941
G01 X6.7297 Y5.6370
G01 X6.7702 Y5.4752
G01 X6.7947 Y5.3101
G01 X6.8029 Y5.1435
G00 X6.8029 Y5.1435
G01 F60.00
G01 Z-1.6000
G01 F120.00
G01 X6.7947 Y4.9769
G01 X6.7702 Y4.8118
G01 X6.7297 Y4.6500
G01 X6.6735 Y4.4929
G01 X6.6021 Y4.3421
G01 X6.5164 Y4.1990
G01 X6.4170 Y4.0650
G01 X6.3049 Y3.9414
G01 X6.1813 Y3.8294
G01 X6.0473 Y3.7300
G01 X5.9042 Y3.6442
G01 X5.7534 Y3.5729
G01 X5.5963 Y3.5167
G01 X5.4345 Y3.4762
G01 X5.2695 Y3.4517
G01 X5.1029 Y3.4435
G01 X4.9362 Y3.4517
G01 X4.7712 Y3.4762
G01 X4.6094 Y3.5167
G01 X4.4523 Y3.5729
G01 X4.3015 Y3.6442
G01 X4.1584 Y3.7300
G01 X4.0244 Y3.8294
G01 X3.9008 Y3.9414
G01 X3.7887 Y4.0650
G01 X3.6894 Y4.1990
G01 X3.6036 Y4.3421
G01 X3.5323 Y4.4929
G01 X3.4761 Y4.6500
G01 X3.4355 Y4.8118
G01 X3.4111 Y4.9769
G01 X3.4029 Y5.1435
G01 X3.4111 Y5.3101
G01 X3.4355 Y5.4752
G01 X3.4761 Y5.6370
G01 X3.5323 Y5.7941
G01 X3.6036 Y5.9449
G01 X3.6894 Y6.0880
G01 X3.7887 Y6.2220
G01 X3.9008 Y6.3456
G01 X4.0244 Y6.4576
G01 X4.1584 Y6.5570
G01 X4.3015 Y6.6428
G01 X4.4523 Y6.7141
G01 X4.6094 Y6.7703
G01 X4.7712 Y6.8108
G01 X4.9362 Y6.8353
G01 X5.1029 Y6.8435
G01 X5.2695 Y6.8353
G01 X5.4345 Y6.8108
G01 X5.5963 Y6.7703
G01 X5.7534 Y6.7141
G01 X5.9042 Y6.6428
G01 X6.0473 Y6.5570
G01 X6.1813 Y6.4576
G01 X6.3049 Y6.3456
G01 X6.4170 Y6.2220
G01 X6.5164 Y6.0880
G01 X6.6021 Y5.9449
G01 X6.6735 Y5.7941
G01 X6.7297 Y5.6370
G01 X6.7702 Y5.4752
G01 X6.7947 Y5.3101
G01 X6.8029 Y5.1435
G00 X6.8029 Y5.1435
G01 F60.00
G01 Z-2.1000
G01 F120.00
G01 X6.7947 Y4.9769
G01 X6.7702 Y4.8118
G01 X6.7297 Y4.6500
G01 X6.6735 Y4.4929
G01 X6.6021 Y4.3421
G01 X6.5164 Y4.1990
G01 X6.4170 Y4.0650
G01 X6.3049 Y3.9414
G01 X6.1813 Y3.8294
G01 X6.0473 Y3.7300
G01 X5.9042 Y3.6442
G01 X5.7534 Y3.5729
G01 X5.5963 Y3.5167
G01 X5.4345 Y3.4762
G01 X5.2695 Y3.4517
G01 X5.1029 Y3.4435
G01 X4.9362 Y3.4517
G01 X4.7712 Y3.4762
G01 X4.6094 Y3.5167
G01 X4.4523 Y3.5729
G01 X4.3015 Y3.6442
G01 X4.1584 Y3.7300
G01 X4.0244 Y3.8294
G01 X3.9008 Y3.9414
G01 X3.7887 Y4.0650
G01 X3.6894 Y4.1990
G01 X3.6036 Y4.3421
G01 X3.5323 Y4.4929
G01 X3.4761 Y4.6500
G01 X3.4355 Y4.8118
G01 X3.4111 Y4.9769
G01 X3.4029 Y5.1435
G01 X3.4111 Y5.3101
G01 X3.4355 Y5.4752
G01 X3.4761 Y5.6370
G01 X3.5323 Y5.7941
G01 X3.6036 Y5.9449
G01 X3.6894 Y6.0880
G01 X3.7887 Y6.2220
G01 X3.9008 Y6.3456
G01 X4.0244 Y6.4576
G01 X4.1584 Y6.5570
G01 X4.3015 Y6.6428
G01 X4.4523 Y6.7141
G01 X4.6094 Y6.7703
G01 X4.7712 Y6.8108
G01 X4.9362 Y6.8353
G01 X5.1029 Y6.8435
G01 X5.2695 Y6.8353
G01 X5.4345 Y6.8108
G01 X5.5963 Y6.7703
G01 X5.7534 Y6.7141
G01 X5.9042 Y6.6428
G01 X6.0473 Y6.5570
G01 X6.1813 Y6.4576
G01 X6.3049 Y6.3456
G01 X6.4170 Y6.2220
G01 X6.5164 Y6.0880
G01 X6.6021 Y5.9449
G01 X6.6735 Y5.7941
G01 X6.7297 Y5.6370
G01 X6.7702 Y5.4752
G01 X6.7947 Y5.3101
G01 X6.8029 Y5.1435
G00 Z2.0000
G00 X6.8029 Y50.3250
G01 F60.00
G01 Z-0.8000
G01 F120.00
G01 X6.7947 Y50.1584
G01 X6.7702 Y49.9934
G01 X6.7297 Y49.8315
G01 X6.6735 Y49.6745
G01 X6.6021 Y49.5236
G01 X6.5164 Y49.3806
G01 X6.4170 Y49.2466
G01 X6.3049 Y49.1229
G01 X6.1813 Y49.0109
G01 X6.0473 Y48.9115
G01 X5.9042 Y48.8258
G01 X5.7534 Y48.7544
G01 X5.5963 Y48.6982
G01 X5.4345 Y48.6577
G01 X5.2695 Y48.6332
G01 X5.1029 Y48.6250
G01 X4.9362 Y48.6332
G01 X4.7712 Y48.6577
G01 X4.6094 Y48.6982
G01 X4.4523 Y48.7544
G01 X4.3015 Y48.8258
G01 X4.1584 Y48.9115
G01 X4.0244 Y49.0109
G01 X3.9008 Y49.1229
G01 X3.7887 Y49.2466
G01 X3.6894 Y49.3806
G01 X3.6036 Y49.5236
G01 X3.5323 Y49.6745
G01 X3.4761 Y49.8315
G01 X3.4355 Y49.9934
G01 X3.4111 Y50.1584
G01 X3.4029 Y50.3250
G01 X3.4111 Y50.4916
G01 X3.4355 Y50.6567
G01 X3.4761 Y50.8185
G01 X3.5323 Y50.9756
G01 X3.6036 Y51.1264
G01 X3.6894 Y51.2695
G01 X3.7887 Y51.4035
G01 X3.9008 Y51.5271
G01 X4.0244 Y51.6391
G01 X4.1584 Y51.7385
G01 X4.3015 Y51.8243
G01 X4.4523 Y51.8956
G01 X4.6094 Y51.9518
G01 X4.7712 Y51.9924
G01 X4.9362 Y52.0168
G01 X5.1029 Y52.0250
G01 X5.2695 Y52.0168
G01 X5.4345 Y51.9924
G01 X5.5963 Y51.9518
G01 X5.7534 Y51.8956
G01 X5.9042 Y51.8243
G01 X6.0473 Y51.7385
G01 X6.1813 Y51.6391
G01 X6.3049 Y51.5271
G01 X6.4170 Y51.4035
G01 X6.5164 Y51.2695
G01 X6.6021 Y51.1264
G01 X6.6735 Y50.9756
G01 X6.7297 Y50.8185
G01 X6.7702 Y50.6567
G01 X6.7947 Y50.4916
G01 X6.8029 Y50.3250
G00 X6.8029 Y50.3250
G01 F60.00
G01 Z-1.6000
G01 F120.00
G01 X6.7947 Y50.1584
G01 X6.7702 Y49.9934
G01 X6.7297 Y49.8315
G01 X6.6735 Y49.6745
G01 X6.6021 Y49.5236
G01 X6.5164 Y49.3806
G01 X6.4170 Y49.2466
G01 X6.3049 Y49.1229
G01 X6.1813 Y49.0109
G01 X6.0473 Y48.9115
G01 X5.9042 Y48.8258
G01 X5.7534 Y48.7544
G01 X5.5963 Y48.6982
G01 X5.4345 Y48.6577
G01 X5.2695 Y48.6332
G01 X5.1029 Y48.6250
G01 X4.9362 Y48.6332
G01 X4.7712 Y48.6577
G01 X4.6094 Y48.6982
G01 X4.4523 Y48.7544
G01 X4.3015 Y48.8258
G01 X4.1584 Y48.9115
G01 X4.0244 Y49.0109
G01 X3.9008 Y49.1229
G01 X3.7887 Y49.2466
G01 X3.6894 Y49.3806
G01 X3.6036 Y49.5236
G01 X3.5323 Y49.6745
G01 X3.4761 Y49.8315
G01 X3.4355 Y49.9934
G01 X3.4111 Y50.1584
G01 X3.4029 Y50.3250
G01 X3.4111 Y50.4916
G01 X3.4355 Y50.6567
G01 X3.4761 Y50.8185
G01 X3.5323 Y50.9756
G01 X3.6036 Y51.1264
G01 X3.6894 Y51.2695
G01 X3.7887 Y51.4035
G01 X3.9008 Y51.5271
G01 X4.0244 Y51.6391
G01 X4.1584 Y51.7385
G01 X4.3015 Y51.8243
G01 X4.4523 Y51.8956
G01 X4.6094 Y51.9518
G01 X4.7712 Y51.9924
G01 X4.9362 Y52.0168
G01 X5.1029 Y52.0250
G01 X5.2695 Y52.0168
G01 X5.4345 Y51.9924
G01 X5.5963 Y51.9518
G01 X5.7534 Y51.8956
G01 X5.9042 Y51.8243
G01 X6.0473 Y51.7385
G01 X6.1813 Y51.6391
G01 X6.3049 Y51.5271
G01 X6.4170 Y51.4035
G01 X6.5164 Y51.2695
G01 X6.6021 Y51.1264
G01 X6.6735 Y50.9756
G01 X6.7297 Y50.8185
G01 X6.7702 Y50.6567
G01 X6.7947 Y50.4916
G01 X6.8029 Y50.3250
G00 X6.8029 Y50.3250
G01 F60.00
G01 Z-2.1000
G01 F120.00
G01 X6.7947 Y50.1584
G01 X6.7702 Y49.9934
G01 X6.7297 Y49.8315
G01 X6.6735 Y49.6745
G01 X6.6021 Y49.5236
G01 X6.5164 Y49.3806
G01 X6.4170 Y49.2466
G01 X6.3049 Y49.1229
G01 X6.1813 Y49.0109
G01 X6.0473 Y48.9115
G01 X5.9042 Y48.8258
G01 X5.7534 Y48.7544
G01 X5.5963 Y48.6982
G01 X5.4345 Y48.6577
G01 X5.2695 Y48.6332
G01 X5.1029 Y48.6250
G01 X4.9362 Y48.6332
G01 X4.7712 Y48.6577
G01 X4.6094 Y48.6982
G01 X4.4523 Y48.7544
G01 X4.3015 Y48.8258
G01 X4.1584 Y48.9115
G01 X4.0244 Y49.0109
G01 X3.9008 Y49.1229
G01 X3.7887 Y49.2466
G01 X3.6894 Y49.3806
G01 X3.6036 Y49.5236
G01 X3.5323 Y49.6745
G01 X3.4761 Y49.8315
G01 X3.4355 Y49.9934
G01 X3.4111 Y50.1584
G01 X3.4029 Y50.3250
G01 X3.4111 Y50.4916
G01 X3.4355 Y50.6567
G01 X3.4761 Y50.8185
G01 X3.5323 Y50.9756
G01 X3.6036 Y51.1264
G01 X3.6894 Y51.2695
G01 X3.7887 Y51.4035
G01 X3.9008 Y51.5271
G01 X4.0244 Y51.6391
G01 X4.1584 Y51.7385
G01 X4.3015 Y51.8243
G01 X4.4523 Y51.8956
G01 X4.6094 Y51.9518
G01 X4.7712 Y51.9924
G01 X4.9362 Y52.0168
G01 X5.1029 Y52.0250
G01 X5.2695 Y52.0168
G01 X5.4345 Y51.9924
G01 X5.5963 Y51.9518
G01 X5.7534 Y51.8956
G01 X5.9042 Y51.8243
G01 X6.0473 Y51.7385
G01 X6.1813 Y51.6391
G01 X6.3049 Y51.5271
G01 X6.4170 Y51.4035
G01 X6.5164 Y51.2695
G01 X6.6021 Y51.1264
G01 X6.6735 Y50.9756
G01 X6.7297 Y50.8185
G01 X6.7702 Y50.6567
G01 X6.7947 Y50.4916
G01 X6.8029 Y50.3250
G00 Z2.0000
G00 X82.1037 Y50.3250
G01 F60.00
G01 Z-0.8000
G01 F120.00
G01 X82.0955 Y50.1584
G01 X82.0710 Y49.9934
G01 X82.0305 Y49.8315
G01 X81.9743 Y49.6745
G01 X81.9030 Y49.5236
G01 X81.8172 Y49.3806
G01 X81.7178 Y49.2466
G01 X81.6058 Y49.1229
G01 X81.4822 Y49.0109
G01 X81.3482 Y48.9115
G01 X81.2051 Y48.8258
G01 X81.0543 Y48.7544
G01 X80.8972 Y48.6982
G01 X80.7354 Y48.6577
G01 X80.5703 Y48.6332
G01 X80.4037 Y48.6250
G01 X80.2371 Y48.6332
G01 X80.0720 Y48.6577
G01 X79.9102 Y48.6982
G01 X79.7531 Y48.7544
G01 X79.6023 Y48.8258
G01 X79.4592 Y48.9115
G01 X79.3252 Y49.0109
G01 X79.2016 Y49.1229
G01 X79.0896 Y49.2466
G01 X78.9902 Y49.3806
G01 X78.9044 Y49.5236
G01 X78.8331 Y49.6745
G01 X78.7769 Y49.8315
G01 X78.7364 Y49.9934
G01 X78.7119 Y50.1584
G01 X78.7037 Y50.3250
G01 X78.7119 Y50.4916
G01 X78.7364 Y50.6567
G01 X78.7769 Y50.8185
G01 X78.8331 Y50.9756
G01 X78.9044 Y51.1264
G01 X78.9902 Y51.2695
G01 X79.0896 Y51.4035
G01 X79.2016 Y51.5271
G01 X79.3252 Y51.6391
G01 X79.4592 Y51.7385
G01 X79.6023 Y51.8243
G01 X79.7531 Y51.8956
G01 X79.9102 Y51.9518
G01 X80.0720 Y51.9924
G01 X80.2371 Y52.0168
G01 X80.4037 Y52.0250
G01 X80.5703 Y52.0168
G01 X80.7354 Y51.9924
G01 X80.8972 Y51.9518
G01 X81.0543 Y51.8956
G01 X81.2051 Y51.8243
G01 X81.3482 Y51.7385
G01 X81.4822 Y51.6391
G01 X81.6058 Y51.5271
G01 X81.7178 Y51.4035
G01 X81.8172 Y51.2695
G01 X81.9030 Y51.1264
G01 X81.9743 Y50.9756
G01 X82.0305 Y50.8185
G01 X82.0710 Y50.6567
G01 X82.0955 Y50.4916
G01 X82.1037 Y50.3250
G00 X82.1037 Y50.3250
G01 F60.00
G01 Z-1.6000
G01 F120.00
G01 X82.0955 Y50.1584
G01 X82.0710 Y49.9934
G01 X82.0305 Y49.8315
G01 X81.9743 Y49.6745
G01 X81.9030 Y49.5236
G01 X81.8172 Y49.3806
G01 X81.7178 Y49.2466
G01 X81.6058 Y49.1229
G01 X81.4822 Y49.0109
G01 X81.3482 Y48.9115
G01 X81.2051 Y48.8258
G01 X81.0543 Y48.7544
G01 X80.8972 Y48.6982
G01 X80.7354 Y48.6577
G01 X80.5703 Y48.6332
G01 X80.4037 Y48.6250
G01 X80.2371 Y48.6332
G01 X80.0720 Y48.6577
G01 X79.9102 Y48.6982
G01 X79.7531 Y48.7544
G01 X79.6023 Y48.8258
G01 X79.4592 Y48.9115
G01 X79.3252 Y49.0109
G01 X79.2016 Y49.1229
G01 X79.0896 Y49.2466
G01 X78.9902 Y49.3806
G01 X78.9044 Y49.5236
G01 X78.8331 Y49.6745
G01 X78.7769 Y49.8315
G01 X78.7364 Y49.9934
G01 X78.7119 Y50.1584
G01 X78.7037 Y50.3250
G01 X78.7119 Y50.4916
G01 X78.7364 Y50.6567
G01 X78.7769 Y50.8185
G01 X78.8331 Y50.9756
G01 X78.9044 Y51.1264
G01 X78.9902 Y51.2695
G01 X79.0896 Y51.4035
G01 X79.2016 Y51.5271
G01 X79.3252 Y51.6391
G01 X79.4592 Y51.7385
G01 X79.6023 Y51.8243
G01 X79.7531 Y51.8956
G01 X79.9102 Y51.9518
G01 X80.0720 Y51.9924
G01 X80.2371 Y52.0168
G01 X80.4037 Y52.0250
G01 X80.5703 Y52.0168
G01 X80.7354 Y51.9924
G01 X80.8972 Y51.9518
G01 X81.0543 Y51.8956
G01 X81.2051 Y51.8243
G01 X81.3482 Y51.7385
G01 X81.4822 Y51.6391
G01 X81.6058 Y51.5271
G01 X81.7178 Y51.4035
G01 X81.8172 Y51.2695
G01 X81.9030 Y51.1264
G01 X81.9743 Y50.9756
G01 X82.0305 Y50.8185
G01 X82.0710 Y50.6567
G01 X82.0955 Y50.4916
G01 X82.1037 Y50.3250
G00 X82.1037 Y50.3250
G01 F60.00
G01 Z-2.1000
G01 F120.00
G01 X82.0955 Y50.1584
G01 X82.0710 Y49.9934
G01 X82.0305 Y49.8315
G01 X81.9743 Y49.6745
G01 X81.9030 Y49.5236
G01 X81.8172 Y49.3806
G01 X81.7178 Y49.2466
G01 X81.6058 Y49.1229
G01 X81.4822 Y49.0109
G01 X81.3482 Y48.9115
G01 X81.2051 Y48.8258
G01 X81.0543 Y48.7544
G01 X80.8972 Y48.6982
G01 X80.7354 Y48.6577
G01 X80.5703 Y48.6332
G01 X80.4037 Y48.6250
G01 X80.2371 Y48.6332
G01 X80.0720 Y48.6577
G01 X79.9102 Y48.6982
G01 X79.7531 Y48.7544
G01 X79.6023 Y48.8258
G01 X79.4592 Y48.9115
G01 X79.3252 Y49.0109
G01 X79.2016 Y49.1229
G01 X79.0896 Y49.2466
G01 X78.9902 Y49.3806
G01 X78.9044 Y49.5236
G01 X78.8331 Y49.6745
G01 X78.7769 Y49.8315
G01 X78.7364 Y49.9934
G01 X78.7119 Y50.1584
G01 X78.7037 Y50.3250
G01 X78.7119 Y50.4916
G01 X78.7364 Y50.6567
G01 X78.7769 Y50.8185
G01 X78.8331 Y50.9756
G01 X78.9044 Y51.1264
G01 X78.9902 Y51.2695
G01 X79.0896 Y51.4035
G01 X79.2016 Y51.5271
G01 X79.3252 Y51.6391
G01 X79.4592 Y51.7385
G01 X79.6023 Y51.8243
G01 X79.7531 Y51.8956
G01 X79.9102 Y51.9518
G01 X80.0720 Y51.9924
G01 X80.2371 Y52.0168
G01 X80.4037 Y52.0250
G01 X80.5703 Y52.0168
G01 X80.7354 Y51.9924
G01 X80.8972 Y51.9518
G01 X81.0543 Y51.8956
G01 X81.2051 Y51.8243
G01 X81.3482 Y51.7385
G01 X81.4822 Y51.6391
G01 X81.6058 Y51.5271
G01 X81.7178 Y51.4035
G01 X81.8172 Y51.2695
G01 X81.9030 Y51.1264
G01 X81.9743 Y50.9756
G01 X82.0305 Y50.8185
G01 X82.0710 Y50.6567
G01 X82.0955 Y50.4916
G01 X82.1037 Y50.3250
G00 Z2.0000
G00 X82.1037 Y5.1435
G01 F60.00
G01 Z-0.8000
G01 F120.00
G01 X82.0955 Y4.9769
G01 X82.0710 Y4.8118
G01 X82.0305 Y4.6500
G01 X81.9743 Y4.4929
G01 X81.9030 Y4.3421
G01 X81.8172 Y4.1990
G01 X81.7178 Y4.0650
G01 X81.6058 Y3.9414
G01 X81.4822 Y3.8294
G01 X81.3482 Y3.7300
G01 X81.2051 Y3.6442
G01 X81.0543 Y3.5729
G01 X80.8972 Y3.5167
G01 X80.7354 Y3.4762
G01 X80.5703 Y3.4517
G01 X80.4037 Y3.4435
G01 X80.2371 Y3.4517
G01 X80.0720 Y3.4762
G01 X79.9102 Y3.5167
G01 X79.7531 Y3.5729
G01 X79.6023 Y3.6442
G01 X79.4592 Y3.7300
G01 X79.3252 Y3.8294
G01 X79.2016 Y3.9414
G01 X79.0896 Y4.0650
G01 X78.9902 Y4.1990
G01 X78.9044 Y4.3421
G01 X78.8331 Y4.4929
G01 X78.7769 Y4.6500
G01 X78.7364 Y4.8118
G01 X78.7119 Y4.9769
G01 X78.7037 Y5.1435
G01 X78.7119 Y5.3101
G01 X78.7364 Y5.4752
G01 X78.7769 Y5.6370
G01 X78.8331 Y5.7941
G01 X78.9044 Y5.9449
G01 X78.9902 Y6.0880
G01 X79.0896 Y6.2220
G01 X79.2016 Y6.3456
G01 X79.3252 Y6.4576
G01 X79.4592 Y6.5570
G01 X79.6023 Y6.6428
G01 X79.7531 Y6.7141
G01 X79.9102 Y6.7703
G01 X80.0720 Y6.8108
G01 X80.2371 Y6.8353
G01 X80.4037 Y6.8435
G01 X80.5703 Y6.8353
G01 X80.7354 Y6.8108
G01 X80.8972 Y6.7703
G01 X81.0543 Y6.7141
G01 X81.2051 Y6.6428
G01 X81.3482 Y6.5570
G01 X81.4822 Y6.4576
G01 X81.6058 Y6.3456
G01 X81.7178 Y6.2220
G01 X81.8172 Y6.0880
G01 X81.9030 Y5.9449
G01 X81.9743 Y5.7941
G01 X82.0305 Y5.6370
G01 X82.0710 Y5.4752
G01 X82.0955 Y5.3101
G01 X82.1037 Y5.1435
G00 X82.1037 Y5.1435
G01 F60.00
G01 Z-1.6000
G01 F120.00
G01 X82.0955 Y4.9769
G01 X82.0710 Y4.8118
G01 X82.0305 Y4.6500
G01 X81.9743 Y4.4929
G01 X81.9030 Y4.3421
G01 X81.8172 Y4.1990
G01 X81.7178 Y4.0650
G01 X81.6058 Y3.9414
G01 X81.4822 Y3.8294
G01 X81.3482 Y3.7300
G01 X81.2051 Y3.6442
G01 X81.0543 Y3.5729
G01 X80.8972 Y3.5167
G01 X80.7354 Y3.4762
G01 X80.5703 Y3.4517
G01 X80.4037 Y3.4435
G01 X80.2371 Y3.4517
G01 X80.0720 Y3.4762
G01 X79.9102 Y3.5167
G01 X79.7531 Y3.5729
G01 X79.6023 Y3.6442
G01 X79.4592 Y3.7300
G01 X79.3252 Y3.8294
G01 X79.2016 Y3.9414
G01 X79.0896 Y4.0650
G01 X78.9902 Y4.1990
G01 X78.9044 Y4.3421
G01 X78.8331 Y4.4929
G01 X78.7769 Y4.6500
G01 X78.7364 Y4.8118
G01 X78.7119 Y4.9769
G01 X78.7037 Y5.1435
G01 X78.7119 Y5.3101
G01 X78.7364 Y5.4752
G01 X78.7769 Y5.6370
G01 X78.8331 Y5.7941
G01 X78.9044 Y5.9449
G01 X78.9902 Y6.0880
G01 X79.0896 Y6.2220
G01 X79.2016 Y6.3456
G01 X79.3252 Y6.4576
G01 X79.4592 Y6.5570
G01 X79.6023 Y6.6428
G01 X79.7531 Y6.7141
G01 X79.9102 Y6.7703
G01 X80.0720 Y6.8108
G01 X80.2371 Y6.8353
G01 X80.4037 Y6.8435
G01 X80.5703 Y6.8353
G01 X80.7354 Y6.8108
G01 X80.8972 Y6.7703
G01 X81.0543 Y6.7141
G01 X81.2051 Y6.6428
G01 X81.3482 Y6.5570
G01 X81.4822 Y6.4576
G01 X81.6058 Y6.3456
G01 X81.7178 Y6.2220
G01 X81.8172 Y6.0880
G01 X81.9030 Y5.9449
G01 X81.9743 Y5.7941
G01 X82.0305 Y5.6370
G01 X82.0710 Y5.4752
G01 X82.0955 Y5.3101
G01 X82.1037 Y5.1435
G00 X82.1037 Y5.1435
G01 F60.00
G01 Z-2.1000
G01 F120.00
G01 X82.0955 Y4.9769
G01 X82.0710 Y4.8118
G01 X82.0305 Y4.6500
G01 X81.9743 Y4.4929
G01 X81.9030 Y4.3421
G01 X81.8172 Y4.1990
G01 X81.7178 Y4.0650
G01 X81.6058 Y3.9414
G01 X81.4822 Y3.8294
G01 X81.3482 Y3.7300
G01 X81.2051 Y3.6442
G01 X81.0543 Y3.5729
G01 X80.8972 Y3.5167
G01 X80.7354 Y3.4762
G01 X80.5703 Y3.4517
G01 X80.4037 Y3.4435
G01 X80.2371 Y3.4517
G01 X80.0720 Y3.4762
G01 X79.9102 Y3.5167
G01 X79.7531 Y3.5729
G01 X79.6023 Y3.6442
G01 X79.4592 Y3.7300
G01 X79.3252 Y3.8294
G01 X79.2016 Y3.9414
G01 X79.0896 Y4.0650
G01 X78.9902 Y4.1990
G01 X78.9044 Y4.3421
G01 X78.8331 Y4.4929
G01 X78.7769 Y4.6500
G01 X78.7364 Y4.8118
G01 X78.7119 Y4.9769
G01 X78.7037 Y5.1435
G01 X78.7119 Y5.3101
G01 X78.7364 Y5.4752
G01 X78.7769 Y5.6370
G01 X78.8331 Y5.7941
G01 X78.9044 Y5.9449
G01 X78.9902 Y6.0880
G01 X79.0896 Y6.2220
G01 X79.2016 Y6.3456
G01 X79.3252 Y6.4576
G01 X79.4592 Y6.5570
G01 X79.6023 Y6.6428
G01 X79.7531 Y6.7141
G01 X79.9102 Y6.7703
G01 X80.0720 Y6.8108
G01 X80.2371 Y6.8353
G01 X80.4037 Y6.8435
G01 X80.5703 Y6.8353
G01 X80.7354 Y6.8108
G01 X80.8972 Y6.7703
G01 X81.0543 Y6.7141
G01 X81.2051 Y6.6428
G01 X81.3482 Y6.5570
G01 X81.4822 Y6.4576
G01 X81.6058 Y6.3456
G01 X81.7178 Y6.2220
G01 X81.8172 Y6.0880
G01 X81.9030 Y5.9449
G01 X81.9743 Y5.7941
G01 X82.0305 Y5.6370
G01 X82.0710 Y5.4752
G01 X82.0955 Y5.3101
G01 X82.1037 Y5.1435
G00 Z2.0000
M05
G00 Z2.0000
G00 Z15.00

