(G-CODE GENERATED BY FLATCAM v8.993 - www.flatcam.org - Version Date: 2020/06/05)

(Name: cnc_socketplate_drill_07.txt_cnc)
(Type: G-code from Excellon)
(Units: MM)

(Created on Saturday, 26 June 2021 at 15:59)

(This preprocessor is the default preprocessor used by FlatCAM.)
(It is made to work with MACH3 compatible motion controllers.)


(TOOLS DIAMETER: )
(Tool: 1 -> Dia: 4.1999916)
(Tool: 100 -> Dia: 0.9652)

(FEEDRATE Z: )
(Tool: 1 -> Feedrate: 80.0)
(Tool: 100 -> Feedrate: 80.0)

(FEEDRATE RAPIDS: )
(Tool: 1 -> Feedrate Rapids: 1500)
(Tool: 100 -> Feedrate Rapids: 1500)

(Z_CUT: )
(Tool: 1 -> Z_Cut: -1.9)
(Tool: 100 -> Z_Cut: -2.1)

(Tools Offset: )
(Tool: 100 -> Offset Z: -0.0)

(Z_MOVE: )
(Tool: 1 -> Z_Move: 2)
(Tool: 100 -> Z_Move: 2)

(Z Start: None mm)
(Z End: 2.0 mm)
(Steps per circle: 64)
(Preprocessor Excellon: default)

(X range:    3.0029 ...   82.5037  mm)
(Y range:    3.0435 ...   52.4250  mm)

(Spindle Speed: 1000.0 RPM)
G21
G90
G94



G00 Z2.0000

G01 F80.00
M03 S1000
G00 X62.8345 Y20.1752
G01 Z-2.1000
G01 Z0
G00 Z2.0000
G00 X62.8345 Y22.7152
G01 Z-2.1000
G01 Z0
G00 Z2.0000
G00 X62.8345 Y25.2552
G01 Z-2.1000
G01 Z0
G00 Z2.0000
G00 X60.2945 Y25.2552
G01 Z-2.1000
G01 Z0
G00 Z2.0000
G00 X70.3631 Y37.6834
G01 Z-2.1000
G01 Z0
G00 Z2.0000
G00 X70.3631 Y40.2234
G01 Z-2.1000
G01 Z0
G00 Z2.0000
G00 X77.8942 Y37.6834
G01 Z-2.1000
G01 Z0
G00 Z2.0000
G00 X77.8942 Y40.2234
G01 Z-2.1000
G01 Z0
G00 Z2.0000
G00 X77.8942 Y42.7634
G01 Z-2.1000
G01 Z0
G00 Z2.0000
G00 X77.8942 Y45.3034
G01 Z-2.1000
G01 Z0
G00 Z2.0000
G00 X70.3631 Y42.7634
G01 Z-2.1000
G01 Z0
G00 Z2.0000
G00 X70.3631 Y45.3034
G01 Z-2.1000
G01 Z0
G00 Z2.0000
G00 X62.8345 Y45.3034
G01 Z-2.1000
G01 Z0
G00 Z2.0000
G00 X62.8345 Y42.7634
G01 Z-2.1000
G01 Z0
G00 Z2.0000
G00 X62.8345 Y40.2234
G01 Z-2.1000
G01 Z0
G00 Z2.0000
G00 X62.8345 Y37.6834
G01 Z-2.1000
G01 Z0
G00 Z2.0000
G00 X55.3034 Y37.6834
G01 Z-2.1000
G01 Z0
G00 Z2.0000
G00 X55.3034 Y40.2234
G01 Z-2.1000
G01 Z0
G00 Z2.0000
G00 X55.3034 Y42.7634
G01 Z-2.1000
G01 Z0
G00 Z2.0000
G00 X55.3034 Y45.3034
G01 Z-2.1000
G01 Z0
G00 Z2.0000
G00 X47.7723 Y45.3034
G01 Z-2.1000
G01 Z0
G00 Z2.0000
G00 X47.7723 Y42.7634
G01 Z-2.1000
G01 Z0
G00 Z2.0000
G00 X47.7723 Y40.2234
G01 Z-2.1000
G01 Z0
G00 Z2.0000
G00 X47.7723 Y37.6834
G01 Z-2.1000
G01 Z0
G00 Z2.0000
G00 X40.2438 Y37.6834
G01 Z-2.1000
G01 Z0
G00 Z2.0000
G00 X40.2438 Y40.2234
G01 Z-2.1000
G01 Z0
G00 Z2.0000
G00 X40.2438 Y42.7634
G01 Z-2.1000
G01 Z0
G00 Z2.0000
G00 X40.2438 Y45.3034
G01 Z-2.1000
G01 Z0
G00 Z2.0000
G00 X32.7127 Y45.3034
G01 Z-2.1000
G01 Z0
G00 Z2.0000
G00 X32.7127 Y42.7634
G01 Z-2.1000
G01 Z0
G00 Z2.0000
G00 X32.7127 Y40.2234
G01 Z-2.1000
G01 Z0
G00 Z2.0000
G00 X32.7127 Y37.6834
G01 Z-2.1000
G01 Z0
G00 Z2.0000
G00 X25.1841 Y45.3034
G01 Z-2.1000
G01 Z0
G00 Z2.0000
G00 X25.1841 Y42.7634
G01 Z-2.1000
G01 Z0
G00 Z2.0000
G00 X25.1841 Y40.2234
G01 Z-2.1000
G01 Z0
G00 Z2.0000
G00 X25.1841 Y37.6834
G01 Z-2.1000
G01 Z0
G00 Z2.0000
G00 X17.6530 Y37.6834
G01 Z-2.1000
G01 Z0
G00 Z2.0000
G00 X17.6530 Y40.2234
G01 Z-2.1000
G01 Z0
G00 Z2.0000
G00 X17.6530 Y42.7634
G01 Z-2.1000
G01 Z0
G00 Z2.0000
G00 X17.6530 Y45.3034
G01 Z-2.1000
G01 Z0
G00 Z2.0000
G00 X10.1244 Y45.3034
G01 Z-2.1000
G01 Z0
G00 Z2.0000
G00 X10.1244 Y42.7634
G01 Z-2.1000
G01 Z0
G00 Z2.0000
G00 X10.1244 Y40.2234
G01 Z-2.1000
G01 Z0
G00 Z2.0000
G00 X10.1244 Y37.6834
G01 Z-2.1000
G01 Z0
G00 Z2.0000
G00 X10.0940 Y25.2552
G01 Z-2.1000
G01 Z0
G00 Z2.0000
G00 X10.0940 Y22.7152
G01 Z-2.1000
G01 Z0
G00 Z2.0000
G00 X10.0940 Y20.1752
G01 Z-2.1000
G01 Z0
G00 Z2.0000
G00 X12.6340 Y20.1752
G01 Z-2.1000
G01 Z0
G00 Z2.0000
G00 X12.6340 Y22.7152
G01 Z-2.1000
G01 Z0
G00 Z2.0000
G00 X12.6340 Y25.2552
G01 Z-2.1000
G01 Z0
G00 Z2.0000
G00 X20.1625 Y27.8536
G01 Z-2.1000
G01 Z0
G00 Z2.0000
G00 X20.1625 Y25.3136
G01 Z-2.1000
G01 Z0
G00 Z2.0000
G00 X20.1625 Y22.7736
G01 Z-2.1000
G01 Z0
G00 Z2.0000
G00 X20.1625 Y20.2336
G01 Z-2.1000
G01 Z0
G00 Z2.0000
G00 X20.1625 Y17.6936
G01 Z-2.1000
G01 Z0
G00 Z2.0000
G00 X20.1625 Y15.1536
G01 Z-2.1000
G01 Z0
G00 Z2.0000
G00 X25.1841 Y15.1536
G01 Z-2.1000
G01 Z0
G00 Z2.0000
G00 X25.1841 Y17.6936
G01 Z-2.1000
G01 Z0
G00 Z2.0000
G00 X25.1841 Y20.2336
G01 Z-2.1000
G01 Z0
G00 Z2.0000
G00 X25.1841 Y22.7736
G01 Z-2.1000
G01 Z0
G00 Z2.0000
G00 X25.1841 Y25.3136
G01 Z-2.1000
G01 Z0
G00 Z2.0000
G00 X25.1841 Y27.8536
G01 Z-2.1000
G01 Z0
G00 Z2.0000
G00 X37.7038 Y22.7152
G01 Z-2.1000
G01 Z0
G00 Z2.0000
G00 X37.7038 Y25.2552
G01 Z-2.1000
G01 Z0
G00 Z2.0000
G00 X40.2438 Y25.2552
G01 Z-2.1000
G01 Z0
G00 Z2.0000
G00 X40.2438 Y22.7152
G01 Z-2.1000
G01 Z0
G00 Z2.0000
G00 X47.7444 Y20.1752
G01 Z-2.1000
G01 Z0
G00 Z2.0000
G00 X47.7444 Y22.7152
G01 Z-2.1000
G01 Z0
G00 Z2.0000
G00 X47.7444 Y25.2552
G01 Z-2.1000
G01 Z0
G00 Z2.0000
G00 X50.2844 Y25.2552
G01 Z-2.1000
G01 Z0
G00 Z2.0000
G00 X50.2844 Y22.7152
G01 Z-2.1000
G01 Z0
G00 Z2.0000
G00 X50.2844 Y20.1752
G01 Z-2.1000
G01 Z0
G00 Z2.0000
G00 X60.2945 Y22.7152
G01 Z-2.1000
G01 Z0
G00 Z2.0000
G00 X60.2945 Y20.1752
G01 Z-2.1000
G01 Z0
G00 Z2.0000
M05
G00 Z2.00

