(G-CODE GENERATED BY FLATCAM v8.993 - www.flatcam.org - Version Date: 2020/06/05)

(Name: cnc_socketplate_copperTop.gtl_0.1000_iso_cnc)
(Type: G-code from Geometry)
(Units: MM)

(Created on Saturday, 26 June 2021 at 11:02)

(This preprocessor is the default preprocessor used by FlatCAM.)
(It is made to work with MACH3 compatible motion controllers.)

(TOOL DIAMETER: 0.08 mm)
(Feedrate_XY: 150.0 mm/min)
(Feedrate_Z: 90.0 mm/min)
(Feedrate rapids 1500.0 mm/min)

(Z_Cut: -0.2 mm)
(DepthPerCut: 0.1 mm <=>2 passes)
(Z_Move: 1.0 mm)
(Z Start: None mm)
(Z End: 15.0 mm)
(Steps per circle: 64)
(Preprocessor Geometry: default)

(X range:    7.2651 ...   78.9424  mm)
(Y range:    9.8051 ...   46.3542  mm)

(Spindle Speed: 1000 RPM)
G21
G90
G94



G01 F150.00
G00 Z1.0000

M03 S1000
G00 X9.0033 Y20.1634
G01 F90.00
G01 Z-0.1000
G01 F150.00
G01 X9.0033 Y20.1718
G01 X9.0084 Y20.2735
G01 X9.0240 Y20.3784
G01 X9.0497 Y20.4813
G01 X9.0840 Y20.5772
G01 X9.0871 Y20.5849
G01 X9.1289 Y20.6733
G01 X9.1328 Y20.6806
G01 X9.1853 Y20.7679
G01 X9.2459 Y20.8498
G01 X9.2512 Y20.8563
G01 X9.3197 Y20.9317
G01 X9.3983 Y21.0029
G01 X9.4835 Y21.0661
G01 X9.5744 Y21.1206
G01 X9.6703 Y21.1659
G01 X9.7701 Y21.2017
G01 X9.8730 Y21.2274
G01 X9.9779 Y21.2430
G01 X10.0838 Y21.2482
G01 X10.1897 Y21.2430
G01 X10.2946 Y21.2274
G01 X10.3935 Y21.2028
G01 X10.4014 Y21.2004
G01 X10.4934 Y21.1674
G01 X10.5011 Y21.1643
G01 X10.5932 Y21.1206
G01 X10.6806 Y21.0683
G01 X10.6876 Y21.0637
G01 X10.7693 Y21.0029
G01 X10.8479 Y20.9317
G01 X10.9191 Y20.8531
G01 X10.9823 Y20.7679
G01 X11.0368 Y20.6770
G01 X11.0821 Y20.5811
G01 X11.1179 Y20.4813
G01 X11.1432 Y20.3806
G01 X11.1592 Y20.2735
G01 X11.1643 Y20.1718
G01 X11.1643 Y20.1634
G01 X11.1595 Y20.0658
G01 X11.1587 Y20.0575
G01 X11.1436 Y19.9568
G01 X11.1179 Y19.8539
G01 X11.0821 Y19.7541
G01 X11.0368 Y19.6582
G01 X10.9823 Y19.5673
G01 X10.9217 Y19.4854
G01 X10.9164 Y19.4789
G01 X10.8508 Y19.4065
G01 X10.8449 Y19.4006
G01 X10.7693 Y19.3323
G01 X10.6841 Y19.2691
G01 X10.5932 Y19.2146
G01 X10.5050 Y19.1728
G01 X10.5281 Y13.0696
G01 X24.8214 Y13.0695
G01 X24.8054 Y14.1574
G01 X24.7812 Y14.1663
G01 X24.6855 Y14.2119
G01 X24.5965 Y14.2653
G01 X24.5130 Y14.3271
G01 X24.4357 Y14.3968
G01 X24.4298 Y14.4027
G01 X24.3615 Y14.4783
G01 X24.2996 Y14.5616
G01 X24.2458 Y14.6508
G01 X24.2419 Y14.6581
G01 X24.1985 Y14.7503
G01 X24.1627 Y14.8501
G01 X24.1379 Y14.9489
G01 X24.1362 Y14.9571
G01 X24.1214 Y15.0579
G01 X24.1162 Y15.1616
G01 X24.1211 Y15.2656
G01 X24.1219 Y15.2739
G01 X24.1370 Y15.3746
G01 X24.1627 Y15.4775
G01 X24.1985 Y15.5773
G01 X24.2419 Y15.6695
G01 X24.2458 Y15.6768
G01 X24.2983 Y15.7641
G01 X24.3589 Y15.8460
G01 X24.3642 Y15.8525
G01 X24.4327 Y15.9279
G01 X24.5113 Y15.9991
G01 X24.5930 Y16.0599
G01 X24.6000 Y16.0645
G01 X24.6874 Y16.1168
G01 X24.7764 Y16.1590
G01 X24.7764 Y16.6149
G01 X24.7420 Y16.6273
G01 X24.7343 Y16.6306
G01 X24.7032 Y16.6457
G01 X24.6736 Y16.6636
G01 X24.6667 Y16.6683
G01 X24.6391 Y16.6892
G01 X24.6091 Y16.7170
G01 X24.5848 Y16.7444
G01 X24.5608 Y16.7775
G01 X24.5413 Y16.8110
G01 X24.5268 Y16.8422
G01 X24.5196 Y16.8622
G01 X24.5081 Y16.8712
G01 X24.4327 Y16.9397
G01 X24.3615 Y17.0183
G01 X24.2983 Y17.1035
G01 X24.2438 Y17.1944
G01 X24.1985 Y17.2903
G01 X24.1640 Y17.3862
G01 X24.1616 Y17.3941
G01 X24.1370 Y17.4930
G01 X24.1219 Y17.5937
G01 X24.1211 Y17.6020
G01 X24.1162 Y17.7038
G01 X24.1212 Y17.8075
G01 X24.1370 Y17.9146
G01 X24.1627 Y18.0175
G01 X24.1985 Y18.1173
G01 X24.2419 Y18.2095
G01 X24.2458 Y18.2168
G01 X24.2961 Y18.3006
G01 X24.3007 Y18.3076
G01 X24.3615 Y18.3893
G01 X24.4298 Y18.4649
G01 X24.4357 Y18.4708
G01 X24.5113 Y18.5391
G01 X24.5965 Y18.6023
G01 X24.6874 Y18.6568
G01 X24.7833 Y18.7021
G01 X24.8831 Y18.7379
G01 X24.9860 Y18.7636
G01 X25.0909 Y18.7792
G01 X25.1990 Y18.7844
G01 X25.3027 Y18.7792
G01 X25.4076 Y18.7636
G01 X25.5105 Y18.7379
G01 X25.6103 Y18.7021
G01 X25.7062 Y18.6568
G01 X25.7971 Y18.6023
G01 X25.8823 Y18.5391
G01 X25.9579 Y18.4708
G01 X25.9638 Y18.4649
G01 X26.0294 Y18.3925
G01 X26.0347 Y18.3860
G01 X26.0953 Y18.3041
G01 X26.1478 Y18.2168
G01 X26.1517 Y18.2095
G01 X26.1951 Y18.1173
G01 X26.2309 Y18.0175
G01 X26.2566 Y17.9146
G01 X26.2724 Y17.8075
G01 X26.2774 Y17.7038
G01 X26.2722 Y17.5979
G01 X26.2566 Y17.4930
G01 X26.2320 Y17.3941
G01 X26.2296 Y17.3862
G01 X26.1966 Y17.2942
G01 X26.1935 Y17.2865
G01 X26.1498 Y17.1944
G01 X26.0965 Y17.1053
G01 X26.0321 Y17.0183
G01 X25.9638 Y16.9427
G01 X25.9579 Y16.9368
G01 X25.8806 Y16.8671
G01 X25.7971 Y16.8053
G01 X25.7081 Y16.7519
G01 X25.6124 Y16.7063
G01 X25.5664 Y16.6896
G01 X25.5664 Y16.1780
G01 X25.6124 Y16.1613
G01 X25.7081 Y16.1157
G01 X25.7971 Y16.0623
G01 X25.8806 Y16.0005
G01 X25.9579 Y15.9308
G01 X25.9638 Y15.9249
G01 X26.0321 Y15.8493
G01 X26.0940 Y15.7660
G01 X26.1478 Y15.6768
G01 X26.1517 Y15.6695
G01 X26.1951 Y15.5773
G01 X26.2309 Y15.4775
G01 X26.2557 Y15.3787
G01 X26.2574 Y15.3705
G01 X26.2722 Y15.2697
G01 X26.2774 Y15.1638
G01 X26.2722 Y15.0579
G01 X26.2574 Y14.9571
G01 X26.2557 Y14.9489
G01 X26.2309 Y14.8501
G01 X26.1966 Y14.7542
G01 X26.1935 Y14.7465
G01 X26.1498 Y14.6544
G01 X26.0953 Y14.5635
G01 X26.0321 Y14.4783
G01 X25.9638 Y14.4027
G01 X25.9579 Y14.3968
G01 X25.8823 Y14.3285
G01 X25.7971 Y14.2653
G01 X25.7098 Y14.2128
G01 X25.7025 Y14.2089
G01 X25.6141 Y14.1671
G01 X25.6083 Y14.1646
G01 X25.5954 Y14.1600
G01 X25.6172 Y12.6746
G01 X25.6159 Y12.6439
G01 X25.6153 Y12.6359
G01 X25.6110 Y12.6054
G01 X25.6096 Y12.5975
G01 X25.6024 Y12.5677
G01 X25.6001 Y12.5600
G01 X25.5901 Y12.5309
G01 X25.5854 Y12.5196
G01 X25.5742 Y12.4955
G01 X25.5705 Y12.4884
G01 X25.5550 Y12.4619
G01 X25.5482 Y12.4518
G01 X25.5325 Y12.4303
G01 X25.5275 Y12.4240
G01 X25.5056 Y12.3995
G01 X25.4999 Y12.3938
G01 X25.4789 Y12.3745
G01 X25.4695 Y12.3667
G01 X25.4482 Y12.3507
G01 X25.4416 Y12.3462
G01 X25.4135 Y12.3291
G01 X25.4064 Y12.3253
G01 X25.3825 Y12.3137
G01 X25.3713 Y12.3089
G01 X25.3424 Y12.2984
G01 X25.3347 Y12.2960
G01 X25.3090 Y12.2894
G01 X25.2971 Y12.2868
G01 X25.2689 Y12.2824
G01 X25.2609 Y12.2815
G01 X25.2280 Y12.2797
G01 X10.1344 Y12.2797
G01 X10.0959 Y12.2815
G01 X10.0575 Y12.2872
G01 X10.0200 Y12.2967
G01 X9.9887 Y12.3077
G01 X9.9796 Y12.3114
G01 X9.9497 Y12.3256
G01 X9.9199 Y12.3432
G01 X9.9118 Y12.3486
G01 X9.8840 Y12.3693
G01 X9.8564 Y12.3943
G01 X9.8330 Y12.4197
G01 X9.8267 Y12.4273
G01 X9.8062 Y12.4552
G01 X9.7870 Y12.4871
G01 X9.7720 Y12.5183
G01 X9.7682 Y12.5273
G01 X9.7571 Y12.5585
G01 X9.7485 Y12.5920
G01 X9.7465 Y12.6017
G01 X9.7415 Y12.6359
G01 X9.7397 Y12.6709
G01 X9.7152 Y19.1531
G01 X9.6682 Y19.1701
G01 X9.5725 Y19.2157
G01 X9.4835 Y19.2691
G01 X9.4000 Y19.3309
G01 X9.3227 Y19.4006
G01 X9.3168 Y19.4065
G01 X9.2485 Y19.4821
G01 X9.1866 Y19.5654
G01 X9.1328 Y19.6546
G01 X9.1289 Y19.6619
G01 X9.0855 Y19.7541
G01 X9.0497 Y19.8539
G01 X9.0249 Y19.9527
G01 X9.0232 Y19.9609
G01 X9.0084 Y20.0617
G01 X9.0033 Y20.1634
G00 X9.0033 Y20.1634
G01 F90.00
G01 Z-0.2000
G01 F150.00
G01 X9.0033 Y20.1718
G01 X9.0084 Y20.2735
G01 X9.0240 Y20.3784
G01 X9.0497 Y20.4813
G01 X9.0840 Y20.5772
G01 X9.0871 Y20.5849
G01 X9.1289 Y20.6733
G01 X9.1328 Y20.6806
G01 X9.1853 Y20.7679
G01 X9.2459 Y20.8498
G01 X9.2512 Y20.8563
G01 X9.3197 Y20.9317
G01 X9.3983 Y21.0029
G01 X9.4835 Y21.0661
G01 X9.5744 Y21.1206
G01 X9.6703 Y21.1659
G01 X9.7701 Y21.2017
G01 X9.8730 Y21.2274
G01 X9.9779 Y21.2430
G01 X10.0838 Y21.2482
G01 X10.1897 Y21.2430
G01 X10.2946 Y21.2274
G01 X10.3935 Y21.2028
G01 X10.4014 Y21.2004
G01 X10.4934 Y21.1674
G01 X10.5011 Y21.1643
G01 X10.5932 Y21.1206
G01 X10.6806 Y21.0683
G01 X10.6876 Y21.0637
G01 X10.7693 Y21.0029
G01 X10.8479 Y20.9317
G01 X10.9191 Y20.8531
G01 X10.9823 Y20.7679
G01 X11.0368 Y20.6770
G01 X11.0821 Y20.5811
G01 X11.1179 Y20.4813
G01 X11.1432 Y20.3806
G01 X11.1592 Y20.2735
G01 X11.1643 Y20.1718
G01 X11.1643 Y20.1634
G01 X11.1595 Y20.0658
G01 X11.1587 Y20.0575
G01 X11.1436 Y19.9568
G01 X11.1179 Y19.8539
G01 X11.0821 Y19.7541
G01 X11.0368 Y19.6582
G01 X10.9823 Y19.5673
G01 X10.9217 Y19.4854
G01 X10.9164 Y19.4789
G01 X10.8508 Y19.4065
G01 X10.8449 Y19.4006
G01 X10.7693 Y19.3323
G01 X10.6841 Y19.2691
G01 X10.5932 Y19.2146
G01 X10.5050 Y19.1728
G01 X10.5281 Y13.0696
G01 X24.8214 Y13.0695
G01 X24.8054 Y14.1574
G01 X24.7812 Y14.1663
G01 X24.6855 Y14.2119
G01 X24.5965 Y14.2653
G01 X24.5130 Y14.3271
G01 X24.4357 Y14.3968
G01 X24.4298 Y14.4027
G01 X24.3615 Y14.4783
G01 X24.2996 Y14.5616
G01 X24.2458 Y14.6508
G01 X24.2419 Y14.6581
G01 X24.1985 Y14.7503
G01 X24.1627 Y14.8501
G01 X24.1379 Y14.9489
G01 X24.1362 Y14.9571
G01 X24.1214 Y15.0579
G01 X24.1162 Y15.1616
G01 X24.1211 Y15.2656
G01 X24.1219 Y15.2739
G01 X24.1370 Y15.3746
G01 X24.1627 Y15.4775
G01 X24.1985 Y15.5773
G01 X24.2419 Y15.6695
G01 X24.2458 Y15.6768
G01 X24.2983 Y15.7641
G01 X24.3589 Y15.8460
G01 X24.3642 Y15.8525
G01 X24.4327 Y15.9279
G01 X24.5113 Y15.9991
G01 X24.5930 Y16.0599
G01 X24.6000 Y16.0645
G01 X24.6874 Y16.1168
G01 X24.7764 Y16.1590
G01 X24.7764 Y16.6149
G01 X24.7420 Y16.6273
G01 X24.7343 Y16.6306
G01 X24.7032 Y16.6457
G01 X24.6736 Y16.6636
G01 X24.6667 Y16.6683
G01 X24.6391 Y16.6892
G01 X24.6091 Y16.7170
G01 X24.5848 Y16.7444
G01 X24.5608 Y16.7775
G01 X24.5413 Y16.8110
G01 X24.5268 Y16.8422
G01 X24.5196 Y16.8622
G01 X24.5081 Y16.8712
G01 X24.4327 Y16.9397
G01 X24.3615 Y17.0183
G01 X24.2983 Y17.1035
G01 X24.2438 Y17.1944
G01 X24.1985 Y17.2903
G01 X24.1640 Y17.3862
G01 X24.1616 Y17.3941
G01 X24.1370 Y17.4930
G01 X24.1219 Y17.5937
G01 X24.1211 Y17.6020
G01 X24.1162 Y17.7038
G01 X24.1212 Y17.8075
G01 X24.1370 Y17.9146
G01 X24.1627 Y18.0175
G01 X24.1985 Y18.1173
G01 X24.2419 Y18.2095
G01 X24.2458 Y18.2168
G01 X24.2961 Y18.3006
G01 X24.3007 Y18.3076
G01 X24.3615 Y18.3893
G01 X24.4298 Y18.4649
G01 X24.4357 Y18.4708
G01 X24.5113 Y18.5391
G01 X24.5965 Y18.6023
G01 X24.6874 Y18.6568
G01 X24.7833 Y18.7021
G01 X24.8831 Y18.7379
G01 X24.9860 Y18.7636
G01 X25.0909 Y18.7792
G01 X25.1990 Y18.7844
G01 X25.3027 Y18.7792
G01 X25.4076 Y18.7636
G01 X25.5105 Y18.7379
G01 X25.6103 Y18.7021
G01 X25.7062 Y18.6568
G01 X25.7971 Y18.6023
G01 X25.8823 Y18.5391
G01 X25.9579 Y18.4708
G01 X25.9638 Y18.4649
G01 X26.0294 Y18.3925
G01 X26.0347 Y18.3860
G01 X26.0953 Y18.3041
G01 X26.1478 Y18.2168
G01 X26.1517 Y18.2095
G01 X26.1951 Y18.1173
G01 X26.2309 Y18.0175
G01 X26.2566 Y17.9146
G01 X26.2724 Y17.8075
G01 X26.2774 Y17.7038
G01 X26.2722 Y17.5979
G01 X26.2566 Y17.4930
G01 X26.2320 Y17.3941
G01 X26.2296 Y17.3862
G01 X26.1966 Y17.2942
G01 X26.1935 Y17.2865
G01 X26.1498 Y17.1944
G01 X26.0965 Y17.1053
G01 X26.0321 Y17.0183
G01 X25.9638 Y16.9427
G01 X25.9579 Y16.9368
G01 X25.8806 Y16.8671
G01 X25.7971 Y16.8053
G01 X25.7081 Y16.7519
G01 X25.6124 Y16.7063
G01 X25.5664 Y16.6896
G01 X25.5664 Y16.1780
G01 X25.6124 Y16.1613
G01 X25.7081 Y16.1157
G01 X25.7971 Y16.0623
G01 X25.8806 Y16.0005
G01 X25.9579 Y15.9308
G01 X25.9638 Y15.9249
G01 X26.0321 Y15.8493
G01 X26.0940 Y15.7660
G01 X26.1478 Y15.6768
G01 X26.1517 Y15.6695
G01 X26.1951 Y15.5773
G01 X26.2309 Y15.4775
G01 X26.2557 Y15.3787
G01 X26.2574 Y15.3705
G01 X26.2722 Y15.2697
G01 X26.2774 Y15.1638
G01 X26.2722 Y15.0579
G01 X26.2574 Y14.9571
G01 X26.2557 Y14.9489
G01 X26.2309 Y14.8501
G01 X26.1966 Y14.7542
G01 X26.1935 Y14.7465
G01 X26.1498 Y14.6544
G01 X26.0953 Y14.5635
G01 X26.0321 Y14.4783
G01 X25.9638 Y14.4027
G01 X25.9579 Y14.3968
G01 X25.8823 Y14.3285
G01 X25.7971 Y14.2653
G01 X25.7098 Y14.2128
G01 X25.7025 Y14.2089
G01 X25.6141 Y14.1671
G01 X25.6083 Y14.1646
G01 X25.5954 Y14.1600
G01 X25.6172 Y12.6746
G01 X25.6159 Y12.6439
G01 X25.6153 Y12.6359
G01 X25.6110 Y12.6054
G01 X25.6096 Y12.5975
G01 X25.6024 Y12.5677
G01 X25.6001 Y12.5600
G01 X25.5901 Y12.5309
G01 X25.5854 Y12.5196
G01 X25.5742 Y12.4955
G01 X25.5705 Y12.4884
G01 X25.5550 Y12.4619
G01 X25.5482 Y12.4518
G01 X25.5325 Y12.4303
G01 X25.5275 Y12.4240
G01 X25.5056 Y12.3995
G01 X25.4999 Y12.3938
G01 X25.4789 Y12.3745
G01 X25.4695 Y12.3667
G01 X25.4482 Y12.3507
G01 X25.4416 Y12.3462
G01 X25.4135 Y12.3291
G01 X25.4064 Y12.3253
G01 X25.3825 Y12.3137
G01 X25.3713 Y12.3089
G01 X25.3424 Y12.2984
G01 X25.3347 Y12.2960
G01 X25.3090 Y12.2894
G01 X25.2971 Y12.2868
G01 X25.2689 Y12.2824
G01 X25.2609 Y12.2815
G01 X25.2280 Y12.2797
G01 X10.1344 Y12.2797
G01 X10.0959 Y12.2815
G01 X10.0575 Y12.2872
G01 X10.0200 Y12.2967
G01 X9.9887 Y12.3077
G01 X9.9796 Y12.3114
G01 X9.9497 Y12.3256
G01 X9.9199 Y12.3432
G01 X9.9118 Y12.3486
G01 X9.8840 Y12.3693
G01 X9.8564 Y12.3943
G01 X9.8330 Y12.4197
G01 X9.8267 Y12.4273
G01 X9.8062 Y12.4552
G01 X9.7870 Y12.4871
G01 X9.7720 Y12.5183
G01 X9.7682 Y12.5273
G01 X9.7571 Y12.5585
G01 X9.7485 Y12.5920
G01 X9.7465 Y12.6017
G01 X9.7415 Y12.6359
G01 X9.7397 Y12.6709
G01 X9.7152 Y19.1531
G01 X9.6682 Y19.1701
G01 X9.5725 Y19.2157
G01 X9.4835 Y19.2691
G01 X9.4000 Y19.3309
G01 X9.3227 Y19.4006
G01 X9.3168 Y19.4065
G01 X9.2485 Y19.4821
G01 X9.1866 Y19.5654
G01 X9.1328 Y19.6546
G01 X9.1289 Y19.6619
G01 X9.0855 Y19.7541
G01 X9.0497 Y19.8539
G01 X9.0249 Y19.9527
G01 X9.0232 Y19.9609
G01 X9.0084 Y20.0617
G01 X9.0033 Y20.1634
G00 Z1.0000
G00 X7.2251 Y22.7332
G01 F90.00
G01 Z-0.1000
G01 F150.00
G01 X7.2269 Y22.7717
G01 X7.2326 Y22.8101
G01 X7.2421 Y22.8476
G01 X7.2536 Y22.8803
G01 X7.2568 Y22.8880
G01 X7.2698 Y22.9155
G01 X7.2737 Y22.9228
G01 X7.2916 Y22.9524
G01 X7.3147 Y22.9836
G01 X7.3407 Y23.0123
G01 X7.3663 Y23.0356
G01 X7.3727 Y23.0409
G01 X7.3972 Y23.0590
G01 X7.4041 Y23.0636
G01 X7.4338 Y23.0813
G01 X7.4689 Y23.0979
G01 X7.5054 Y23.1109
G01 X7.5408 Y23.1199
G01 X7.5813 Y23.1261
G01 X7.6198 Y23.1279
G01 X9.0886 Y23.1279
G01 X9.1308 Y23.2170
G01 X9.1831 Y23.3044
G01 X9.1877 Y23.3114
G01 X9.2485 Y23.3931
G01 X9.3168 Y23.4687
G01 X9.3227 Y23.4746
G01 X9.3983 Y23.5429
G01 X9.4835 Y23.6061
G01 X9.5708 Y23.6586
G01 X9.5781 Y23.6625
G01 X9.6703 Y23.7059
G01 X9.7701 Y23.7417
G01 X9.8689 Y23.7665
G01 X9.8771 Y23.7682
G01 X9.9779 Y23.7830
G01 X10.0816 Y23.7882
G01 X10.1897 Y23.7830
G01 X10.2946 Y23.7674
G01 X10.3975 Y23.7417
G01 X10.4973 Y23.7059
G01 X10.5932 Y23.6606
G01 X10.6841 Y23.6061
G01 X10.7693 Y23.5429
G01 X10.8449 Y23.4746
G01 X10.8508 Y23.4687
G01 X10.9191 Y23.3931
G01 X10.9799 Y23.3114
G01 X10.9845 Y23.3044
G01 X11.0348 Y23.2206
G01 X11.0387 Y23.2133
G01 X11.0821 Y23.1211
G01 X11.1179 Y23.0213
G01 X11.1436 Y22.9184
G01 X11.1594 Y22.8113
G01 X11.1644 Y22.7076
G01 X11.1592 Y22.6017
G01 X11.1436 Y22.4968
G01 X11.1179 Y22.3939
G01 X11.0821 Y22.2941
G01 X11.0368 Y22.1982
G01 X10.9823 Y22.1073
G01 X10.9217 Y22.0254
G01 X10.9164 Y22.0189
G01 X10.8479 Y21.9435
G01 X10.7693 Y21.8723
G01 X10.6841 Y21.8091
G01 X10.5968 Y21.7566
G01 X10.5895 Y21.7527
G01 X10.4973 Y21.7093
G01 X10.4014 Y21.6748
G01 X10.3935 Y21.6724
G01 X10.2987 Y21.6487
G01 X10.2905 Y21.6470
G01 X10.1897 Y21.6322
G01 X10.0838 Y21.6270
G01 X9.9779 Y21.6322
G01 X9.8771 Y21.6470
G01 X9.8689 Y21.6487
G01 X9.7741 Y21.6724
G01 X9.7662 Y21.6748
G01 X9.6703 Y21.7093
G01 X9.5725 Y21.7557
G01 X9.4835 Y21.8091
G01 X9.3983 Y21.8723
G01 X9.3197 Y21.9435
G01 X9.2499 Y22.0204
G01 X9.1853 Y22.1073
G01 X9.1319 Y22.1963
G01 X9.0863 Y22.2920
G01 X9.0696 Y22.3380
G01 X8.0150 Y22.3380
G01 X8.0149 Y10.5550
G01 X27.3418 Y10.5549
G01 X27.3419 Y19.8290
G01 X26.2007 Y19.8454
G01 X26.1960 Y19.8323
G01 X26.1935 Y19.8265
G01 X26.1517 Y19.7381
G01 X26.1478 Y19.7308
G01 X26.0953 Y19.6435
G01 X26.0321 Y19.5583
G01 X25.9609 Y19.4797
G01 X25.8855 Y19.4112
G01 X25.8790 Y19.4059
G01 X25.8006 Y19.3477
G01 X25.7936 Y19.3431
G01 X25.7062 Y19.2908
G01 X25.6103 Y19.2455
G01 X25.5105 Y19.2097
G01 X25.4117 Y19.1849
G01 X25.4035 Y19.1832
G01 X25.3069 Y19.1689
G01 X25.2986 Y19.1681
G01 X25.1968 Y19.1632
G01 X25.0909 Y19.1684
G01 X24.9860 Y19.1840
G01 X24.8831 Y19.2097
G01 X24.7833 Y19.2455
G01 X24.6911 Y19.2889
G01 X24.6838 Y19.2928
G01 X24.6000 Y19.3431
G01 X24.5930 Y19.3477
G01 X24.5113 Y19.4085
G01 X24.4327 Y19.4797
G01 X24.3615 Y19.5583
G01 X24.3007 Y19.6400
G01 X24.2961 Y19.6470
G01 X24.2458 Y19.7308
G01 X24.2419 Y19.7381
G01 X24.1985 Y19.8303
G01 X24.1627 Y19.9301
G01 X24.1370 Y20.0330
G01 X24.1216 Y20.1357
G01 X24.1162 Y20.2438
G01 X24.1211 Y20.3456
G01 X24.1219 Y20.3539
G01 X24.1362 Y20.4505
G01 X24.1379 Y20.4587
G01 X24.1627 Y20.5575
G01 X24.1985 Y20.6573
G01 X24.2438 Y20.7532
G01 X24.2961 Y20.8406
G01 X24.3007 Y20.8476
G01 X24.3589 Y20.9260
G01 X24.3642 Y20.9325
G01 X24.4327 Y21.0079
G01 X24.5113 Y21.0791
G01 X24.5965 Y21.1423
G01 X24.6838 Y21.1948
G01 X24.6911 Y21.1987
G01 X24.7795 Y21.2405
G01 X24.7853 Y21.2430
G01 X24.8018 Y21.2489
G01 X24.8018 Y21.7787
G01 X24.7812 Y21.7863
G01 X24.6874 Y21.8308
G01 X24.5965 Y21.8853
G01 X24.5113 Y21.9485
G01 X24.4357 Y22.0168
G01 X24.4298 Y22.0227
G01 X24.3642 Y22.0951
G01 X24.3589 Y22.1016
G01 X24.2983 Y22.1835
G01 X24.2458 Y22.2708
G01 X24.2419 Y22.2781
G01 X24.1985 Y22.3703
G01 X24.1627 Y22.4701
G01 X24.1370 Y22.5730
G01 X24.1214 Y22.6779
G01 X24.1162 Y22.7838
G01 X24.1211 Y22.8856
G01 X24.1219 Y22.8939
G01 X24.1370 Y22.9946
G01 X24.1616 Y23.0935
G01 X24.1640 Y23.1014
G01 X24.1970 Y23.1934
G01 X24.2001 Y23.2011
G01 X24.2438 Y23.2932
G01 X24.2961 Y23.3806
G01 X24.3007 Y23.3876
G01 X24.3615 Y23.4693
G01 X24.4298 Y23.5449
G01 X24.4357 Y23.5508
G01 X24.5081 Y23.6164
G01 X24.5146 Y23.6217
G01 X24.5965 Y23.6823
G01 X24.6874 Y23.7368
G01 X24.7833 Y23.7821
G01 X24.8831 Y23.8179
G01 X24.9860 Y23.8436
G01 X25.0909 Y23.8592
G01 X25.1968 Y23.8644
G01 X25.2986 Y23.8595
G01 X25.3069 Y23.8587
G01 X25.4035 Y23.8444
G01 X25.4117 Y23.8427
G01 X25.5105 Y23.8179
G01 X25.6064 Y23.7836
G01 X25.6141 Y23.7805
G01 X25.7062 Y23.7368
G01 X25.7936 Y23.6845
G01 X25.8006 Y23.6799
G01 X25.8790 Y23.6217
G01 X25.8855 Y23.6164
G01 X25.9609 Y23.5479
G01 X26.0294 Y23.4725
G01 X26.0347 Y23.4660
G01 X26.0953 Y23.3841
G01 X26.1478 Y23.2968
G01 X26.1517 Y23.2895
G01 X26.1951 Y23.1973
G01 X26.2296 Y23.1014
G01 X26.2320 Y23.0935
G01 X26.2566 Y22.9946
G01 X26.2717 Y22.8939
G01 X26.2725 Y22.8856
G01 X26.2774 Y22.7838
G01 X26.2724 Y22.6801
G01 X26.2574 Y22.5771
G01 X26.2557 Y22.5689
G01 X26.2309 Y22.4701
G01 X26.1951 Y22.3703
G01 X26.1517 Y22.2781
G01 X26.1478 Y22.2708
G01 X26.0953 Y22.1835
G01 X26.0347 Y22.1016
G01 X26.0294 Y22.0951
G01 X25.9638 Y22.0227
G01 X25.9579 Y22.0168
G01 X25.8823 Y21.9485
G01 X25.8006 Y21.8877
G01 X25.7936 Y21.8831
G01 X25.7062 Y21.8308
G01 X25.6124 Y21.7863
G01 X25.5918 Y21.7787
G01 X25.5918 Y21.2489
G01 X25.6124 Y21.2413
G01 X25.7062 Y21.1968
G01 X25.7971 Y21.1423
G01 X25.8823 Y21.0791
G01 X25.9609 Y21.0079
G01 X26.0321 Y20.9293
G01 X26.0965 Y20.8423
G01 X26.1508 Y20.7512
G01 X26.1943 Y20.6594
G01 X26.2031 Y20.6353
G01 X27.7427 Y20.6133
G01 X27.7755 Y20.6115
G01 X27.7833 Y20.6106
G01 X27.8117 Y20.6062
G01 X27.8215 Y20.6041
G01 X27.8474 Y20.5975
G01 X27.8589 Y20.5940
G01 X27.8859 Y20.5841
G01 X27.8931 Y20.5811
G01 X27.9230 Y20.5667
G01 X27.9299 Y20.5629
G01 X27.9527 Y20.5490
G01 X27.9627 Y20.5423
G01 X27.9856 Y20.5251
G01 X27.9917 Y20.5201
G01 X28.0161 Y20.4977
G01 X28.0216 Y20.4921
G01 X28.0421 Y20.4690
G01 X28.0470 Y20.4628
G01 X28.0628 Y20.4412
G01 X28.0695 Y20.4312
G01 X28.0841 Y20.4065
G01 X28.0877 Y20.3996
G01 X28.1017 Y20.3695
G01 X28.1046 Y20.3623
G01 X28.1141 Y20.3352
G01 X28.1169 Y20.3255
G01 X28.1233 Y20.2995
G01 X28.1256 Y20.2877
G01 X28.1296 Y20.2593
G01 X28.1304 Y20.2515
G01 X28.1317 Y20.2186
G01 X28.1317 Y10.1598
G01 X28.1299 Y10.1213
G01 X28.1249 Y10.0871
G01 X28.1233 Y10.0789
G01 X28.1147 Y10.0454
G01 X28.1032 Y10.0127
G01 X28.1000 Y10.0050
G01 X28.0851 Y9.9738
G01 X28.0674 Y9.9441
G01 X28.0628 Y9.9372
G01 X28.0421 Y9.9094
G01 X28.0190 Y9.8837
G01 X28.0131 Y9.8778
G01 X27.9874 Y9.8547
G01 X27.9596 Y9.8340
G01 X27.9527 Y9.8294
G01 X27.9230 Y9.8117
G01 X27.8879 Y9.7951
G01 X27.8554 Y9.7834
G01 X27.8474 Y9.7809
G01 X27.8139 Y9.7726
G01 X27.7797 Y9.7675
G01 X27.7714 Y9.7666
G01 X27.7370 Y9.7651
G01 X7.6198 Y9.7651
G01 X7.5813 Y9.7669
G01 X7.5471 Y9.7719
G01 X7.5389 Y9.7735
G01 X7.5054 Y9.7821
G01 X7.4727 Y9.7936
G01 X7.4650 Y9.7968
G01 X7.4338 Y9.8117
G01 X7.4041 Y9.8294
G01 X7.3972 Y9.8340
G01 X7.3694 Y9.8547
G01 X7.3437 Y9.8778
G01 X7.3378 Y9.8837
G01 X7.3147 Y9.9094
G01 X7.2940 Y9.9372
G01 X7.2894 Y9.9441
G01 X7.2717 Y9.9738
G01 X7.2551 Y10.0089
G01 X7.2434 Y10.0414
G01 X7.2409 Y10.0494
G01 X7.2326 Y10.0829
G01 X7.2275 Y10.1171
G01 X7.2266 Y10.1254
G01 X7.2251 Y10.1578
G01 X7.2251 Y22.7332
G00 X7.2251 Y22.7332
G01 F90.00
G01 Z-0.2000
G01 F150.00
G01 X7.2269 Y22.7717
G01 X7.2326 Y22.8101
G01 X7.2421 Y22.8476
G01 X7.2536 Y22.8803
G01 X7.2568 Y22.8880
G01 X7.2698 Y22.9155
G01 X7.2737 Y22.9228
G01 X7.2916 Y22.9524
G01 X7.3147 Y22.9836
G01 X7.3407 Y23.0123
G01 X7.3663 Y23.0356
G01 X7.3727 Y23.0409
G01 X7.3972 Y23.0590
G01 X7.4041 Y23.0636
G01 X7.4338 Y23.0813
G01 X7.4689 Y23.0979
G01 X7.5054 Y23.1109
G01 X7.5408 Y23.1199
G01 X7.5813 Y23.1261
G01 X7.6198 Y23.1279
G01 X9.0886 Y23.1279
G01 X9.1308 Y23.2170
G01 X9.1831 Y23.3044
G01 X9.1877 Y23.3114
G01 X9.2485 Y23.3931
G01 X9.3168 Y23.4687
G01 X9.3227 Y23.4746
G01 X9.3983 Y23.5429
G01 X9.4835 Y23.6061
G01 X9.5708 Y23.6586
G01 X9.5781 Y23.6625
G01 X9.6703 Y23.7059
G01 X9.7701 Y23.7417
G01 X9.8689 Y23.7665
G01 X9.8771 Y23.7682
G01 X9.9779 Y23.7830
G01 X10.0816 Y23.7882
G01 X10.1897 Y23.7830
G01 X10.2946 Y23.7674
G01 X10.3975 Y23.7417
G01 X10.4973 Y23.7059
G01 X10.5932 Y23.6606
G01 X10.6841 Y23.6061
G01 X10.7693 Y23.5429
G01 X10.8449 Y23.4746
G01 X10.8508 Y23.4687
G01 X10.9191 Y23.3931
G01 X10.9799 Y23.3114
G01 X10.9845 Y23.3044
G01 X11.0348 Y23.2206
G01 X11.0387 Y23.2133
G01 X11.0821 Y23.1211
G01 X11.1179 Y23.0213
G01 X11.1436 Y22.9184
G01 X11.1594 Y22.8113
G01 X11.1644 Y22.7076
G01 X11.1592 Y22.6017
G01 X11.1436 Y22.4968
G01 X11.1179 Y22.3939
G01 X11.0821 Y22.2941
G01 X11.0368 Y22.1982
G01 X10.9823 Y22.1073
G01 X10.9217 Y22.0254
G01 X10.9164 Y22.0189
G01 X10.8479 Y21.9435
G01 X10.7693 Y21.8723
G01 X10.6841 Y21.8091
G01 X10.5968 Y21.7566
G01 X10.5895 Y21.7527
G01 X10.4973 Y21.7093
G01 X10.4014 Y21.6748
G01 X10.3935 Y21.6724
G01 X10.2987 Y21.6487
G01 X10.2905 Y21.6470
G01 X10.1897 Y21.6322
G01 X10.0838 Y21.6270
G01 X9.9779 Y21.6322
G01 X9.8771 Y21.6470
G01 X9.8689 Y21.6487
G01 X9.7741 Y21.6724
G01 X9.7662 Y21.6748
G01 X9.6703 Y21.7093
G01 X9.5725 Y21.7557
G01 X9.4835 Y21.8091
G01 X9.3983 Y21.8723
G01 X9.3197 Y21.9435
G01 X9.2499 Y22.0204
G01 X9.1853 Y22.1073
G01 X9.1319 Y22.1963
G01 X9.0863 Y22.2920
G01 X9.0696 Y22.3380
G01 X8.0150 Y22.3380
G01 X8.0149 Y10.5550
G01 X27.3418 Y10.5549
G01 X27.3419 Y19.8290
G01 X26.2007 Y19.8454
G01 X26.1960 Y19.8323
G01 X26.1935 Y19.8265
G01 X26.1517 Y19.7381
G01 X26.1478 Y19.7308
G01 X26.0953 Y19.6435
G01 X26.0321 Y19.5583
G01 X25.9609 Y19.4797
G01 X25.8855 Y19.4112
G01 X25.8790 Y19.4059
G01 X25.8006 Y19.3477
G01 X25.7936 Y19.3431
G01 X25.7062 Y19.2908
G01 X25.6103 Y19.2455
G01 X25.5105 Y19.2097
G01 X25.4117 Y19.1849
G01 X25.4035 Y19.1832
G01 X25.3069 Y19.1689
G01 X25.2986 Y19.1681
G01 X25.1968 Y19.1632
G01 X25.0909 Y19.1684
G01 X24.9860 Y19.1840
G01 X24.8831 Y19.2097
G01 X24.7833 Y19.2455
G01 X24.6911 Y19.2889
G01 X24.6838 Y19.2928
G01 X24.6000 Y19.3431
G01 X24.5930 Y19.3477
G01 X24.5113 Y19.4085
G01 X24.4327 Y19.4797
G01 X24.3615 Y19.5583
G01 X24.3007 Y19.6400
G01 X24.2961 Y19.6470
G01 X24.2458 Y19.7308
G01 X24.2419 Y19.7381
G01 X24.1985 Y19.8303
G01 X24.1627 Y19.9301
G01 X24.1370 Y20.0330
G01 X24.1216 Y20.1357
G01 X24.1162 Y20.2438
G01 X24.1211 Y20.3456
G01 X24.1219 Y20.3539
G01 X24.1362 Y20.4505
G01 X24.1379 Y20.4587
G01 X24.1627 Y20.5575
G01 X24.1985 Y20.6573
G01 X24.2438 Y20.7532
G01 X24.2961 Y20.8406
G01 X24.3007 Y20.8476
G01 X24.3589 Y20.9260
G01 X24.3642 Y20.9325
G01 X24.4327 Y21.0079
G01 X24.5113 Y21.0791
G01 X24.5965 Y21.1423
G01 X24.6838 Y21.1948
G01 X24.6911 Y21.1987
G01 X24.7795 Y21.2405
G01 X24.7853 Y21.2430
G01 X24.8018 Y21.2489
G01 X24.8018 Y21.7787
G01 X24.7812 Y21.7863
G01 X24.6874 Y21.8308
G01 X24.5965 Y21.8853
G01 X24.5113 Y21.9485
G01 X24.4357 Y22.0168
G01 X24.4298 Y22.0227
G01 X24.3642 Y22.0951
G01 X24.3589 Y22.1016
G01 X24.2983 Y22.1835
G01 X24.2458 Y22.2708
G01 X24.2419 Y22.2781
G01 X24.1985 Y22.3703
G01 X24.1627 Y22.4701
G01 X24.1370 Y22.5730
G01 X24.1214 Y22.6779
G01 X24.1162 Y22.7838
G01 X24.1211 Y22.8856
G01 X24.1219 Y22.8939
G01 X24.1370 Y22.9946
G01 X24.1616 Y23.0935
G01 X24.1640 Y23.1014
G01 X24.1970 Y23.1934
G01 X24.2001 Y23.2011
G01 X24.2438 Y23.2932
G01 X24.2961 Y23.3806
G01 X24.3007 Y23.3876
G01 X24.3615 Y23.4693
G01 X24.4298 Y23.5449
G01 X24.4357 Y23.5508
G01 X24.5081 Y23.6164
G01 X24.5146 Y23.6217
G01 X24.5965 Y23.6823
G01 X24.6874 Y23.7368
G01 X24.7833 Y23.7821
G01 X24.8831 Y23.8179
G01 X24.9860 Y23.8436
G01 X25.0909 Y23.8592
G01 X25.1968 Y23.8644
G01 X25.2986 Y23.8595
G01 X25.3069 Y23.8587
G01 X25.4035 Y23.8444
G01 X25.4117 Y23.8427
G01 X25.5105 Y23.8179
G01 X25.6064 Y23.7836
G01 X25.6141 Y23.7805
G01 X25.7062 Y23.7368
G01 X25.7936 Y23.6845
G01 X25.8006 Y23.6799
G01 X25.8790 Y23.6217
G01 X25.8855 Y23.6164
G01 X25.9609 Y23.5479
G01 X26.0294 Y23.4725
G01 X26.0347 Y23.4660
G01 X26.0953 Y23.3841
G01 X26.1478 Y23.2968
G01 X26.1517 Y23.2895
G01 X26.1951 Y23.1973
G01 X26.2296 Y23.1014
G01 X26.2320 Y23.0935
G01 X26.2566 Y22.9946
G01 X26.2717 Y22.8939
G01 X26.2725 Y22.8856
G01 X26.2774 Y22.7838
G01 X26.2724 Y22.6801
G01 X26.2574 Y22.5771
G01 X26.2557 Y22.5689
G01 X26.2309 Y22.4701
G01 X26.1951 Y22.3703
G01 X26.1517 Y22.2781
G01 X26.1478 Y22.2708
G01 X26.0953 Y22.1835
G01 X26.0347 Y22.1016
G01 X26.0294 Y22.0951
G01 X25.9638 Y22.0227
G01 X25.9579 Y22.0168
G01 X25.8823 Y21.9485
G01 X25.8006 Y21.8877
G01 X25.7936 Y21.8831
G01 X25.7062 Y21.8308
G01 X25.6124 Y21.7863
G01 X25.5918 Y21.7787
G01 X25.5918 Y21.2489
G01 X25.6124 Y21.2413
G01 X25.7062 Y21.1968
G01 X25.7971 Y21.1423
G01 X25.8823 Y21.0791
G01 X25.9609 Y21.0079
G01 X26.0321 Y20.9293
G01 X26.0965 Y20.8423
G01 X26.1508 Y20.7512
G01 X26.1943 Y20.6594
G01 X26.2031 Y20.6353
G01 X27.7427 Y20.6133
G01 X27.7755 Y20.6115
G01 X27.7833 Y20.6106
G01 X27.8117 Y20.6062
G01 X27.8215 Y20.6041
G01 X27.8474 Y20.5975
G01 X27.8589 Y20.5940
G01 X27.8859 Y20.5841
G01 X27.8931 Y20.5811
G01 X27.9230 Y20.5667
G01 X27.9299 Y20.5629
G01 X27.9527 Y20.5490
G01 X27.9627 Y20.5423
G01 X27.9856 Y20.5251
G01 X27.9917 Y20.5201
G01 X28.0161 Y20.4977
G01 X28.0216 Y20.4921
G01 X28.0421 Y20.4690
G01 X28.0470 Y20.4628
G01 X28.0628 Y20.4412
G01 X28.0695 Y20.4312
G01 X28.0841 Y20.4065
G01 X28.0877 Y20.3996
G01 X28.1017 Y20.3695
G01 X28.1046 Y20.3623
G01 X28.1141 Y20.3352
G01 X28.1169 Y20.3255
G01 X28.1233 Y20.2995
G01 X28.1256 Y20.2877
G01 X28.1296 Y20.2593
G01 X28.1304 Y20.2515
G01 X28.1317 Y20.2186
G01 X28.1317 Y10.1598
G01 X28.1299 Y10.1213
G01 X28.1249 Y10.0871
G01 X28.1233 Y10.0789
G01 X28.1147 Y10.0454
G01 X28.1032 Y10.0127
G01 X28.1000 Y10.0050
G01 X28.0851 Y9.9738
G01 X28.0674 Y9.9441
G01 X28.0628 Y9.9372
G01 X28.0421 Y9.9094
G01 X28.0190 Y9.8837
G01 X28.0131 Y9.8778
G01 X27.9874 Y9.8547
G01 X27.9596 Y9.8340
G01 X27.9527 Y9.8294
G01 X27.9230 Y9.8117
G01 X27.8879 Y9.7951
G01 X27.8554 Y9.7834
G01 X27.8474 Y9.7809
G01 X27.8139 Y9.7726
G01 X27.7797 Y9.7675
G01 X27.7714 Y9.7666
G01 X27.7370 Y9.7651
G01 X7.6198 Y9.7651
G01 X7.5813 Y9.7669
G01 X7.5471 Y9.7719
G01 X7.5389 Y9.7735
G01 X7.5054 Y9.7821
G01 X7.4727 Y9.7936
G01 X7.4650 Y9.7968
G01 X7.4338 Y9.8117
G01 X7.4041 Y9.8294
G01 X7.3972 Y9.8340
G01 X7.3694 Y9.8547
G01 X7.3437 Y9.8778
G01 X7.3378 Y9.8837
G01 X7.3147 Y9.9094
G01 X7.2940 Y9.9372
G01 X7.2894 Y9.9441
G01 X7.2717 Y9.9738
G01 X7.2551 Y10.0089
G01 X7.2434 Y10.0414
G01 X7.2409 Y10.0494
G01 X7.2326 Y10.0829
G01 X7.2275 Y10.1171
G01 X7.2266 Y10.1254
G01 X7.2251 Y10.1578
G01 X7.2251 Y22.7332
G00 Z1.0000
G00 X9.0033 Y25.2434
G01 F90.00
G01 Z-0.1000
G01 F150.00
G01 X9.0033 Y25.2518
G01 X9.0081 Y25.3494
G01 X9.0089 Y25.3577
G01 X9.0240 Y25.4584
G01 X9.0497 Y25.5613
G01 X9.0855 Y25.6611
G01 X9.1289 Y25.7533
G01 X9.1328 Y25.7606
G01 X9.1866 Y25.8498
G01 X9.2485 Y25.9331
G01 X9.3168 Y26.0087
G01 X9.3227 Y26.0146
G01 X9.4000 Y26.0843
G01 X9.4835 Y26.1461
G01 X9.5725 Y26.1995
G01 X9.6682 Y26.2451
G01 X9.7152 Y26.2621
G01 X9.7397 Y32.8205
G01 X9.7415 Y32.8555
G01 X9.7465 Y32.8897
G01 X9.7485 Y32.8994
G01 X9.7567 Y32.9314
G01 X9.7682 Y32.9641
G01 X9.7720 Y32.9731
G01 X9.7863 Y33.0030
G01 X9.8040 Y33.0327
G01 X9.8094 Y33.0409
G01 X9.8317 Y33.0702
G01 X9.8553 Y33.0961
G01 X9.8809 Y33.1194
G01 X9.8885 Y33.1256
G01 X9.9152 Y33.1452
G01 X9.9448 Y33.1631
G01 X9.9535 Y33.1677
G01 X9.9835 Y33.1817
G01 X10.0160 Y33.1934
G01 X10.0235 Y33.1958
G01 X10.0535 Y33.2033
G01 X10.0631 Y33.2051
G01 X10.0959 Y33.2099
G01 X10.1344 Y33.2117
G01 X24.9176 Y33.2117
G01 X24.9346 Y33.2114
G01 X24.9539 Y33.2100
G01 X24.9732 Y33.2078
G01 X24.9945 Y33.2042
G01 X25.0091 Y33.2009
G01 X25.0320 Y33.1947
G01 X25.0484 Y33.1894
G01 X25.0665 Y33.1825
G01 X25.0843 Y33.1747
G01 X25.1055 Y33.1641
G01 X25.1186 Y33.1567
G01 X25.1350 Y33.1464
G01 X25.1527 Y33.1340
G01 X25.1680 Y33.1221
G01 X25.1794 Y33.1123
G01 X25.1967 Y33.0961
G01 X25.2101 Y33.0820
G01 X25.2227 Y33.0674
G01 X25.2320 Y33.0555
G01 X25.2458 Y33.0362
G01 X25.2551 Y33.0217
G01 X25.2647 Y33.0049
G01 X25.2735 Y32.9876
G01 X25.2823 Y32.9679
G01 X25.2885 Y32.9519
G01 X25.2953 Y32.9314
G01 X25.3000 Y32.9148
G01 X25.3048 Y32.8939
G01 X25.3078 Y32.8769
G01 X25.3105 Y32.8555
G01 X25.3118 Y32.8386
G01 X25.5270 Y28.8921
G01 X25.6103 Y28.8621
G01 X25.7025 Y28.8187
G01 X25.7098 Y28.8148
G01 X25.7971 Y28.7623
G01 X25.8790 Y28.7017
G01 X25.8855 Y28.6964
G01 X25.9609 Y28.6279
G01 X26.0321 Y28.5493
G01 X26.0953 Y28.4641
G01 X26.1478 Y28.3768
G01 X26.1517 Y28.3695
G01 X26.1951 Y28.2773
G01 X26.2309 Y28.1775
G01 X26.2557 Y28.0787
G01 X26.2574 Y28.0705
G01 X26.2717 Y27.9739
G01 X26.2725 Y27.9656
G01 X26.2774 Y27.8638
G01 X26.2722 Y27.7579
G01 X26.2566 Y27.6530
G01 X26.2320 Y27.5541
G01 X26.2296 Y27.5462
G01 X26.1966 Y27.4542
G01 X26.1935 Y27.4465
G01 X26.1498 Y27.3544
G01 X26.0975 Y27.2670
G01 X26.0929 Y27.2600
G01 X26.0347 Y27.1816
G01 X26.0294 Y27.1751
G01 X25.9609 Y27.0997
G01 X25.8823 Y27.0285
G01 X25.7971 Y26.9653
G01 X25.7098 Y26.9128
G01 X25.7025 Y26.9089
G01 X25.6141 Y26.8671
G01 X25.6083 Y26.8646
G01 X25.5918 Y26.8587
G01 X25.5918 Y26.3289
G01 X25.6083 Y26.3230
G01 X25.6141 Y26.3205
G01 X25.7025 Y26.2787
G01 X25.7098 Y26.2748
G01 X25.7971 Y26.2223
G01 X25.8823 Y26.1591
G01 X25.9609 Y26.0879
G01 X26.0294 Y26.0125
G01 X26.0347 Y26.0060
G01 X26.0953 Y25.9241
G01 X26.1498 Y25.8332
G01 X26.1935 Y25.7411
G01 X26.1966 Y25.7334
G01 X26.2309 Y25.6375
G01 X26.2557 Y25.5387
G01 X26.2574 Y25.5305
G01 X26.2722 Y25.4297
G01 X26.2773 Y25.3280
G01 X26.2773 Y25.3196
G01 X26.2725 Y25.2220
G01 X26.2717 Y25.2137
G01 X26.2566 Y25.1130
G01 X26.2309 Y25.0101
G01 X26.1966 Y24.9142
G01 X26.1935 Y24.9065
G01 X26.1498 Y24.8144
G01 X26.0975 Y24.7270
G01 X26.0929 Y24.7200
G01 X26.0347 Y24.6416
G01 X26.0294 Y24.6351
G01 X25.9609 Y24.5597
G01 X25.8855 Y24.4912
G01 X25.8790 Y24.4859
G01 X25.7971 Y24.4253
G01 X25.7098 Y24.3728
G01 X25.7025 Y24.3689
G01 X25.6141 Y24.3271
G01 X25.6064 Y24.3240
G01 X25.5105 Y24.2897
G01 X25.4117 Y24.2649
G01 X25.4035 Y24.2632
G01 X25.3027 Y24.2484
G01 X25.1968 Y24.2432
G01 X25.0950 Y24.2481
G01 X25.0867 Y24.2489
G01 X24.9860 Y24.2640
G01 X24.8871 Y24.2886
G01 X24.8792 Y24.2910
G01 X24.7833 Y24.3255
G01 X24.6874 Y24.3708
G01 X24.6000 Y24.4231
G01 X24.5930 Y24.4277
G01 X24.5113 Y24.4885
G01 X24.4357 Y24.5568
G01 X24.4298 Y24.5627
G01 X24.3615 Y24.6383
G01 X24.2983 Y24.7235
G01 X24.2438 Y24.8144
G01 X24.2001 Y24.9065
G01 X24.1970 Y24.9142
G01 X24.1627 Y25.0101
G01 X24.1379 Y25.1089
G01 X24.1362 Y25.1171
G01 X24.1219 Y25.2137
G01 X24.1211 Y25.2220
G01 X24.1162 Y25.3238
G01 X24.1211 Y25.4256
G01 X24.1219 Y25.4339
G01 X24.1362 Y25.5305
G01 X24.1379 Y25.5387
G01 X24.1627 Y25.6375
G01 X24.1985 Y25.7373
G01 X24.2438 Y25.8332
G01 X24.2961 Y25.9206
G01 X24.3007 Y25.9276
G01 X24.3589 Y26.0060
G01 X24.3642 Y26.0125
G01 X24.4327 Y26.0879
G01 X24.5113 Y26.1591
G01 X24.5965 Y26.2223
G01 X24.6838 Y26.2748
G01 X24.6911 Y26.2787
G01 X24.7795 Y26.3205
G01 X24.7853 Y26.3230
G01 X24.8018 Y26.3289
G01 X24.8018 Y26.8587
G01 X24.7853 Y26.8646
G01 X24.7795 Y26.8671
G01 X24.6911 Y26.9089
G01 X24.6838 Y26.9128
G01 X24.5965 Y26.9653
G01 X24.5113 Y27.0285
G01 X24.4327 Y27.0997
G01 X24.3642 Y27.1751
G01 X24.3589 Y27.1816
G01 X24.2983 Y27.2635
G01 X24.2438 Y27.3544
G01 X24.2001 Y27.4465
G01 X24.1970 Y27.4542
G01 X24.1627 Y27.5501
G01 X24.1379 Y27.6489
G01 X24.1362 Y27.6571
G01 X24.1214 Y27.7579
G01 X24.1163 Y27.8596
G01 X24.1163 Y27.8680
G01 X24.1211 Y27.9656
G01 X24.1219 Y27.9739
G01 X24.1370 Y28.0746
G01 X24.1627 Y28.1775
G01 X24.1970 Y28.2734
G01 X24.2001 Y28.2811
G01 X24.2438 Y28.3732
G01 X24.2971 Y28.4623
G01 X24.3589 Y28.5460
G01 X24.3642 Y28.5525
G01 X24.4327 Y28.6279
G01 X24.5096 Y28.6977
G01 X24.5983 Y28.7635
G01 X24.6855 Y28.8157
G01 X24.7387 Y28.8412
G01 X24.5434 Y32.4218
G01 X10.5281 Y32.4219
G01 X10.5050 Y26.2424
G01 X10.5932 Y26.2006
G01 X10.6841 Y26.1461
G01 X10.7693 Y26.0829
G01 X10.8449 Y26.0146
G01 X10.8508 Y26.0087
G01 X10.9164 Y25.9363
G01 X10.9217 Y25.9298
G01 X10.9823 Y25.8479
G01 X11.0368 Y25.7570
G01 X11.0821 Y25.6611
G01 X11.1179 Y25.5613
G01 X11.1436 Y25.4584
G01 X11.1587 Y25.3577
G01 X11.1595 Y25.3494
G01 X11.1643 Y25.2518
G01 X11.1643 Y25.2434
G01 X11.1592 Y25.1417
G01 X11.1432 Y25.0346
G01 X11.1179 Y24.9339
G01 X11.0821 Y24.8341
G01 X11.0368 Y24.7382
G01 X10.9823 Y24.6473
G01 X10.9191 Y24.5621
G01 X10.8479 Y24.4835
G01 X10.7693 Y24.4123
G01 X10.6876 Y24.3515
G01 X10.6806 Y24.3469
G01 X10.5968 Y24.2966
G01 X10.5895 Y24.2927
G01 X10.4973 Y24.2493
G01 X10.4014 Y24.2148
G01 X10.3935 Y24.2124
G01 X10.2946 Y24.1878
G01 X10.1897 Y24.1722
G01 X10.0838 Y24.1670
G01 X9.9779 Y24.1722
G01 X9.8730 Y24.1878
G01 X9.7701 Y24.2135
G01 X9.6703 Y24.2493
G01 X9.5781 Y24.2927
G01 X9.5708 Y24.2966
G01 X9.4870 Y24.3469
G01 X9.4800 Y24.3515
G01 X9.3983 Y24.4123
G01 X9.3227 Y24.4806
G01 X9.3168 Y24.4865
G01 X9.2485 Y24.5621
G01 X9.1853 Y24.6473
G01 X9.1308 Y24.7382
G01 X9.0855 Y24.8341
G01 X9.0497 Y24.9339
G01 X9.0240 Y25.0368
G01 X9.0084 Y25.1417
G01 X9.0033 Y25.2434
G00 X9.0033 Y25.2434
G01 F90.00
G01 Z-0.2000
G01 F150.00
G01 X9.0033 Y25.2518
G01 X9.0081 Y25.3494
G01 X9.0089 Y25.3577
G01 X9.0240 Y25.4584
G01 X9.0497 Y25.5613
G01 X9.0855 Y25.6611
G01 X9.1289 Y25.7533
G01 X9.1328 Y25.7606
G01 X9.1866 Y25.8498
G01 X9.2485 Y25.9331
G01 X9.3168 Y26.0087
G01 X9.3227 Y26.0146
G01 X9.4000 Y26.0843
G01 X9.4835 Y26.1461
G01 X9.5725 Y26.1995
G01 X9.6682 Y26.2451
G01 X9.7152 Y26.2621
G01 X9.7397 Y32.8205
G01 X9.7415 Y32.8555
G01 X9.7465 Y32.8897
G01 X9.7485 Y32.8994
G01 X9.7567 Y32.9314
G01 X9.7682 Y32.9641
G01 X9.7720 Y32.9731
G01 X9.7863 Y33.0030
G01 X9.8040 Y33.0327
G01 X9.8094 Y33.0409
G01 X9.8317 Y33.0702
G01 X9.8553 Y33.0961
G01 X9.8809 Y33.1194
G01 X9.8885 Y33.1256
G01 X9.9152 Y33.1452
G01 X9.9448 Y33.1631
G01 X9.9535 Y33.1677
G01 X9.9835 Y33.1817
G01 X10.0160 Y33.1934
G01 X10.0235 Y33.1958
G01 X10.0535 Y33.2033
G01 X10.0631 Y33.2051
G01 X10.0959 Y33.2099
G01 X10.1344 Y33.2117
G01 X24.9176 Y33.2117
G01 X24.9346 Y33.2114
G01 X24.9539 Y33.2100
G01 X24.9732 Y33.2078
G01 X24.9945 Y33.2042
G01 X25.0091 Y33.2009
G01 X25.0320 Y33.1947
G01 X25.0484 Y33.1894
G01 X25.0665 Y33.1825
G01 X25.0843 Y33.1747
G01 X25.1055 Y33.1641
G01 X25.1186 Y33.1567
G01 X25.1350 Y33.1464
G01 X25.1527 Y33.1340
G01 X25.1680 Y33.1221
G01 X25.1794 Y33.1123
G01 X25.1967 Y33.0961
G01 X25.2101 Y33.0820
G01 X25.2227 Y33.0674
G01 X25.2320 Y33.0555
G01 X25.2458 Y33.0362
G01 X25.2551 Y33.0217
G01 X25.2647 Y33.0049
G01 X25.2735 Y32.9876
G01 X25.2823 Y32.9679
G01 X25.2885 Y32.9519
G01 X25.2953 Y32.9314
G01 X25.3000 Y32.9148
G01 X25.3048 Y32.8939
G01 X25.3078 Y32.8769
G01 X25.3105 Y32.8555
G01 X25.3118 Y32.8386
G01 X25.5270 Y28.8921
G01 X25.6103 Y28.8621
G01 X25.7025 Y28.8187
G01 X25.7098 Y28.8148
G01 X25.7971 Y28.7623
G01 X25.8790 Y28.7017
G01 X25.8855 Y28.6964
G01 X25.9609 Y28.6279
G01 X26.0321 Y28.5493
G01 X26.0953 Y28.4641
G01 X26.1478 Y28.3768
G01 X26.1517 Y28.3695
G01 X26.1951 Y28.2773
G01 X26.2309 Y28.1775
G01 X26.2557 Y28.0787
G01 X26.2574 Y28.0705
G01 X26.2717 Y27.9739
G01 X26.2725 Y27.9656
G01 X26.2774 Y27.8638
G01 X26.2722 Y27.7579
G01 X26.2566 Y27.6530
G01 X26.2320 Y27.5541
G01 X26.2296 Y27.5462
G01 X26.1966 Y27.4542
G01 X26.1935 Y27.4465
G01 X26.1498 Y27.3544
G01 X26.0975 Y27.2670
G01 X26.0929 Y27.2600
G01 X26.0347 Y27.1816
G01 X26.0294 Y27.1751
G01 X25.9609 Y27.0997
G01 X25.8823 Y27.0285
G01 X25.7971 Y26.9653
G01 X25.7098 Y26.9128
G01 X25.7025 Y26.9089
G01 X25.6141 Y26.8671
G01 X25.6083 Y26.8646
G01 X25.5918 Y26.8587
G01 X25.5918 Y26.3289
G01 X25.6083 Y26.3230
G01 X25.6141 Y26.3205
G01 X25.7025 Y26.2787
G01 X25.7098 Y26.2748
G01 X25.7971 Y26.2223
G01 X25.8823 Y26.1591
G01 X25.9609 Y26.0879
G01 X26.0294 Y26.0125
G01 X26.0347 Y26.0060
G01 X26.0953 Y25.9241
G01 X26.1498 Y25.8332
G01 X26.1935 Y25.7411
G01 X26.1966 Y25.7334
G01 X26.2309 Y25.6375
G01 X26.2557 Y25.5387
G01 X26.2574 Y25.5305
G01 X26.2722 Y25.4297
G01 X26.2773 Y25.3280
G01 X26.2773 Y25.3196
G01 X26.2725 Y25.2220
G01 X26.2717 Y25.2137
G01 X26.2566 Y25.1130
G01 X26.2309 Y25.0101
G01 X26.1966 Y24.9142
G01 X26.1935 Y24.9065
G01 X26.1498 Y24.8144
G01 X26.0975 Y24.7270
G01 X26.0929 Y24.7200
G01 X26.0347 Y24.6416
G01 X26.0294 Y24.6351
G01 X25.9609 Y24.5597
G01 X25.8855 Y24.4912
G01 X25.8790 Y24.4859
G01 X25.7971 Y24.4253
G01 X25.7098 Y24.3728
G01 X25.7025 Y24.3689
G01 X25.6141 Y24.3271
G01 X25.6064 Y24.3240
G01 X25.5105 Y24.2897
G01 X25.4117 Y24.2649
G01 X25.4035 Y24.2632
G01 X25.3027 Y24.2484
G01 X25.1968 Y24.2432
G01 X25.0950 Y24.2481
G01 X25.0867 Y24.2489
G01 X24.9860 Y24.2640
G01 X24.8871 Y24.2886
G01 X24.8792 Y24.2910
G01 X24.7833 Y24.3255
G01 X24.6874 Y24.3708
G01 X24.6000 Y24.4231
G01 X24.5930 Y24.4277
G01 X24.5113 Y24.4885
G01 X24.4357 Y24.5568
G01 X24.4298 Y24.5627
G01 X24.3615 Y24.6383
G01 X24.2983 Y24.7235
G01 X24.2438 Y24.8144
G01 X24.2001 Y24.9065
G01 X24.1970 Y24.9142
G01 X24.1627 Y25.0101
G01 X24.1379 Y25.1089
G01 X24.1362 Y25.1171
G01 X24.1219 Y25.2137
G01 X24.1211 Y25.2220
G01 X24.1162 Y25.3238
G01 X24.1211 Y25.4256
G01 X24.1219 Y25.4339
G01 X24.1362 Y25.5305
G01 X24.1379 Y25.5387
G01 X24.1627 Y25.6375
G01 X24.1985 Y25.7373
G01 X24.2438 Y25.8332
G01 X24.2961 Y25.9206
G01 X24.3007 Y25.9276
G01 X24.3589 Y26.0060
G01 X24.3642 Y26.0125
G01 X24.4327 Y26.0879
G01 X24.5113 Y26.1591
G01 X24.5965 Y26.2223
G01 X24.6838 Y26.2748
G01 X24.6911 Y26.2787
G01 X24.7795 Y26.3205
G01 X24.7853 Y26.3230
G01 X24.8018 Y26.3289
G01 X24.8018 Y26.8587
G01 X24.7853 Y26.8646
G01 X24.7795 Y26.8671
G01 X24.6911 Y26.9089
G01 X24.6838 Y26.9128
G01 X24.5965 Y26.9653
G01 X24.5113 Y27.0285
G01 X24.4327 Y27.0997
G01 X24.3642 Y27.1751
G01 X24.3589 Y27.1816
G01 X24.2983 Y27.2635
G01 X24.2438 Y27.3544
G01 X24.2001 Y27.4465
G01 X24.1970 Y27.4542
G01 X24.1627 Y27.5501
G01 X24.1379 Y27.6489
G01 X24.1362 Y27.6571
G01 X24.1214 Y27.7579
G01 X24.1163 Y27.8596
G01 X24.1163 Y27.8680
G01 X24.1211 Y27.9656
G01 X24.1219 Y27.9739
G01 X24.1370 Y28.0746
G01 X24.1627 Y28.1775
G01 X24.1970 Y28.2734
G01 X24.2001 Y28.2811
G01 X24.2438 Y28.3732
G01 X24.2971 Y28.4623
G01 X24.3589 Y28.5460
G01 X24.3642 Y28.5525
G01 X24.4327 Y28.6279
G01 X24.5096 Y28.6977
G01 X24.5983 Y28.7635
G01 X24.6855 Y28.8157
G01 X24.7387 Y28.8412
G01 X24.5434 Y32.4218
G01 X10.5281 Y32.4219
G01 X10.5050 Y26.2424
G01 X10.5932 Y26.2006
G01 X10.6841 Y26.1461
G01 X10.7693 Y26.0829
G01 X10.8449 Y26.0146
G01 X10.8508 Y26.0087
G01 X10.9164 Y25.9363
G01 X10.9217 Y25.9298
G01 X10.9823 Y25.8479
G01 X11.0368 Y25.7570
G01 X11.0821 Y25.6611
G01 X11.1179 Y25.5613
G01 X11.1436 Y25.4584
G01 X11.1587 Y25.3577
G01 X11.1595 Y25.3494
G01 X11.1643 Y25.2518
G01 X11.1643 Y25.2434
G01 X11.1592 Y25.1417
G01 X11.1432 Y25.0346
G01 X11.1179 Y24.9339
G01 X11.0821 Y24.8341
G01 X11.0368 Y24.7382
G01 X10.9823 Y24.6473
G01 X10.9191 Y24.5621
G01 X10.8479 Y24.4835
G01 X10.7693 Y24.4123
G01 X10.6876 Y24.3515
G01 X10.6806 Y24.3469
G01 X10.5968 Y24.2966
G01 X10.5895 Y24.2927
G01 X10.4973 Y24.2493
G01 X10.4014 Y24.2148
G01 X10.3935 Y24.2124
G01 X10.2946 Y24.1878
G01 X10.1897 Y24.1722
G01 X10.0838 Y24.1670
G01 X9.9779 Y24.1722
G01 X9.8730 Y24.1878
G01 X9.7701 Y24.2135
G01 X9.6703 Y24.2493
G01 X9.5781 Y24.2927
G01 X9.5708 Y24.2966
G01 X9.4870 Y24.3469
G01 X9.4800 Y24.3515
G01 X9.3983 Y24.4123
G01 X9.3227 Y24.4806
G01 X9.3168 Y24.4865
G01 X9.2485 Y24.5621
G01 X9.1853 Y24.6473
G01 X9.1308 Y24.7382
G01 X9.0855 Y24.8341
G01 X9.0497 Y24.9339
G01 X9.0240 Y25.0368
G01 X9.0084 Y25.1417
G01 X9.0033 Y25.2434
G00 Z1.0000
G00 X12.2542 Y26.2618
G01 F90.00
G01 Z-0.1000
G01 F150.00
G01 X12.2543 Y27.7624
G01 X12.2561 Y27.8009
G01 X12.2614 Y27.8371
G01 X12.2701 Y27.8728
G01 X12.2726 Y27.8808
G01 X12.2843 Y27.9133
G01 X12.3009 Y27.9484
G01 X12.3208 Y27.9816
G01 X12.3413 Y28.0095
G01 X12.3466 Y28.0159
G01 X12.3699 Y28.0415
G01 X12.3955 Y28.0648
G01 X12.4019 Y28.0701
G01 X12.4298 Y28.0906
G01 X12.4630 Y28.1105
G01 X12.4942 Y28.1254
G01 X12.5019 Y28.1286
G01 X12.5346 Y28.1401
G01 X12.5721 Y28.1496
G01 X12.6105 Y28.1553
G01 X12.6490 Y28.1571
G01 X15.1603 Y28.1571
G01 X19.1518 Y28.2289
G01 X19.1701 Y28.2794
G01 X19.2157 Y28.3751
G01 X19.2691 Y28.4641
G01 X19.3309 Y28.5476
G01 X19.4006 Y28.6249
G01 X19.4065 Y28.6308
G01 X19.4821 Y28.6991
G01 X19.5654 Y28.7610
G01 X19.6546 Y28.8148
G01 X19.6619 Y28.8187
G01 X19.7541 Y28.8621
G01 X19.8539 Y28.8979
G01 X19.9568 Y28.9236
G01 X20.0575 Y28.9387
G01 X20.0658 Y28.9395
G01 X20.1676 Y28.9444
G01 X20.2735 Y28.9392
G01 X20.3743 Y28.9244
G01 X20.3825 Y28.9227
G01 X20.4773 Y28.8990
G01 X20.4852 Y28.8966
G01 X20.5811 Y28.8621
G01 X20.6770 Y28.8168
G01 X20.7679 Y28.7623
G01 X20.8531 Y28.6991
G01 X20.9317 Y28.6279
G01 X21.0029 Y28.5493
G01 X21.0661 Y28.4641
G01 X21.1186 Y28.3768
G01 X21.1225 Y28.3695
G01 X21.1643 Y28.2811
G01 X21.1674 Y28.2734
G01 X21.2017 Y28.1775
G01 X21.2274 Y28.0746
G01 X21.2430 Y27.9697
G01 X21.2482 Y27.8638
G01 X21.2430 Y27.7579
G01 X21.2274 Y27.6530
G01 X21.2017 Y27.5501
G01 X21.1659 Y27.4503
G01 X21.1206 Y27.3544
G01 X21.0683 Y27.2670
G01 X21.0637 Y27.2600
G01 X21.0055 Y27.1816
G01 X21.0002 Y27.1751
G01 X20.9317 Y27.0997
G01 X20.8563 Y27.0312
G01 X20.8498 Y27.0259
G01 X20.7679 Y26.9653
G01 X20.6806 Y26.9128
G01 X20.6733 Y26.9089
G01 X20.5811 Y26.8655
G01 X20.4813 Y26.8297
G01 X20.3784 Y26.8040
G01 X20.2757 Y26.7886
G01 X20.1718 Y26.7833
G01 X20.1634 Y26.7833
G01 X20.0617 Y26.7884
G01 X19.9568 Y26.8040
G01 X19.8539 Y26.8297
G01 X19.7580 Y26.8640
G01 X19.7503 Y26.8671
G01 X19.6619 Y26.9089
G01 X19.6546 Y26.9128
G01 X19.5673 Y26.9653
G01 X19.4854 Y27.0259
G01 X19.4789 Y27.0312
G01 X19.4065 Y27.0968
G01 X19.4006 Y27.1027
G01 X19.3323 Y27.1783
G01 X19.2691 Y27.2635
G01 X19.2146 Y27.3544
G01 X19.1744 Y27.4392
G01 X15.5588 Y27.3743
G01 X15.5588 Y25.6473
G01 X19.1523 Y25.6903
G01 X19.1701 Y25.7394
G01 X19.2136 Y25.8312
G01 X19.2679 Y25.9223
G01 X19.3323 Y26.0093
G01 X19.4051 Y26.0894
G01 X19.4821 Y26.1591
G01 X19.5638 Y26.2199
G01 X19.5708 Y26.2245
G01 X19.6582 Y26.2768
G01 X19.7503 Y26.3205
G01 X19.7580 Y26.3236
G01 X19.8518 Y26.3572
G01 X19.9568 Y26.3836
G01 X20.0617 Y26.3992
G01 X20.1676 Y26.4044
G01 X20.2694 Y26.3995
G01 X20.2777 Y26.3987
G01 X20.3784 Y26.3836
G01 X20.4773 Y26.3590
G01 X20.4852 Y26.3566
G01 X20.5772 Y26.3236
G01 X20.5849 Y26.3205
G01 X20.6770 Y26.2768
G01 X20.7661 Y26.2235
G01 X20.8498 Y26.1617
G01 X20.8563 Y26.1564
G01 X20.9317 Y26.0879
G01 X21.0029 Y26.0093
G01 X21.0637 Y25.9276
G01 X21.0683 Y25.9206
G01 X21.1206 Y25.8332
G01 X21.1659 Y25.7373
G01 X21.2004 Y25.6414
G01 X21.2028 Y25.6335
G01 X21.2274 Y25.5346
G01 X21.2430 Y25.4297
G01 X21.2481 Y25.3280
G01 X21.2481 Y25.3196
G01 X21.2430 Y25.2179
G01 X21.2274 Y25.1130
G01 X21.2017 Y25.0101
G01 X21.1674 Y24.9142
G01 X21.1643 Y24.9065
G01 X21.1206 Y24.8144
G01 X21.0661 Y24.7235
G01 X21.0055 Y24.6416
G01 X21.0002 Y24.6351
G01 X20.9317 Y24.5597
G01 X20.8531 Y24.4885
G01 X20.7714 Y24.4277
G01 X20.7644 Y24.4231
G01 X20.6770 Y24.3708
G01 X20.5811 Y24.3255
G01 X20.4852 Y24.2910
G01 X20.4773 Y24.2886
G01 X20.3784 Y24.2640
G01 X20.2735 Y24.2484
G01 X20.1676 Y24.2432
G01 X20.0617 Y24.2484
G01 X19.9609 Y24.2632
G01 X19.9527 Y24.2649
G01 X19.8579 Y24.2886
G01 X19.8500 Y24.2910
G01 X19.7541 Y24.3255
G01 X19.6582 Y24.3708
G01 X19.5673 Y24.4253
G01 X19.4854 Y24.4859
G01 X19.4789 Y24.4912
G01 X19.4065 Y24.5568
G01 X19.4006 Y24.5627
G01 X19.3323 Y24.6383
G01 X19.2691 Y24.7235
G01 X19.2146 Y24.8144
G01 X19.1737 Y24.9006
G01 X15.1638 Y24.8526
G01 X15.1340 Y24.8539
G01 X15.1251 Y24.8545
G01 X15.0955 Y24.8587
G01 X15.0867 Y24.8602
G01 X15.0577 Y24.8672
G01 X15.0492 Y24.8697
G01 X15.0209 Y24.8795
G01 X15.0127 Y24.8827
G01 X14.9818 Y24.8971
G01 X14.9519 Y24.9144
G01 X14.9426 Y24.9205
G01 X14.9169 Y24.9393
G01 X14.8909 Y24.9622
G01 X14.8830 Y24.9699
G01 X14.8615 Y24.9934
G01 X14.8405 Y25.0209
G01 X14.8342 Y25.0300
G01 X14.8177 Y25.0573
G01 X14.8016 Y25.0901
G01 X14.7974 Y25.1003
G01 X14.7859 Y25.1330
G01 X14.7779 Y25.1638
G01 X14.7757 Y25.1747
G01 X14.7707 Y25.2089
G01 X14.7690 Y25.2387
G01 X14.7689 Y25.2474
G01 X14.7689 Y27.3672
G01 X13.0442 Y27.3672
G01 X13.0442 Y26.2428
G01 X13.1332 Y26.2006
G01 X13.2241 Y26.1461
G01 X13.3093 Y26.0829
G01 X13.3849 Y26.0146
G01 X13.3908 Y26.0087
G01 X13.4564 Y25.9363
G01 X13.4617 Y25.9298
G01 X13.5223 Y25.8479
G01 X13.5768 Y25.7570
G01 X13.6221 Y25.6611
G01 X13.6579 Y25.5613
G01 X13.6836 Y25.4584
G01 X13.6987 Y25.3577
G01 X13.6995 Y25.3494
G01 X13.7043 Y25.2518
G01 X13.7043 Y25.2434
G01 X13.6992 Y25.1417
G01 X13.6836 Y25.0368
G01 X13.6579 Y24.9339
G01 X13.6221 Y24.8341
G01 X13.5768 Y24.7382
G01 X13.5223 Y24.6473
G01 X13.4591 Y24.5621
G01 X13.3879 Y24.4835
G01 X13.3093 Y24.4123
G01 X13.2241 Y24.3491
G01 X13.1332 Y24.2946
G01 X13.0373 Y24.2493
G01 X12.9375 Y24.2135
G01 X12.8346 Y24.1878
G01 X12.7297 Y24.1722
G01 X12.6238 Y24.1670
G01 X12.5179 Y24.1722
G01 X12.4171 Y24.1870
G01 X12.4089 Y24.1887
G01 X12.3101 Y24.2135
G01 X12.2103 Y24.2493
G01 X12.1144 Y24.2946
G01 X12.0270 Y24.3469
G01 X12.0200 Y24.3515
G01 X11.9416 Y24.4097
G01 X11.9351 Y24.4150
G01 X11.8597 Y24.4835
G01 X11.7912 Y24.5589
G01 X11.7859 Y24.5654
G01 X11.7277 Y24.6438
G01 X11.7231 Y24.6508
G01 X11.6708 Y24.7382
G01 X11.6255 Y24.8341
G01 X11.5897 Y24.9339
G01 X11.5649 Y25.0327
G01 X11.5632 Y25.0409
G01 X11.5482 Y25.1439
G01 X11.5432 Y25.2476
G01 X11.5484 Y25.3535
G01 X11.5640 Y25.4584
G01 X11.5886 Y25.5573
G01 X11.5910 Y25.5652
G01 X11.6240 Y25.6572
G01 X11.6271 Y25.6649
G01 X11.6708 Y25.7570
G01 X11.7241 Y25.8461
G01 X11.7885 Y25.9331
G01 X11.8568 Y26.0087
G01 X11.8627 Y26.0146
G01 X11.9400 Y26.0843
G01 X12.0235 Y26.1461
G01 X12.1125 Y26.1995
G01 X12.2082 Y26.2451
G01 X12.2542 Y26.2618
G00 X12.2542 Y26.2618
G01 F90.00
G01 Z-0.2000
G01 F150.00
G01 X12.2543 Y27.7624
G01 X12.2561 Y27.8009
G01 X12.2614 Y27.8371
G01 X12.2701 Y27.8728
G01 X12.2726 Y27.8808
G01 X12.2843 Y27.9133
G01 X12.3009 Y27.9484
G01 X12.3208 Y27.9816
G01 X12.3413 Y28.0095
G01 X12.3466 Y28.0159
G01 X12.3699 Y28.0415
G01 X12.3955 Y28.0648
G01 X12.4019 Y28.0701
G01 X12.4298 Y28.0906
G01 X12.4630 Y28.1105
G01 X12.4942 Y28.1254
G01 X12.5019 Y28.1286
G01 X12.5346 Y28.1401
G01 X12.5721 Y28.1496
G01 X12.6105 Y28.1553
G01 X12.6490 Y28.1571
G01 X15.1603 Y28.1571
G01 X19.1518 Y28.2289
G01 X19.1701 Y28.2794
G01 X19.2157 Y28.3751
G01 X19.2691 Y28.4641
G01 X19.3309 Y28.5476
G01 X19.4006 Y28.6249
G01 X19.4065 Y28.6308
G01 X19.4821 Y28.6991
G01 X19.5654 Y28.7610
G01 X19.6546 Y28.8148
G01 X19.6619 Y28.8187
G01 X19.7541 Y28.8621
G01 X19.8539 Y28.8979
G01 X19.9568 Y28.9236
G01 X20.0575 Y28.9387
G01 X20.0658 Y28.9395
G01 X20.1676 Y28.9444
G01 X20.2735 Y28.9392
G01 X20.3743 Y28.9244
G01 X20.3825 Y28.9227
G01 X20.4773 Y28.8990
G01 X20.4852 Y28.8966
G01 X20.5811 Y28.8621
G01 X20.6770 Y28.8168
G01 X20.7679 Y28.7623
G01 X20.8531 Y28.6991
G01 X20.9317 Y28.6279
G01 X21.0029 Y28.5493
G01 X21.0661 Y28.4641
G01 X21.1186 Y28.3768
G01 X21.1225 Y28.3695
G01 X21.1643 Y28.2811
G01 X21.1674 Y28.2734
G01 X21.2017 Y28.1775
G01 X21.2274 Y28.0746
G01 X21.2430 Y27.9697
G01 X21.2482 Y27.8638
G01 X21.2430 Y27.7579
G01 X21.2274 Y27.6530
G01 X21.2017 Y27.5501
G01 X21.1659 Y27.4503
G01 X21.1206 Y27.3544
G01 X21.0683 Y27.2670
G01 X21.0637 Y27.2600
G01 X21.0055 Y27.1816
G01 X21.0002 Y27.1751
G01 X20.9317 Y27.0997
G01 X20.8563 Y27.0312
G01 X20.8498 Y27.0259
G01 X20.7679 Y26.9653
G01 X20.6806 Y26.9128
G01 X20.6733 Y26.9089
G01 X20.5811 Y26.8655
G01 X20.4813 Y26.8297
G01 X20.3784 Y26.8040
G01 X20.2757 Y26.7886
G01 X20.1718 Y26.7833
G01 X20.1634 Y26.7833
G01 X20.0617 Y26.7884
G01 X19.9568 Y26.8040
G01 X19.8539 Y26.8297
G01 X19.7580 Y26.8640
G01 X19.7503 Y26.8671
G01 X19.6619 Y26.9089
G01 X19.6546 Y26.9128
G01 X19.5673 Y26.9653
G01 X19.4854 Y27.0259
G01 X19.4789 Y27.0312
G01 X19.4065 Y27.0968
G01 X19.4006 Y27.1027
G01 X19.3323 Y27.1783
G01 X19.2691 Y27.2635
G01 X19.2146 Y27.3544
G01 X19.1744 Y27.4392
G01 X15.5588 Y27.3743
G01 X15.5588 Y25.6473
G01 X19.1523 Y25.6903
G01 X19.1701 Y25.7394
G01 X19.2136 Y25.8312
G01 X19.2679 Y25.9223
G01 X19.3323 Y26.0093
G01 X19.4051 Y26.0894
G01 X19.4821 Y26.1591
G01 X19.5638 Y26.2199
G01 X19.5708 Y26.2245
G01 X19.6582 Y26.2768
G01 X19.7503 Y26.3205
G01 X19.7580 Y26.3236
G01 X19.8518 Y26.3572
G01 X19.9568 Y26.3836
G01 X20.0617 Y26.3992
G01 X20.1676 Y26.4044
G01 X20.2694 Y26.3995
G01 X20.2777 Y26.3987
G01 X20.3784 Y26.3836
G01 X20.4773 Y26.3590
G01 X20.4852 Y26.3566
G01 X20.5772 Y26.3236
G01 X20.5849 Y26.3205
G01 X20.6770 Y26.2768
G01 X20.7661 Y26.2235
G01 X20.8498 Y26.1617
G01 X20.8563 Y26.1564
G01 X20.9317 Y26.0879
G01 X21.0029 Y26.0093
G01 X21.0637 Y25.9276
G01 X21.0683 Y25.9206
G01 X21.1206 Y25.8332
G01 X21.1659 Y25.7373
G01 X21.2004 Y25.6414
G01 X21.2028 Y25.6335
G01 X21.2274 Y25.5346
G01 X21.2430 Y25.4297
G01 X21.2481 Y25.3280
G01 X21.2481 Y25.3196
G01 X21.2430 Y25.2179
G01 X21.2274 Y25.1130
G01 X21.2017 Y25.0101
G01 X21.1674 Y24.9142
G01 X21.1643 Y24.9065
G01 X21.1206 Y24.8144
G01 X21.0661 Y24.7235
G01 X21.0055 Y24.6416
G01 X21.0002 Y24.6351
G01 X20.9317 Y24.5597
G01 X20.8531 Y24.4885
G01 X20.7714 Y24.4277
G01 X20.7644 Y24.4231
G01 X20.6770 Y24.3708
G01 X20.5811 Y24.3255
G01 X20.4852 Y24.2910
G01 X20.4773 Y24.2886
G01 X20.3784 Y24.2640
G01 X20.2735 Y24.2484
G01 X20.1676 Y24.2432
G01 X20.0617 Y24.2484
G01 X19.9609 Y24.2632
G01 X19.9527 Y24.2649
G01 X19.8579 Y24.2886
G01 X19.8500 Y24.2910
G01 X19.7541 Y24.3255
G01 X19.6582 Y24.3708
G01 X19.5673 Y24.4253
G01 X19.4854 Y24.4859
G01 X19.4789 Y24.4912
G01 X19.4065 Y24.5568
G01 X19.4006 Y24.5627
G01 X19.3323 Y24.6383
G01 X19.2691 Y24.7235
G01 X19.2146 Y24.8144
G01 X19.1737 Y24.9006
G01 X15.1638 Y24.8526
G01 X15.1340 Y24.8539
G01 X15.1251 Y24.8545
G01 X15.0955 Y24.8587
G01 X15.0867 Y24.8602
G01 X15.0577 Y24.8672
G01 X15.0492 Y24.8697
G01 X15.0209 Y24.8795
G01 X15.0127 Y24.8827
G01 X14.9818 Y24.8971
G01 X14.9519 Y24.9144
G01 X14.9426 Y24.9205
G01 X14.9169 Y24.9393
G01 X14.8909 Y24.9622
G01 X14.8830 Y24.9699
G01 X14.8615 Y24.9934
G01 X14.8405 Y25.0209
G01 X14.8342 Y25.0300
G01 X14.8177 Y25.0573
G01 X14.8016 Y25.0901
G01 X14.7974 Y25.1003
G01 X14.7859 Y25.1330
G01 X14.7779 Y25.1638
G01 X14.7757 Y25.1747
G01 X14.7707 Y25.2089
G01 X14.7690 Y25.2387
G01 X14.7689 Y25.2474
G01 X14.7689 Y27.3672
G01 X13.0442 Y27.3672
G01 X13.0442 Y26.2428
G01 X13.1332 Y26.2006
G01 X13.2241 Y26.1461
G01 X13.3093 Y26.0829
G01 X13.3849 Y26.0146
G01 X13.3908 Y26.0087
G01 X13.4564 Y25.9363
G01 X13.4617 Y25.9298
G01 X13.5223 Y25.8479
G01 X13.5768 Y25.7570
G01 X13.6221 Y25.6611
G01 X13.6579 Y25.5613
G01 X13.6836 Y25.4584
G01 X13.6987 Y25.3577
G01 X13.6995 Y25.3494
G01 X13.7043 Y25.2518
G01 X13.7043 Y25.2434
G01 X13.6992 Y25.1417
G01 X13.6836 Y25.0368
G01 X13.6579 Y24.9339
G01 X13.6221 Y24.8341
G01 X13.5768 Y24.7382
G01 X13.5223 Y24.6473
G01 X13.4591 Y24.5621
G01 X13.3879 Y24.4835
G01 X13.3093 Y24.4123
G01 X13.2241 Y24.3491
G01 X13.1332 Y24.2946
G01 X13.0373 Y24.2493
G01 X12.9375 Y24.2135
G01 X12.8346 Y24.1878
G01 X12.7297 Y24.1722
G01 X12.6238 Y24.1670
G01 X12.5179 Y24.1722
G01 X12.4171 Y24.1870
G01 X12.4089 Y24.1887
G01 X12.3101 Y24.2135
G01 X12.2103 Y24.2493
G01 X12.1144 Y24.2946
G01 X12.0270 Y24.3469
G01 X12.0200 Y24.3515
G01 X11.9416 Y24.4097
G01 X11.9351 Y24.4150
G01 X11.8597 Y24.4835
G01 X11.7912 Y24.5589
G01 X11.7859 Y24.5654
G01 X11.7277 Y24.6438
G01 X11.7231 Y24.6508
G01 X11.6708 Y24.7382
G01 X11.6255 Y24.8341
G01 X11.5897 Y24.9339
G01 X11.5649 Y25.0327
G01 X11.5632 Y25.0409
G01 X11.5482 Y25.1439
G01 X11.5432 Y25.2476
G01 X11.5484 Y25.3535
G01 X11.5640 Y25.4584
G01 X11.5886 Y25.5573
G01 X11.5910 Y25.5652
G01 X11.6240 Y25.6572
G01 X11.6271 Y25.6649
G01 X11.6708 Y25.7570
G01 X11.7241 Y25.8461
G01 X11.7885 Y25.9331
G01 X11.8568 Y26.0087
G01 X11.8627 Y26.0146
G01 X11.9400 Y26.0843
G01 X12.0235 Y26.1461
G01 X12.1125 Y26.1995
G01 X12.2082 Y26.2451
G01 X12.2542 Y26.2618
G00 Z1.0000
G00 X13.6190 Y23.1280
G01 F90.00
G01 Z-0.1000
G01 F150.00
G01 X15.1626 Y23.1279
G01 X19.1529 Y23.1518
G01 X19.1701 Y23.1994
G01 X19.2136 Y23.2912
G01 X19.2679 Y23.3823
G01 X19.3323 Y23.4693
G01 X19.4020 Y23.5463
G01 X19.4821 Y23.6191
G01 X19.5673 Y23.6823
G01 X19.6582 Y23.7368
G01 X19.7520 Y23.7813
G01 X19.8539 Y23.8179
G01 X19.9568 Y23.8436
G01 X20.0617 Y23.8592
G01 X20.1676 Y23.8644
G01 X20.2735 Y23.8592
G01 X20.3784 Y23.8436
G01 X20.4813 Y23.8179
G01 X20.5832 Y23.7813
G01 X20.6770 Y23.7368
G01 X20.7644 Y23.6845
G01 X20.7714 Y23.6799
G01 X20.8531 Y23.6191
G01 X20.9287 Y23.5508
G01 X20.9346 Y23.5449
G01 X21.0029 Y23.4693
G01 X21.0637 Y23.3876
G01 X21.0683 Y23.3806
G01 X21.1206 Y23.2932
G01 X21.1643 Y23.2011
G01 X21.1674 Y23.1934
G01 X21.2017 Y23.0975
G01 X21.2265 Y22.9987
G01 X21.2282 Y22.9905
G01 X21.2430 Y22.8897
G01 X21.2481 Y22.7880
G01 X21.2481 Y22.7796
G01 X21.2430 Y22.6779
G01 X21.2274 Y22.5730
G01 X21.2028 Y22.4741
G01 X21.2004 Y22.4662
G01 X21.1659 Y22.3703
G01 X21.1225 Y22.2781
G01 X21.1186 Y22.2708
G01 X21.0661 Y22.1835
G01 X21.0055 Y22.1016
G01 X21.0002 Y22.0951
G01 X20.9317 Y22.0197
G01 X20.8563 Y21.9512
G01 X20.8498 Y21.9459
G01 X20.7661 Y21.8841
G01 X20.6770 Y21.8308
G01 X20.5849 Y21.7871
G01 X20.5772 Y21.7840
G01 X20.4813 Y21.7497
G01 X20.3825 Y21.7249
G01 X20.3743 Y21.7232
G01 X20.2777 Y21.7089
G01 X20.2694 Y21.7081
G01 X20.1676 Y21.7032
G01 X20.0617 Y21.7084
G01 X19.9568 Y21.7240
G01 X19.8539 Y21.7497
G01 X19.7541 Y21.7855
G01 X19.6582 Y21.8308
G01 X19.5673 Y21.8853
G01 X19.4854 Y21.9459
G01 X19.4789 Y21.9512
G01 X19.4035 Y22.0197
G01 X19.3350 Y22.0951
G01 X19.3297 Y22.1016
G01 X19.2715 Y22.1800
G01 X19.2669 Y22.1870
G01 X19.2146 Y22.2744
G01 X19.1730 Y22.3620
G01 X15.5588 Y22.3404
G01 X15.5588 Y20.6157
G01 X19.1620 Y20.6373
G01 X19.1701 Y20.6594
G01 X19.2127 Y20.7495
G01 X19.2166 Y20.7568
G01 X19.2691 Y20.8441
G01 X19.3323 Y20.9293
G01 X19.4035 Y21.0079
G01 X19.4789 Y21.0764
G01 X19.4854 Y21.0817
G01 X19.5638 Y21.1399
G01 X19.5708 Y21.1445
G01 X19.6582 Y21.1968
G01 X19.7541 Y21.2421
G01 X19.8539 Y21.2779
G01 X19.9527 Y21.3027
G01 X19.9609 Y21.3044
G01 X20.0575 Y21.3187
G01 X20.0658 Y21.3195
G01 X20.1676 Y21.3244
G01 X20.2694 Y21.3195
G01 X20.2777 Y21.3187
G01 X20.3743 Y21.3044
G01 X20.3825 Y21.3027
G01 X20.4813 Y21.2779
G01 X20.5772 Y21.2436
G01 X20.5849 Y21.2405
G01 X20.6770 Y21.1968
G01 X20.7679 Y21.1423
G01 X20.8531 Y21.0791
G01 X20.9287 Y21.0108
G01 X20.9346 Y21.0049
G01 X21.0002 Y20.9325
G01 X21.0055 Y20.9260
G01 X21.0661 Y20.8441
G01 X21.1186 Y20.7568
G01 X21.1225 Y20.7495
G01 X21.1659 Y20.6573
G01 X21.2017 Y20.5575
G01 X21.2274 Y20.4546
G01 X21.2425 Y20.3539
G01 X21.2433 Y20.3456
G01 X21.2481 Y20.2480
G01 X21.2481 Y20.2396
G01 X21.2430 Y20.1379
G01 X21.2282 Y20.0371
G01 X21.2265 Y20.0289
G01 X21.2017 Y19.9301
G01 X21.1651 Y19.8282
G01 X21.1206 Y19.7344
G01 X21.0683 Y19.6470
G01 X21.0637 Y19.6400
G01 X21.0029 Y19.5583
G01 X20.9346 Y19.4827
G01 X20.9287 Y19.4768
G01 X20.8531 Y19.4085
G01 X20.7679 Y19.3453
G01 X20.6806 Y19.2928
G01 X20.6733 Y19.2889
G01 X20.5811 Y19.2455
G01 X20.4813 Y19.2097
G01 X20.3825 Y19.1849
G01 X20.3743 Y19.1832
G01 X20.2735 Y19.1684
G01 X20.1676 Y19.1632
G01 X20.0617 Y19.1684
G01 X19.9609 Y19.1832
G01 X19.9527 Y19.1849
G01 X19.8539 Y19.2097
G01 X19.7541 Y19.2455
G01 X19.6619 Y19.2889
G01 X19.6546 Y19.2928
G01 X19.5673 Y19.3453
G01 X19.4854 Y19.4059
G01 X19.4789 Y19.4112
G01 X19.4035 Y19.4797
G01 X19.3323 Y19.5583
G01 X19.2691 Y19.6435
G01 X19.2166 Y19.7308
G01 X19.2127 Y19.7381
G01 X19.1709 Y19.8265
G01 X19.1684 Y19.8323
G01 X19.1630 Y19.8474
G01 X15.1638 Y19.8234
G01 X15.1251 Y19.8253
G01 X15.0867 Y19.8310
G01 X15.0492 Y19.8405
G01 X15.0187 Y19.8511
G01 X15.0106 Y19.8544
G01 X14.9797 Y19.8690
G01 X14.9499 Y19.8865
G01 X14.9426 Y19.8913
G01 X14.9151 Y19.9116
G01 X14.8892 Y19.9346
G01 X14.8816 Y19.9421
G01 X14.8600 Y19.9660
G01 X14.8391 Y19.9936
G01 X14.8342 Y20.0008
G01 X14.8166 Y20.0301
G01 X14.8015 Y20.0613
G01 X14.7974 Y20.0711
G01 X14.7865 Y20.1015
G01 X14.7778 Y20.1350
G01 X14.7757 Y20.1455
G01 X14.7707 Y20.1797
G01 X14.7689 Y20.2182
G01 X14.7689 Y22.3380
G01 X13.6380 Y22.3380
G01 X13.6213 Y22.2920
G01 X13.5757 Y22.1963
G01 X13.5223 Y22.1073
G01 X13.4605 Y22.0238
G01 X13.3908 Y21.9465
G01 X13.3849 Y21.9406
G01 X13.3093 Y21.8723
G01 X13.2260 Y21.8104
G01 X13.1368 Y21.7566
G01 X13.1295 Y21.7527
G01 X13.0373 Y21.7093
G01 X12.9375 Y21.6735
G01 X12.8387 Y21.6487
G01 X12.8305 Y21.6470
G01 X12.7297 Y21.6322
G01 X12.6260 Y21.6270
G01 X12.5220 Y21.6319
G01 X12.5137 Y21.6327
G01 X12.4130 Y21.6478
G01 X12.3101 Y21.6735
G01 X12.2142 Y21.7078
G01 X12.2065 Y21.7109
G01 X12.1144 Y21.7546
G01 X12.0235 Y21.8091
G01 X11.9416 Y21.8697
G01 X11.9351 Y21.8750
G01 X11.8597 Y21.9435
G01 X11.7885 Y22.0221
G01 X11.7277 Y22.1038
G01 X11.7231 Y22.1108
G01 X11.6708 Y22.1982
G01 X11.6255 Y22.2941
G01 X11.5897 Y22.3939
G01 X11.5640 Y22.4968
G01 X11.5484 Y22.6017
G01 X11.5432 Y22.7076
G01 X11.5484 Y22.8135
G01 X11.5640 Y22.9184
G01 X11.5897 Y23.0213
G01 X11.6255 Y23.1211
G01 X11.6708 Y23.2170
G01 X11.7253 Y23.3079
G01 X11.7885 Y23.3931
G01 X11.8597 Y23.4717
G01 X11.9383 Y23.5429
G01 X12.0235 Y23.6061
G01 X12.1144 Y23.6606
G01 X12.2103 Y23.7059
G01 X12.3101 Y23.7417
G01 X12.4130 Y23.7674
G01 X12.5179 Y23.7830
G01 X12.6238 Y23.7882
G01 X12.7297 Y23.7830
G01 X12.8346 Y23.7674
G01 X12.9375 Y23.7417
G01 X13.0373 Y23.7059
G01 X13.1332 Y23.6606
G01 X13.2241 Y23.6061
G01 X13.3093 Y23.5429
G01 X13.3879 Y23.4717
G01 X13.4591 Y23.3931
G01 X13.5223 Y23.3079
G01 X13.5768 Y23.2170
G01 X13.6190 Y23.1280
G00 X13.6190 Y23.1280
G01 F90.00
G01 Z-0.2000
G01 F150.00
G01 X15.1626 Y23.1279
G01 X19.1529 Y23.1518
G01 X19.1701 Y23.1994
G01 X19.2136 Y23.2912
G01 X19.2679 Y23.3823
G01 X19.3323 Y23.4693
G01 X19.4020 Y23.5463
G01 X19.4821 Y23.6191
G01 X19.5673 Y23.6823
G01 X19.6582 Y23.7368
G01 X19.7520 Y23.7813
G01 X19.8539 Y23.8179
G01 X19.9568 Y23.8436
G01 X20.0617 Y23.8592
G01 X20.1676 Y23.8644
G01 X20.2735 Y23.8592
G01 X20.3784 Y23.8436
G01 X20.4813 Y23.8179
G01 X20.5832 Y23.7813
G01 X20.6770 Y23.7368
G01 X20.7644 Y23.6845
G01 X20.7714 Y23.6799
G01 X20.8531 Y23.6191
G01 X20.9287 Y23.5508
G01 X20.9346 Y23.5449
G01 X21.0029 Y23.4693
G01 X21.0637 Y23.3876
G01 X21.0683 Y23.3806
G01 X21.1206 Y23.2932
G01 X21.1643 Y23.2011
G01 X21.1674 Y23.1934
G01 X21.2017 Y23.0975
G01 X21.2265 Y22.9987
G01 X21.2282 Y22.9905
G01 X21.2430 Y22.8897
G01 X21.2481 Y22.7880
G01 X21.2481 Y22.7796
G01 X21.2430 Y22.6779
G01 X21.2274 Y22.5730
G01 X21.2028 Y22.4741
G01 X21.2004 Y22.4662
G01 X21.1659 Y22.3703
G01 X21.1225 Y22.2781
G01 X21.1186 Y22.2708
G01 X21.0661 Y22.1835
G01 X21.0055 Y22.1016
G01 X21.0002 Y22.0951
G01 X20.9317 Y22.0197
G01 X20.8563 Y21.9512
G01 X20.8498 Y21.9459
G01 X20.7661 Y21.8841
G01 X20.6770 Y21.8308
G01 X20.5849 Y21.7871
G01 X20.5772 Y21.7840
G01 X20.4813 Y21.7497
G01 X20.3825 Y21.7249
G01 X20.3743 Y21.7232
G01 X20.2777 Y21.7089
G01 X20.2694 Y21.7081
G01 X20.1676 Y21.7032
G01 X20.0617 Y21.7084
G01 X19.9568 Y21.7240
G01 X19.8539 Y21.7497
G01 X19.7541 Y21.7855
G01 X19.6582 Y21.8308
G01 X19.5673 Y21.8853
G01 X19.4854 Y21.9459
G01 X19.4789 Y21.9512
G01 X19.4035 Y22.0197
G01 X19.3350 Y22.0951
G01 X19.3297 Y22.1016
G01 X19.2715 Y22.1800
G01 X19.2669 Y22.1870
G01 X19.2146 Y22.2744
G01 X19.1730 Y22.3620
G01 X15.5588 Y22.3404
G01 X15.5588 Y20.6157
G01 X19.1620 Y20.6373
G01 X19.1701 Y20.6594
G01 X19.2127 Y20.7495
G01 X19.2166 Y20.7568
G01 X19.2691 Y20.8441
G01 X19.3323 Y20.9293
G01 X19.4035 Y21.0079
G01 X19.4789 Y21.0764
G01 X19.4854 Y21.0817
G01 X19.5638 Y21.1399
G01 X19.5708 Y21.1445
G01 X19.6582 Y21.1968
G01 X19.7541 Y21.2421
G01 X19.8539 Y21.2779
G01 X19.9527 Y21.3027
G01 X19.9609 Y21.3044
G01 X20.0575 Y21.3187
G01 X20.0658 Y21.3195
G01 X20.1676 Y21.3244
G01 X20.2694 Y21.3195
G01 X20.2777 Y21.3187
G01 X20.3743 Y21.3044
G01 X20.3825 Y21.3027
G01 X20.4813 Y21.2779
G01 X20.5772 Y21.2436
G01 X20.5849 Y21.2405
G01 X20.6770 Y21.1968
G01 X20.7679 Y21.1423
G01 X20.8531 Y21.0791
G01 X20.9287 Y21.0108
G01 X20.9346 Y21.0049
G01 X21.0002 Y20.9325
G01 X21.0055 Y20.9260
G01 X21.0661 Y20.8441
G01 X21.1186 Y20.7568
G01 X21.1225 Y20.7495
G01 X21.1659 Y20.6573
G01 X21.2017 Y20.5575
G01 X21.2274 Y20.4546
G01 X21.2425 Y20.3539
G01 X21.2433 Y20.3456
G01 X21.2481 Y20.2480
G01 X21.2481 Y20.2396
G01 X21.2430 Y20.1379
G01 X21.2282 Y20.0371
G01 X21.2265 Y20.0289
G01 X21.2017 Y19.9301
G01 X21.1651 Y19.8282
G01 X21.1206 Y19.7344
G01 X21.0683 Y19.6470
G01 X21.0637 Y19.6400
G01 X21.0029 Y19.5583
G01 X20.9346 Y19.4827
G01 X20.9287 Y19.4768
G01 X20.8531 Y19.4085
G01 X20.7679 Y19.3453
G01 X20.6806 Y19.2928
G01 X20.6733 Y19.2889
G01 X20.5811 Y19.2455
G01 X20.4813 Y19.2097
G01 X20.3825 Y19.1849
G01 X20.3743 Y19.1832
G01 X20.2735 Y19.1684
G01 X20.1676 Y19.1632
G01 X20.0617 Y19.1684
G01 X19.9609 Y19.1832
G01 X19.9527 Y19.1849
G01 X19.8539 Y19.2097
G01 X19.7541 Y19.2455
G01 X19.6619 Y19.2889
G01 X19.6546 Y19.2928
G01 X19.5673 Y19.3453
G01 X19.4854 Y19.4059
G01 X19.4789 Y19.4112
G01 X19.4035 Y19.4797
G01 X19.3323 Y19.5583
G01 X19.2691 Y19.6435
G01 X19.2166 Y19.7308
G01 X19.2127 Y19.7381
G01 X19.1709 Y19.8265
G01 X19.1684 Y19.8323
G01 X19.1630 Y19.8474
G01 X15.1638 Y19.8234
G01 X15.1251 Y19.8253
G01 X15.0867 Y19.8310
G01 X15.0492 Y19.8405
G01 X15.0187 Y19.8511
G01 X15.0106 Y19.8544
G01 X14.9797 Y19.8690
G01 X14.9499 Y19.8865
G01 X14.9426 Y19.8913
G01 X14.9151 Y19.9116
G01 X14.8892 Y19.9346
G01 X14.8816 Y19.9421
G01 X14.8600 Y19.9660
G01 X14.8391 Y19.9936
G01 X14.8342 Y20.0008
G01 X14.8166 Y20.0301
G01 X14.8015 Y20.0613
G01 X14.7974 Y20.0711
G01 X14.7865 Y20.1015
G01 X14.7778 Y20.1350
G01 X14.7757 Y20.1455
G01 X14.7707 Y20.1797
G01 X14.7689 Y20.2182
G01 X14.7689 Y22.3380
G01 X13.6380 Y22.3380
G01 X13.6213 Y22.2920
G01 X13.5757 Y22.1963
G01 X13.5223 Y22.1073
G01 X13.4605 Y22.0238
G01 X13.3908 Y21.9465
G01 X13.3849 Y21.9406
G01 X13.3093 Y21.8723
G01 X13.2260 Y21.8104
G01 X13.1368 Y21.7566
G01 X13.1295 Y21.7527
G01 X13.0373 Y21.7093
G01 X12.9375 Y21.6735
G01 X12.8387 Y21.6487
G01 X12.8305 Y21.6470
G01 X12.7297 Y21.6322
G01 X12.6260 Y21.6270
G01 X12.5220 Y21.6319
G01 X12.5137 Y21.6327
G01 X12.4130 Y21.6478
G01 X12.3101 Y21.6735
G01 X12.2142 Y21.7078
G01 X12.2065 Y21.7109
G01 X12.1144 Y21.7546
G01 X12.0235 Y21.8091
G01 X11.9416 Y21.8697
G01 X11.9351 Y21.8750
G01 X11.8597 Y21.9435
G01 X11.7885 Y22.0221
G01 X11.7277 Y22.1038
G01 X11.7231 Y22.1108
G01 X11.6708 Y22.1982
G01 X11.6255 Y22.2941
G01 X11.5897 Y22.3939
G01 X11.5640 Y22.4968
G01 X11.5484 Y22.6017
G01 X11.5432 Y22.7076
G01 X11.5484 Y22.8135
G01 X11.5640 Y22.9184
G01 X11.5897 Y23.0213
G01 X11.6255 Y23.1211
G01 X11.6708 Y23.2170
G01 X11.7253 Y23.3079
G01 X11.7885 Y23.3931
G01 X11.8597 Y23.4717
G01 X11.9383 Y23.5429
G01 X12.0235 Y23.6061
G01 X12.1144 Y23.6606
G01 X12.2103 Y23.7059
G01 X12.3101 Y23.7417
G01 X12.4130 Y23.7674
G01 X12.5179 Y23.7830
G01 X12.6238 Y23.7882
G01 X12.7297 Y23.7830
G01 X12.8346 Y23.7674
G01 X12.9375 Y23.7417
G01 X13.0373 Y23.7059
G01 X13.1332 Y23.6606
G01 X13.2241 Y23.6061
G01 X13.3093 Y23.5429
G01 X13.3879 Y23.4717
G01 X13.4591 Y23.3931
G01 X13.5223 Y23.3079
G01 X13.5768 Y23.2170
G01 X13.6190 Y23.1280
G00 Z1.0000
G00 X12.2303 Y19.1620
G01 F90.00
G01 Z-0.1000
G01 F150.00
G01 X12.2082 Y19.1701
G01 X12.1181 Y19.2127
G01 X12.1108 Y19.2166
G01 X12.0235 Y19.2691
G01 X11.9416 Y19.3297
G01 X11.9351 Y19.3350
G01 X11.8597 Y19.4035
G01 X11.7885 Y19.4821
G01 X11.7253 Y19.5673
G01 X11.6708 Y19.6582
G01 X11.6255 Y19.7541
G01 X11.5897 Y19.8539
G01 X11.5640 Y19.9568
G01 X11.5489 Y20.0575
G01 X11.5481 Y20.0658
G01 X11.5432 Y20.1676
G01 X11.5481 Y20.2694
G01 X11.5489 Y20.2777
G01 X11.5632 Y20.3743
G01 X11.5649 Y20.3825
G01 X11.5897 Y20.4813
G01 X11.6255 Y20.5811
G01 X11.6708 Y20.6770
G01 X11.7253 Y20.7679
G01 X11.7885 Y20.8531
G01 X11.8597 Y20.9317
G01 X11.9383 Y21.0029
G01 X12.0200 Y21.0637
G01 X12.0270 Y21.0683
G01 X12.1108 Y21.1186
G01 X12.1181 Y21.1225
G01 X12.2103 Y21.1659
G01 X12.3062 Y21.2004
G01 X12.3141 Y21.2028
G01 X12.4130 Y21.2274
G01 X12.5179 Y21.2430
G01 X12.6238 Y21.2482
G01 X12.7256 Y21.2433
G01 X12.7339 Y21.2425
G01 X12.8305 Y21.2282
G01 X12.8387 Y21.2265
G01 X12.9375 Y21.2017
G01 X13.0334 Y21.1674
G01 X13.0411 Y21.1643
G01 X13.1332 Y21.1206
G01 X13.2241 Y21.0661
G01 X13.3093 Y21.0029
G01 X13.3879 Y20.9317
G01 X13.4591 Y20.8531
G01 X13.5223 Y20.7679
G01 X13.5768 Y20.6770
G01 X13.6205 Y20.5849
G01 X13.6236 Y20.5772
G01 X13.6566 Y20.4852
G01 X13.6590 Y20.4773
G01 X13.6836 Y20.3784
G01 X13.6992 Y20.2735
G01 X13.7044 Y20.1676
G01 X13.6995 Y20.0658
G01 X13.6987 Y20.0575
G01 X13.6844 Y19.9609
G01 X13.6827 Y19.9527
G01 X13.6579 Y19.8539
G01 X13.6221 Y19.7541
G01 X13.5768 Y19.6582
G01 X13.5245 Y19.5708
G01 X13.5199 Y19.5638
G01 X13.4617 Y19.4854
G01 X13.4564 Y19.4789
G01 X13.3879 Y19.4035
G01 X13.3093 Y19.3323
G01 X13.2241 Y19.2691
G01 X13.1368 Y19.2166
G01 X13.1295 Y19.2127
G01 X13.0411 Y19.1709
G01 X13.0353 Y19.1684
G01 X13.0202 Y19.1630
G01 X13.0266 Y18.0988
G01 X19.1625 Y18.0987
G01 X19.1701 Y18.1194
G01 X19.2146 Y18.2132
G01 X19.2691 Y18.3041
G01 X19.3323 Y18.3893
G01 X19.4035 Y18.4679
G01 X19.4821 Y18.5391
G01 X19.5673 Y18.6023
G01 X19.6582 Y18.6568
G01 X19.7503 Y18.7005
G01 X19.7580 Y18.7036
G01 X19.8539 Y18.7379
G01 X19.9527 Y18.7627
G01 X19.9609 Y18.7644
G01 X20.0575 Y18.7787
G01 X20.0658 Y18.7795
G01 X20.1676 Y18.7844
G01 X20.2694 Y18.7795
G01 X20.2777 Y18.7787
G01 X20.3784 Y18.7636
G01 X20.4813 Y18.7379
G01 X20.5811 Y18.7021
G01 X20.6750 Y18.6578
G01 X20.7644 Y18.6045
G01 X20.7714 Y18.5999
G01 X20.8531 Y18.5391
G01 X20.9317 Y18.4679
G01 X21.0002 Y18.3925
G01 X21.0055 Y18.3860
G01 X21.0661 Y18.3041
G01 X21.1186 Y18.2168
G01 X21.1225 Y18.2095
G01 X21.1659 Y18.1173
G01 X21.2004 Y18.0214
G01 X21.2028 Y18.0135
G01 X21.2274 Y17.9146
G01 X21.2425 Y17.8139
G01 X21.2433 Y17.8056
G01 X21.2481 Y17.7080
G01 X21.2481 Y17.6996
G01 X21.2430 Y17.5979
G01 X21.2282 Y17.4971
G01 X21.2265 Y17.4889
G01 X21.2017 Y17.3901
G01 X21.1674 Y17.2942
G01 X21.1643 Y17.2865
G01 X21.1206 Y17.1944
G01 X21.0661 Y17.1035
G01 X21.0029 Y17.0183
G01 X20.9346 Y16.9427
G01 X20.9287 Y16.9368
G01 X20.8531 Y16.8685
G01 X20.7679 Y16.8053
G01 X20.6806 Y16.7528
G01 X20.6733 Y16.7489
G01 X20.5811 Y16.7055
G01 X20.4813 Y16.6697
G01 X20.3784 Y16.6440
G01 X20.2735 Y16.6284
G01 X20.1676 Y16.6232
G01 X20.0617 Y16.6284
G01 X19.9568 Y16.6440
G01 X19.8539 Y16.6697
G01 X19.7541 Y16.7055
G01 X19.6582 Y16.7508
G01 X19.5673 Y16.8053
G01 X19.4821 Y16.8685
G01 X19.4035 Y16.9397
G01 X19.3323 Y17.0183
G01 X19.2691 Y17.1035
G01 X19.2146 Y17.1944
G01 X19.1701 Y17.2882
G01 X19.1625 Y17.3088
G01 X13.0442 Y17.3089
G01 X13.0442 Y15.5827
G01 X19.1628 Y15.5597
G01 X19.1684 Y15.5753
G01 X19.1709 Y15.5811
G01 X19.2127 Y15.6695
G01 X19.2166 Y15.6768
G01 X19.2691 Y15.7641
G01 X19.3323 Y15.8493
G01 X19.4035 Y15.9279
G01 X19.4789 Y15.9964
G01 X19.4854 Y16.0017
G01 X19.5638 Y16.0599
G01 X19.5708 Y16.0645
G01 X19.6582 Y16.1168
G01 X19.7541 Y16.1621
G01 X19.8539 Y16.1979
G01 X19.9527 Y16.2227
G01 X19.9609 Y16.2244
G01 X20.0575 Y16.2387
G01 X20.0658 Y16.2395
G01 X20.1676 Y16.2444
G01 X20.2757 Y16.2390
G01 X20.3743 Y16.2244
G01 X20.3825 Y16.2227
G01 X20.4813 Y16.1979
G01 X20.5772 Y16.1636
G01 X20.5849 Y16.1605
G01 X20.6770 Y16.1168
G01 X20.7679 Y16.0623
G01 X20.8498 Y16.0017
G01 X20.8563 Y15.9964
G01 X20.9317 Y15.9279
G01 X21.0002 Y15.8525
G01 X21.0055 Y15.8460
G01 X21.0661 Y15.7641
G01 X21.1206 Y15.6732
G01 X21.1643 Y15.5811
G01 X21.1674 Y15.5734
G01 X21.2017 Y15.4775
G01 X21.2265 Y15.3787
G01 X21.2282 Y15.3705
G01 X21.2430 Y15.2697
G01 X21.2482 Y15.1638
G01 X21.2430 Y15.0579
G01 X21.2282 Y14.9571
G01 X21.2265 Y14.9489
G01 X21.2017 Y14.8501
G01 X21.1674 Y14.7542
G01 X21.1643 Y14.7465
G01 X21.1216 Y14.6564
G01 X21.0683 Y14.5670
G01 X21.0637 Y14.5600
G01 X21.0029 Y14.4783
G01 X20.9317 Y14.3997
G01 X20.8563 Y14.3312
G01 X20.8498 Y14.3259
G01 X20.7679 Y14.2653
G01 X20.6806 Y14.2128
G01 X20.6733 Y14.2089
G01 X20.5811 Y14.1655
G01 X20.4852 Y14.1310
G01 X20.4773 Y14.1286
G01 X20.3784 Y14.1040
G01 X20.2777 Y14.0889
G01 X20.2694 Y14.0881
G01 X20.1654 Y14.0832
G01 X20.0617 Y14.0884
G01 X19.9609 Y14.1032
G01 X19.9527 Y14.1049
G01 X19.8539 Y14.1297
G01 X19.7541 Y14.1655
G01 X19.6619 Y14.2089
G01 X19.6546 Y14.2128
G01 X19.5673 Y14.2653
G01 X19.4854 Y14.3259
G01 X19.4789 Y14.3312
G01 X19.4035 Y14.3997
G01 X19.3323 Y14.4783
G01 X19.2691 Y14.5635
G01 X19.2166 Y14.6508
G01 X19.2127 Y14.6581
G01 X19.1701 Y14.7482
G01 X19.1622 Y14.7698
G01 X12.6475 Y14.7943
G01 X12.6090 Y14.7963
G01 X12.5767 Y14.8010
G01 X12.5666 Y14.8031
G01 X12.5346 Y14.8113
G01 X12.5042 Y14.8219
G01 X12.4947 Y14.8258
G01 X12.4671 Y14.8388
G01 X12.4581 Y14.8437
G01 X12.4285 Y14.8616
G01 X12.4022 Y14.8810
G01 X12.3943 Y14.8876
G01 X12.3699 Y14.9099
G01 X12.3468 Y14.9351
G01 X12.3404 Y14.9431
G01 X12.3208 Y14.9698
G01 X12.3031 Y14.9990
G01 X12.2983 Y15.0081
G01 X12.2843 Y15.0381
G01 X12.2726 Y15.0702
G01 X12.2697 Y15.0800
G01 X12.2615 Y15.1136
G01 X12.2566 Y15.1459
G01 X12.2557 Y15.1561
G01 X12.2543 Y15.1866
G01 X12.2303 Y19.1620
G00 X12.2303 Y19.1620
G01 F90.00
G01 Z-0.2000
G01 F150.00
G01 X12.2082 Y19.1701
G01 X12.1181 Y19.2127
G01 X12.1108 Y19.2166
G01 X12.0235 Y19.2691
G01 X11.9416 Y19.3297
G01 X11.9351 Y19.3350
G01 X11.8597 Y19.4035
G01 X11.7885 Y19.4821
G01 X11.7253 Y19.5673
G01 X11.6708 Y19.6582
G01 X11.6255 Y19.7541
G01 X11.5897 Y19.8539
G01 X11.5640 Y19.9568
G01 X11.5489 Y20.0575
G01 X11.5481 Y20.0658
G01 X11.5432 Y20.1676
G01 X11.5481 Y20.2694
G01 X11.5489 Y20.2777
G01 X11.5632 Y20.3743
G01 X11.5649 Y20.3825
G01 X11.5897 Y20.4813
G01 X11.6255 Y20.5811
G01 X11.6708 Y20.6770
G01 X11.7253 Y20.7679
G01 X11.7885 Y20.8531
G01 X11.8597 Y20.9317
G01 X11.9383 Y21.0029
G01 X12.0200 Y21.0637
G01 X12.0270 Y21.0683
G01 X12.1108 Y21.1186
G01 X12.1181 Y21.1225
G01 X12.2103 Y21.1659
G01 X12.3062 Y21.2004
G01 X12.3141 Y21.2028
G01 X12.4130 Y21.2274
G01 X12.5179 Y21.2430
G01 X12.6238 Y21.2482
G01 X12.7256 Y21.2433
G01 X12.7339 Y21.2425
G01 X12.8305 Y21.2282
G01 X12.8387 Y21.2265
G01 X12.9375 Y21.2017
G01 X13.0334 Y21.1674
G01 X13.0411 Y21.1643
G01 X13.1332 Y21.1206
G01 X13.2241 Y21.0661
G01 X13.3093 Y21.0029
G01 X13.3879 Y20.9317
G01 X13.4591 Y20.8531
G01 X13.5223 Y20.7679
G01 X13.5768 Y20.6770
G01 X13.6205 Y20.5849
G01 X13.6236 Y20.5772
G01 X13.6566 Y20.4852
G01 X13.6590 Y20.4773
G01 X13.6836 Y20.3784
G01 X13.6992 Y20.2735
G01 X13.7044 Y20.1676
G01 X13.6995 Y20.0658
G01 X13.6987 Y20.0575
G01 X13.6844 Y19.9609
G01 X13.6827 Y19.9527
G01 X13.6579 Y19.8539
G01 X13.6221 Y19.7541
G01 X13.5768 Y19.6582
G01 X13.5245 Y19.5708
G01 X13.5199 Y19.5638
G01 X13.4617 Y19.4854
G01 X13.4564 Y19.4789
G01 X13.3879 Y19.4035
G01 X13.3093 Y19.3323
G01 X13.2241 Y19.2691
G01 X13.1368 Y19.2166
G01 X13.1295 Y19.2127
G01 X13.0411 Y19.1709
G01 X13.0353 Y19.1684
G01 X13.0202 Y19.1630
G01 X13.0266 Y18.0988
G01 X19.1625 Y18.0987
G01 X19.1701 Y18.1194
G01 X19.2146 Y18.2132
G01 X19.2691 Y18.3041
G01 X19.3323 Y18.3893
G01 X19.4035 Y18.4679
G01 X19.4821 Y18.5391
G01 X19.5673 Y18.6023
G01 X19.6582 Y18.6568
G01 X19.7503 Y18.7005
G01 X19.7580 Y18.7036
G01 X19.8539 Y18.7379
G01 X19.9527 Y18.7627
G01 X19.9609 Y18.7644
G01 X20.0575 Y18.7787
G01 X20.0658 Y18.7795
G01 X20.1676 Y18.7844
G01 X20.2694 Y18.7795
G01 X20.2777 Y18.7787
G01 X20.3784 Y18.7636
G01 X20.4813 Y18.7379
G01 X20.5811 Y18.7021
G01 X20.6750 Y18.6578
G01 X20.7644 Y18.6045
G01 X20.7714 Y18.5999
G01 X20.8531 Y18.5391
G01 X20.9317 Y18.4679
G01 X21.0002 Y18.3925
G01 X21.0055 Y18.3860
G01 X21.0661 Y18.3041
G01 X21.1186 Y18.2168
G01 X21.1225 Y18.2095
G01 X21.1659 Y18.1173
G01 X21.2004 Y18.0214
G01 X21.2028 Y18.0135
G01 X21.2274 Y17.9146
G01 X21.2425 Y17.8139
G01 X21.2433 Y17.8056
G01 X21.2481 Y17.7080
G01 X21.2481 Y17.6996
G01 X21.2430 Y17.5979
G01 X21.2282 Y17.4971
G01 X21.2265 Y17.4889
G01 X21.2017 Y17.3901
G01 X21.1674 Y17.2942
G01 X21.1643 Y17.2865
G01 X21.1206 Y17.1944
G01 X21.0661 Y17.1035
G01 X21.0029 Y17.0183
G01 X20.9346 Y16.9427
G01 X20.9287 Y16.9368
G01 X20.8531 Y16.8685
G01 X20.7679 Y16.8053
G01 X20.6806 Y16.7528
G01 X20.6733 Y16.7489
G01 X20.5811 Y16.7055
G01 X20.4813 Y16.6697
G01 X20.3784 Y16.6440
G01 X20.2735 Y16.6284
G01 X20.1676 Y16.6232
G01 X20.0617 Y16.6284
G01 X19.9568 Y16.6440
G01 X19.8539 Y16.6697
G01 X19.7541 Y16.7055
G01 X19.6582 Y16.7508
G01 X19.5673 Y16.8053
G01 X19.4821 Y16.8685
G01 X19.4035 Y16.9397
G01 X19.3323 Y17.0183
G01 X19.2691 Y17.1035
G01 X19.2146 Y17.1944
G01 X19.1701 Y17.2882
G01 X19.1625 Y17.3088
G01 X13.0442 Y17.3089
G01 X13.0442 Y15.5827
G01 X19.1628 Y15.5597
G01 X19.1684 Y15.5753
G01 X19.1709 Y15.5811
G01 X19.2127 Y15.6695
G01 X19.2166 Y15.6768
G01 X19.2691 Y15.7641
G01 X19.3323 Y15.8493
G01 X19.4035 Y15.9279
G01 X19.4789 Y15.9964
G01 X19.4854 Y16.0017
G01 X19.5638 Y16.0599
G01 X19.5708 Y16.0645
G01 X19.6582 Y16.1168
G01 X19.7541 Y16.1621
G01 X19.8539 Y16.1979
G01 X19.9527 Y16.2227
G01 X19.9609 Y16.2244
G01 X20.0575 Y16.2387
G01 X20.0658 Y16.2395
G01 X20.1676 Y16.2444
G01 X20.2757 Y16.2390
G01 X20.3743 Y16.2244
G01 X20.3825 Y16.2227
G01 X20.4813 Y16.1979
G01 X20.5772 Y16.1636
G01 X20.5849 Y16.1605
G01 X20.6770 Y16.1168
G01 X20.7679 Y16.0623
G01 X20.8498 Y16.0017
G01 X20.8563 Y15.9964
G01 X20.9317 Y15.9279
G01 X21.0002 Y15.8525
G01 X21.0055 Y15.8460
G01 X21.0661 Y15.7641
G01 X21.1206 Y15.6732
G01 X21.1643 Y15.5811
G01 X21.1674 Y15.5734
G01 X21.2017 Y15.4775
G01 X21.2265 Y15.3787
G01 X21.2282 Y15.3705
G01 X21.2430 Y15.2697
G01 X21.2482 Y15.1638
G01 X21.2430 Y15.0579
G01 X21.2282 Y14.9571
G01 X21.2265 Y14.9489
G01 X21.2017 Y14.8501
G01 X21.1674 Y14.7542
G01 X21.1643 Y14.7465
G01 X21.1216 Y14.6564
G01 X21.0683 Y14.5670
G01 X21.0637 Y14.5600
G01 X21.0029 Y14.4783
G01 X20.9317 Y14.3997
G01 X20.8563 Y14.3312
G01 X20.8498 Y14.3259
G01 X20.7679 Y14.2653
G01 X20.6806 Y14.2128
G01 X20.6733 Y14.2089
G01 X20.5811 Y14.1655
G01 X20.4852 Y14.1310
G01 X20.4773 Y14.1286
G01 X20.3784 Y14.1040
G01 X20.2777 Y14.0889
G01 X20.2694 Y14.0881
G01 X20.1654 Y14.0832
G01 X20.0617 Y14.0884
G01 X19.9609 Y14.1032
G01 X19.9527 Y14.1049
G01 X19.8539 Y14.1297
G01 X19.7541 Y14.1655
G01 X19.6619 Y14.2089
G01 X19.6546 Y14.2128
G01 X19.5673 Y14.2653
G01 X19.4854 Y14.3259
G01 X19.4789 Y14.3312
G01 X19.4035 Y14.3997
G01 X19.3323 Y14.4783
G01 X19.2691 Y14.5635
G01 X19.2166 Y14.6508
G01 X19.2127 Y14.6581
G01 X19.1701 Y14.7482
G01 X19.1622 Y14.7698
G01 X12.6475 Y14.7943
G01 X12.6090 Y14.7963
G01 X12.5767 Y14.8010
G01 X12.5666 Y14.8031
G01 X12.5346 Y14.8113
G01 X12.5042 Y14.8219
G01 X12.4947 Y14.8258
G01 X12.4671 Y14.8388
G01 X12.4581 Y14.8437
G01 X12.4285 Y14.8616
G01 X12.4022 Y14.8810
G01 X12.3943 Y14.8876
G01 X12.3699 Y14.9099
G01 X12.3468 Y14.9351
G01 X12.3404 Y14.9431
G01 X12.3208 Y14.9698
G01 X12.3031 Y14.9990
G01 X12.2983 Y15.0081
G01 X12.2843 Y15.0381
G01 X12.2726 Y15.0702
G01 X12.2697 Y15.0800
G01 X12.2615 Y15.1136
G01 X12.2566 Y15.1459
G01 X12.2557 Y15.1561
G01 X12.2543 Y15.1866
G01 X12.2303 Y19.1620
G00 Z1.0000
G00 X11.1397 Y38.0886
G01 F90.00
G01 Z-0.1000
G01 F150.00
G01 X16.6479 Y38.0885
G01 X16.6538 Y38.1051
G01 X16.6563 Y38.1109
G01 X16.6981 Y38.1993
G01 X16.7020 Y38.2066
G01 X16.7545 Y38.2939
G01 X16.8177 Y38.3791
G01 X16.8889 Y38.4577
G01 X16.9643 Y38.5262
G01 X16.9708 Y38.5315
G01 X17.0492 Y38.5897
G01 X17.0562 Y38.5943
G01 X17.1436 Y38.6466
G01 X17.2395 Y38.6919
G01 X17.3393 Y38.7277
G01 X17.4381 Y38.7525
G01 X17.4463 Y38.7542
G01 X17.5429 Y38.7685
G01 X17.5512 Y38.7693
G01 X17.6530 Y38.7742
G01 X17.7567 Y38.7692
G01 X17.8638 Y38.7534
G01 X17.9667 Y38.7277
G01 X18.0665 Y38.6919
G01 X18.1624 Y38.6466
G01 X18.2533 Y38.5921
G01 X18.3385 Y38.5289
G01 X18.4171 Y38.4577
G01 X18.4883 Y38.3791
G01 X18.5515 Y38.2939
G01 X18.6060 Y38.2030
G01 X18.6513 Y38.1071
G01 X18.6871 Y38.0073
G01 X18.7128 Y37.9044
G01 X18.7284 Y37.7995
G01 X18.7336 Y37.6936
G01 X18.7286 Y37.5899
G01 X18.7128 Y37.4828
G01 X18.6871 Y37.3799
G01 X18.6513 Y37.2801
G01 X18.6079 Y37.1879
G01 X18.6040 Y37.1806
G01 X18.5537 Y37.0968
G01 X18.5491 Y37.0898
G01 X18.4883 Y37.0081
G01 X18.4200 Y36.9325
G01 X18.4141 Y36.9266
G01 X18.3385 Y36.8583
G01 X18.2533 Y36.7951
G01 X18.1624 Y36.7406
G01 X18.0665 Y36.6953
G01 X17.9667 Y36.6595
G01 X17.8638 Y36.6338
G01 X17.7589 Y36.6182
G01 X17.6552 Y36.6130
G01 X17.5512 Y36.6179
G01 X17.5429 Y36.6187
G01 X17.4422 Y36.6338
G01 X17.3393 Y36.6595
G01 X17.2395 Y36.6953
G01 X17.1473 Y36.7387
G01 X17.1400 Y36.7426
G01 X17.0527 Y36.7951
G01 X16.9675 Y36.8583
G01 X16.8919 Y36.9266
G01 X16.8860 Y36.9325
G01 X16.8177 Y37.0081
G01 X16.7545 Y37.0933
G01 X16.7020 Y37.1806
G01 X16.6981 Y37.1879
G01 X16.6563 Y37.2763
G01 X16.6538 Y37.2821
G01 X16.6479 Y37.2986
G01 X11.1397 Y37.2987
G01 X11.1338 Y37.2821
G01 X11.1313 Y37.2763
G01 X11.0895 Y37.1879
G01 X11.0856 Y37.1806
G01 X11.0331 Y37.0933
G01 X10.9699 Y37.0081
G01 X10.8987 Y36.9295
G01 X10.8233 Y36.8610
G01 X10.8168 Y36.8557
G01 X10.7349 Y36.7951
G01 X10.6440 Y36.7406
G01 X10.5519 Y36.6969
G01 X10.5442 Y36.6938
G01 X10.4483 Y36.6595
G01 X10.3454 Y36.6338
G01 X10.2447 Y36.6187
G01 X10.2364 Y36.6179
G01 X10.1346 Y36.6130
G01 X10.0287 Y36.6182
G01 X9.9279 Y36.6330
G01 X9.9197 Y36.6347
G01 X9.8209 Y36.6595
G01 X9.7211 Y36.6953
G01 X9.6289 Y36.7387
G01 X9.6216 Y36.7426
G01 X9.5343 Y36.7951
G01 X9.4491 Y36.8583
G01 X9.3735 Y36.9266
G01 X9.3676 Y36.9325
G01 X9.2993 Y37.0081
G01 X9.2361 Y37.0933
G01 X9.1836 Y37.1806
G01 X9.1797 Y37.1879
G01 X9.1363 Y37.2801
G01 X9.1005 Y37.3799
G01 X9.0748 Y37.4828
G01 X9.0592 Y37.5877
G01 X9.0540 Y37.6936
G01 X9.0592 Y37.7995
G01 X9.0748 Y37.9044
G01 X9.1005 Y38.0073
G01 X9.1363 Y38.1071
G01 X9.1816 Y38.2030
G01 X9.2361 Y38.2939
G01 X9.2993 Y38.3791
G01 X9.3705 Y38.4577
G01 X9.4491 Y38.5289
G01 X9.5343 Y38.5921
G01 X9.6252 Y38.6466
G01 X9.7211 Y38.6919
G01 X9.8209 Y38.7277
G01 X9.9238 Y38.7534
G01 X10.0287 Y38.7690
G01 X10.1346 Y38.7742
G01 X10.2405 Y38.7690
G01 X10.3454 Y38.7534
G01 X10.4483 Y38.7277
G01 X10.5481 Y38.6919
G01 X10.6440 Y38.6466
G01 X10.7349 Y38.5921
G01 X10.8201 Y38.5289
G01 X10.8987 Y38.4577
G01 X10.9699 Y38.3791
G01 X11.0331 Y38.2939
G01 X11.0876 Y38.2030
G01 X11.1321 Y38.1092
G01 X11.1397 Y38.0886
G00 X11.1397 Y38.0886
G01 F90.00
G01 Z-0.2000
G01 F150.00
G01 X16.6479 Y38.0885
G01 X16.6538 Y38.1051
G01 X16.6563 Y38.1109
G01 X16.6981 Y38.1993
G01 X16.7020 Y38.2066
G01 X16.7545 Y38.2939
G01 X16.8177 Y38.3791
G01 X16.8889 Y38.4577
G01 X16.9643 Y38.5262
G01 X16.9708 Y38.5315
G01 X17.0492 Y38.5897
G01 X17.0562 Y38.5943
G01 X17.1436 Y38.6466
G01 X17.2395 Y38.6919
G01 X17.3393 Y38.7277
G01 X17.4381 Y38.7525
G01 X17.4463 Y38.7542
G01 X17.5429 Y38.7685
G01 X17.5512 Y38.7693
G01 X17.6530 Y38.7742
G01 X17.7567 Y38.7692
G01 X17.8638 Y38.7534
G01 X17.9667 Y38.7277
G01 X18.0665 Y38.6919
G01 X18.1624 Y38.6466
G01 X18.2533 Y38.5921
G01 X18.3385 Y38.5289
G01 X18.4171 Y38.4577
G01 X18.4883 Y38.3791
G01 X18.5515 Y38.2939
G01 X18.6060 Y38.2030
G01 X18.6513 Y38.1071
G01 X18.6871 Y38.0073
G01 X18.7128 Y37.9044
G01 X18.7284 Y37.7995
G01 X18.7336 Y37.6936
G01 X18.7286 Y37.5899
G01 X18.7128 Y37.4828
G01 X18.6871 Y37.3799
G01 X18.6513 Y37.2801
G01 X18.6079 Y37.1879
G01 X18.6040 Y37.1806
G01 X18.5537 Y37.0968
G01 X18.5491 Y37.0898
G01 X18.4883 Y37.0081
G01 X18.4200 Y36.9325
G01 X18.4141 Y36.9266
G01 X18.3385 Y36.8583
G01 X18.2533 Y36.7951
G01 X18.1624 Y36.7406
G01 X18.0665 Y36.6953
G01 X17.9667 Y36.6595
G01 X17.8638 Y36.6338
G01 X17.7589 Y36.6182
G01 X17.6552 Y36.6130
G01 X17.5512 Y36.6179
G01 X17.5429 Y36.6187
G01 X17.4422 Y36.6338
G01 X17.3393 Y36.6595
G01 X17.2395 Y36.6953
G01 X17.1473 Y36.7387
G01 X17.1400 Y36.7426
G01 X17.0527 Y36.7951
G01 X16.9675 Y36.8583
G01 X16.8919 Y36.9266
G01 X16.8860 Y36.9325
G01 X16.8177 Y37.0081
G01 X16.7545 Y37.0933
G01 X16.7020 Y37.1806
G01 X16.6981 Y37.1879
G01 X16.6563 Y37.2763
G01 X16.6538 Y37.2821
G01 X16.6479 Y37.2986
G01 X11.1397 Y37.2987
G01 X11.1338 Y37.2821
G01 X11.1313 Y37.2763
G01 X11.0895 Y37.1879
G01 X11.0856 Y37.1806
G01 X11.0331 Y37.0933
G01 X10.9699 Y37.0081
G01 X10.8987 Y36.9295
G01 X10.8233 Y36.8610
G01 X10.8168 Y36.8557
G01 X10.7349 Y36.7951
G01 X10.6440 Y36.7406
G01 X10.5519 Y36.6969
G01 X10.5442 Y36.6938
G01 X10.4483 Y36.6595
G01 X10.3454 Y36.6338
G01 X10.2447 Y36.6187
G01 X10.2364 Y36.6179
G01 X10.1346 Y36.6130
G01 X10.0287 Y36.6182
G01 X9.9279 Y36.6330
G01 X9.9197 Y36.6347
G01 X9.8209 Y36.6595
G01 X9.7211 Y36.6953
G01 X9.6289 Y36.7387
G01 X9.6216 Y36.7426
G01 X9.5343 Y36.7951
G01 X9.4491 Y36.8583
G01 X9.3735 Y36.9266
G01 X9.3676 Y36.9325
G01 X9.2993 Y37.0081
G01 X9.2361 Y37.0933
G01 X9.1836 Y37.1806
G01 X9.1797 Y37.1879
G01 X9.1363 Y37.2801
G01 X9.1005 Y37.3799
G01 X9.0748 Y37.4828
G01 X9.0592 Y37.5877
G01 X9.0540 Y37.6936
G01 X9.0592 Y37.7995
G01 X9.0748 Y37.9044
G01 X9.1005 Y38.0073
G01 X9.1363 Y38.1071
G01 X9.1816 Y38.2030
G01 X9.2361 Y38.2939
G01 X9.2993 Y38.3791
G01 X9.3705 Y38.4577
G01 X9.4491 Y38.5289
G01 X9.5343 Y38.5921
G01 X9.6252 Y38.6466
G01 X9.7211 Y38.6919
G01 X9.8209 Y38.7277
G01 X9.9238 Y38.7534
G01 X10.0287 Y38.7690
G01 X10.1346 Y38.7742
G01 X10.2405 Y38.7690
G01 X10.3454 Y38.7534
G01 X10.4483 Y38.7277
G01 X10.5481 Y38.6919
G01 X10.6440 Y38.6466
G01 X10.7349 Y38.5921
G01 X10.8201 Y38.5289
G01 X10.8987 Y38.4577
G01 X10.9699 Y38.3791
G01 X11.0331 Y38.2939
G01 X11.0876 Y38.2030
G01 X11.1321 Y38.1092
G01 X11.1397 Y38.0886
G00 Z1.0000
G00 X11.1397 Y40.6286
G01 F90.00
G01 Z-0.1000
G01 F150.00
G01 X16.6479 Y40.6285
G01 X16.6538 Y40.6451
G01 X16.6563 Y40.6509
G01 X16.6981 Y40.7393
G01 X16.7020 Y40.7466
G01 X16.7545 Y40.8339
G01 X16.8177 Y40.9191
G01 X16.8889 Y40.9977
G01 X16.9643 Y41.0662
G01 X16.9708 Y41.0715
G01 X17.0492 Y41.1297
G01 X17.0562 Y41.1343
G01 X17.1436 Y41.1866
G01 X17.2395 Y41.2319
G01 X17.3393 Y41.2677
G01 X17.4381 Y41.2925
G01 X17.4463 Y41.2942
G01 X17.5429 Y41.3085
G01 X17.5512 Y41.3093
G01 X17.6530 Y41.3142
G01 X17.7567 Y41.3092
G01 X17.8638 Y41.2934
G01 X17.9667 Y41.2677
G01 X18.0665 Y41.2319
G01 X18.1624 Y41.1866
G01 X18.2533 Y41.1321
G01 X18.3385 Y41.0689
G01 X18.4171 Y40.9977
G01 X18.4883 Y40.9191
G01 X18.5515 Y40.8339
G01 X18.6060 Y40.7430
G01 X18.6513 Y40.6471
G01 X18.6871 Y40.5473
G01 X18.7128 Y40.4444
G01 X18.7284 Y40.3395
G01 X18.7336 Y40.2336
G01 X18.7286 Y40.1299
G01 X18.7128 Y40.0228
G01 X18.6871 Y39.9199
G01 X18.6513 Y39.8201
G01 X18.6079 Y39.7279
G01 X18.6040 Y39.7206
G01 X18.5537 Y39.6368
G01 X18.5491 Y39.6298
G01 X18.4883 Y39.5481
G01 X18.4200 Y39.4725
G01 X18.4141 Y39.4666
G01 X18.3385 Y39.3983
G01 X18.2533 Y39.3351
G01 X18.1624 Y39.2806
G01 X18.0665 Y39.2353
G01 X17.9667 Y39.1995
G01 X17.8638 Y39.1738
G01 X17.7589 Y39.1582
G01 X17.6552 Y39.1530
G01 X17.5512 Y39.1579
G01 X17.5429 Y39.1587
G01 X17.4422 Y39.1738
G01 X17.3393 Y39.1995
G01 X17.2395 Y39.2353
G01 X17.1473 Y39.2787
G01 X17.1400 Y39.2826
G01 X17.0527 Y39.3351
G01 X16.9675 Y39.3983
G01 X16.8919 Y39.4666
G01 X16.8860 Y39.4725
G01 X16.8177 Y39.5481
G01 X16.7545 Y39.6333
G01 X16.7020 Y39.7206
G01 X16.6981 Y39.7279
G01 X16.6563 Y39.8163
G01 X16.6538 Y39.8221
G01 X16.6479 Y39.8386
G01 X11.1397 Y39.8387
G01 X11.1338 Y39.8221
G01 X11.1313 Y39.8163
G01 X11.0895 Y39.7279
G01 X11.0856 Y39.7206
G01 X11.0331 Y39.6333
G01 X10.9699 Y39.5481
G01 X10.8987 Y39.4695
G01 X10.8233 Y39.4010
G01 X10.8168 Y39.3957
G01 X10.7349 Y39.3351
G01 X10.6476 Y39.2826
G01 X10.6403 Y39.2787
G01 X10.5481 Y39.2353
G01 X10.4483 Y39.1995
G01 X10.3495 Y39.1747
G01 X10.3413 Y39.1730
G01 X10.2405 Y39.1582
G01 X10.1346 Y39.1530
G01 X10.0328 Y39.1579
G01 X10.0245 Y39.1587
G01 X9.9238 Y39.1738
G01 X9.8209 Y39.1995
G01 X9.7211 Y39.2353
G01 X9.6289 Y39.2787
G01 X9.6216 Y39.2826
G01 X9.5343 Y39.3351
G01 X9.4491 Y39.3983
G01 X9.3735 Y39.4666
G01 X9.3676 Y39.4725
G01 X9.2993 Y39.5481
G01 X9.2361 Y39.6333
G01 X9.1836 Y39.7206
G01 X9.1797 Y39.7279
G01 X9.1363 Y39.8201
G01 X9.1005 Y39.9199
G01 X9.0748 Y40.0228
G01 X9.0592 Y40.1277
G01 X9.0540 Y40.2336
G01 X9.0592 Y40.3395
G01 X9.0748 Y40.4444
G01 X9.1005 Y40.5473
G01 X9.1363 Y40.6471
G01 X9.1816 Y40.7430
G01 X9.2361 Y40.8339
G01 X9.2993 Y40.9191
G01 X9.3705 Y40.9977
G01 X9.4491 Y41.0689
G01 X9.5343 Y41.1321
G01 X9.6252 Y41.1866
G01 X9.7211 Y41.2319
G01 X9.8209 Y41.2677
G01 X9.9238 Y41.2934
G01 X10.0287 Y41.3090
G01 X10.1346 Y41.3142
G01 X10.2405 Y41.3090
G01 X10.3454 Y41.2934
G01 X10.4483 Y41.2677
G01 X10.5481 Y41.2319
G01 X10.6440 Y41.1866
G01 X10.7349 Y41.1321
G01 X10.8201 Y41.0689
G01 X10.8987 Y40.9977
G01 X10.9699 Y40.9191
G01 X11.0331 Y40.8339
G01 X11.0876 Y40.7430
G01 X11.1321 Y40.6492
G01 X11.1397 Y40.6286
G00 X11.1397 Y40.6286
G01 F90.00
G01 Z-0.2000
G01 F150.00
G01 X16.6479 Y40.6285
G01 X16.6538 Y40.6451
G01 X16.6563 Y40.6509
G01 X16.6981 Y40.7393
G01 X16.7020 Y40.7466
G01 X16.7545 Y40.8339
G01 X16.8177 Y40.9191
G01 X16.8889 Y40.9977
G01 X16.9643 Y41.0662
G01 X16.9708 Y41.0715
G01 X17.0492 Y41.1297
G01 X17.0562 Y41.1343
G01 X17.1436 Y41.1866
G01 X17.2395 Y41.2319
G01 X17.3393 Y41.2677
G01 X17.4381 Y41.2925
G01 X17.4463 Y41.2942
G01 X17.5429 Y41.3085
G01 X17.5512 Y41.3093
G01 X17.6530 Y41.3142
G01 X17.7567 Y41.3092
G01 X17.8638 Y41.2934
G01 X17.9667 Y41.2677
G01 X18.0665 Y41.2319
G01 X18.1624 Y41.1866
G01 X18.2533 Y41.1321
G01 X18.3385 Y41.0689
G01 X18.4171 Y40.9977
G01 X18.4883 Y40.9191
G01 X18.5515 Y40.8339
G01 X18.6060 Y40.7430
G01 X18.6513 Y40.6471
G01 X18.6871 Y40.5473
G01 X18.7128 Y40.4444
G01 X18.7284 Y40.3395
G01 X18.7336 Y40.2336
G01 X18.7286 Y40.1299
G01 X18.7128 Y40.0228
G01 X18.6871 Y39.9199
G01 X18.6513 Y39.8201
G01 X18.6079 Y39.7279
G01 X18.6040 Y39.7206
G01 X18.5537 Y39.6368
G01 X18.5491 Y39.6298
G01 X18.4883 Y39.5481
G01 X18.4200 Y39.4725
G01 X18.4141 Y39.4666
G01 X18.3385 Y39.3983
G01 X18.2533 Y39.3351
G01 X18.1624 Y39.2806
G01 X18.0665 Y39.2353
G01 X17.9667 Y39.1995
G01 X17.8638 Y39.1738
G01 X17.7589 Y39.1582
G01 X17.6552 Y39.1530
G01 X17.5512 Y39.1579
G01 X17.5429 Y39.1587
G01 X17.4422 Y39.1738
G01 X17.3393 Y39.1995
G01 X17.2395 Y39.2353
G01 X17.1473 Y39.2787
G01 X17.1400 Y39.2826
G01 X17.0527 Y39.3351
G01 X16.9675 Y39.3983
G01 X16.8919 Y39.4666
G01 X16.8860 Y39.4725
G01 X16.8177 Y39.5481
G01 X16.7545 Y39.6333
G01 X16.7020 Y39.7206
G01 X16.6981 Y39.7279
G01 X16.6563 Y39.8163
G01 X16.6538 Y39.8221
G01 X16.6479 Y39.8386
G01 X11.1397 Y39.8387
G01 X11.1338 Y39.8221
G01 X11.1313 Y39.8163
G01 X11.0895 Y39.7279
G01 X11.0856 Y39.7206
G01 X11.0331 Y39.6333
G01 X10.9699 Y39.5481
G01 X10.8987 Y39.4695
G01 X10.8233 Y39.4010
G01 X10.8168 Y39.3957
G01 X10.7349 Y39.3351
G01 X10.6476 Y39.2826
G01 X10.6403 Y39.2787
G01 X10.5481 Y39.2353
G01 X10.4483 Y39.1995
G01 X10.3495 Y39.1747
G01 X10.3413 Y39.1730
G01 X10.2405 Y39.1582
G01 X10.1346 Y39.1530
G01 X10.0328 Y39.1579
G01 X10.0245 Y39.1587
G01 X9.9238 Y39.1738
G01 X9.8209 Y39.1995
G01 X9.7211 Y39.2353
G01 X9.6289 Y39.2787
G01 X9.6216 Y39.2826
G01 X9.5343 Y39.3351
G01 X9.4491 Y39.3983
G01 X9.3735 Y39.4666
G01 X9.3676 Y39.4725
G01 X9.2993 Y39.5481
G01 X9.2361 Y39.6333
G01 X9.1836 Y39.7206
G01 X9.1797 Y39.7279
G01 X9.1363 Y39.8201
G01 X9.1005 Y39.9199
G01 X9.0748 Y40.0228
G01 X9.0592 Y40.1277
G01 X9.0540 Y40.2336
G01 X9.0592 Y40.3395
G01 X9.0748 Y40.4444
G01 X9.1005 Y40.5473
G01 X9.1363 Y40.6471
G01 X9.1816 Y40.7430
G01 X9.2361 Y40.8339
G01 X9.2993 Y40.9191
G01 X9.3705 Y40.9977
G01 X9.4491 Y41.0689
G01 X9.5343 Y41.1321
G01 X9.6252 Y41.1866
G01 X9.7211 Y41.2319
G01 X9.8209 Y41.2677
G01 X9.9238 Y41.2934
G01 X10.0287 Y41.3090
G01 X10.1346 Y41.3142
G01 X10.2405 Y41.3090
G01 X10.3454 Y41.2934
G01 X10.4483 Y41.2677
G01 X10.5481 Y41.2319
G01 X10.6440 Y41.1866
G01 X10.7349 Y41.1321
G01 X10.8201 Y41.0689
G01 X10.8987 Y40.9977
G01 X10.9699 Y40.9191
G01 X11.0331 Y40.8339
G01 X11.0876 Y40.7430
G01 X11.1321 Y40.6492
G01 X11.1397 Y40.6286
G00 Z1.0000
G00 X11.1397 Y43.1686
G01 F90.00
G01 Z-0.1000
G01 F150.00
G01 X16.6479 Y43.1685
G01 X16.6538 Y43.1851
G01 X16.6563 Y43.1909
G01 X16.6981 Y43.2793
G01 X16.7020 Y43.2866
G01 X16.7545 Y43.3739
G01 X16.8177 Y43.4591
G01 X16.8889 Y43.5377
G01 X16.9643 Y43.6062
G01 X16.9708 Y43.6115
G01 X17.0492 Y43.6697
G01 X17.0562 Y43.6743
G01 X17.1436 Y43.7266
G01 X17.2395 Y43.7719
G01 X17.3393 Y43.8077
G01 X17.4381 Y43.8325
G01 X17.4463 Y43.8342
G01 X17.5429 Y43.8485
G01 X17.5512 Y43.8493
G01 X17.6530 Y43.8542
G01 X17.7567 Y43.8492
G01 X17.8638 Y43.8334
G01 X17.9667 Y43.8077
G01 X18.0665 Y43.7719
G01 X18.1624 Y43.7266
G01 X18.2533 Y43.6721
G01 X18.3385 Y43.6089
G01 X18.4171 Y43.5377
G01 X18.4883 Y43.4591
G01 X18.5515 Y43.3739
G01 X18.6060 Y43.2830
G01 X18.6513 Y43.1871
G01 X18.6871 Y43.0873
G01 X18.7128 Y42.9844
G01 X18.7284 Y42.8795
G01 X18.7336 Y42.7736
G01 X18.7286 Y42.6699
G01 X18.7128 Y42.5628
G01 X18.6871 Y42.4599
G01 X18.6513 Y42.3601
G01 X18.6079 Y42.2679
G01 X18.6040 Y42.2606
G01 X18.5537 Y42.1768
G01 X18.5491 Y42.1698
G01 X18.4883 Y42.0881
G01 X18.4200 Y42.0125
G01 X18.4141 Y42.0066
G01 X18.3385 Y41.9383
G01 X18.2533 Y41.8751
G01 X18.1624 Y41.8206
G01 X18.0665 Y41.7753
G01 X17.9667 Y41.7395
G01 X17.8638 Y41.7138
G01 X17.7589 Y41.6982
G01 X17.6552 Y41.6930
G01 X17.5512 Y41.6979
G01 X17.5429 Y41.6987
G01 X17.4422 Y41.7138
G01 X17.3393 Y41.7395
G01 X17.2395 Y41.7753
G01 X17.1473 Y41.8187
G01 X17.1400 Y41.8226
G01 X17.0527 Y41.8751
G01 X16.9675 Y41.9383
G01 X16.8919 Y42.0066
G01 X16.8860 Y42.0125
G01 X16.8177 Y42.0881
G01 X16.7545 Y42.1733
G01 X16.7020 Y42.2606
G01 X16.6981 Y42.2679
G01 X16.6563 Y42.3563
G01 X16.6538 Y42.3621
G01 X16.6479 Y42.3786
G01 X11.1397 Y42.3787
G01 X11.1338 Y42.3621
G01 X11.1313 Y42.3563
G01 X11.0895 Y42.2679
G01 X11.0856 Y42.2606
G01 X11.0331 Y42.1733
G01 X10.9699 Y42.0881
G01 X10.9016 Y42.0125
G01 X10.8957 Y42.0066
G01 X10.8201 Y41.9383
G01 X10.7349 Y41.8751
G01 X10.6476 Y41.8226
G01 X10.6403 Y41.8187
G01 X10.5481 Y41.7753
G01 X10.4483 Y41.7395
G01 X10.3454 Y41.7138
G01 X10.2447 Y41.6987
G01 X10.2364 Y41.6979
G01 X10.1346 Y41.6930
G01 X10.0287 Y41.6982
G01 X9.9279 Y41.7130
G01 X9.9197 Y41.7147
G01 X9.8209 Y41.7395
G01 X9.7211 Y41.7753
G01 X9.6289 Y41.8187
G01 X9.6216 Y41.8226
G01 X9.5343 Y41.8751
G01 X9.4524 Y41.9357
G01 X9.4459 Y41.9410
G01 X9.3705 Y42.0095
G01 X9.2993 Y42.0881
G01 X9.2385 Y42.1698
G01 X9.2339 Y42.1768
G01 X9.1816 Y42.2642
G01 X9.1363 Y42.3601
G01 X9.1005 Y42.4599
G01 X9.0748 Y42.5628
G01 X9.0592 Y42.6677
G01 X9.0540 Y42.7736
G01 X9.0592 Y42.8795
G01 X9.0748 Y42.9844
G01 X9.1005 Y43.0873
G01 X9.1363 Y43.1871
G01 X9.1816 Y43.2830
G01 X9.2361 Y43.3739
G01 X9.2993 Y43.4591
G01 X9.3705 Y43.5377
G01 X9.4491 Y43.6089
G01 X9.5343 Y43.6721
G01 X9.6252 Y43.7266
G01 X9.7211 Y43.7719
G01 X9.8209 Y43.8077
G01 X9.9238 Y43.8334
G01 X10.0287 Y43.8490
G01 X10.1346 Y43.8542
G01 X10.2405 Y43.8490
G01 X10.3454 Y43.8334
G01 X10.4483 Y43.8077
G01 X10.5481 Y43.7719
G01 X10.6440 Y43.7266
G01 X10.7349 Y43.6721
G01 X10.8201 Y43.6089
G01 X10.8987 Y43.5377
G01 X10.9699 Y43.4591
G01 X11.0331 Y43.3739
G01 X11.0876 Y43.2830
G01 X11.1321 Y43.1892
G01 X11.1397 Y43.1686
G00 X11.1397 Y43.1686
G01 F90.00
G01 Z-0.2000
G01 F150.00
G01 X16.6479 Y43.1685
G01 X16.6538 Y43.1851
G01 X16.6563 Y43.1909
G01 X16.6981 Y43.2793
G01 X16.7020 Y43.2866
G01 X16.7545 Y43.3739
G01 X16.8177 Y43.4591
G01 X16.8889 Y43.5377
G01 X16.9643 Y43.6062
G01 X16.9708 Y43.6115
G01 X17.0492 Y43.6697
G01 X17.0562 Y43.6743
G01 X17.1436 Y43.7266
G01 X17.2395 Y43.7719
G01 X17.3393 Y43.8077
G01 X17.4381 Y43.8325
G01 X17.4463 Y43.8342
G01 X17.5429 Y43.8485
G01 X17.5512 Y43.8493
G01 X17.6530 Y43.8542
G01 X17.7567 Y43.8492
G01 X17.8638 Y43.8334
G01 X17.9667 Y43.8077
G01 X18.0665 Y43.7719
G01 X18.1624 Y43.7266
G01 X18.2533 Y43.6721
G01 X18.3385 Y43.6089
G01 X18.4171 Y43.5377
G01 X18.4883 Y43.4591
G01 X18.5515 Y43.3739
G01 X18.6060 Y43.2830
G01 X18.6513 Y43.1871
G01 X18.6871 Y43.0873
G01 X18.7128 Y42.9844
G01 X18.7284 Y42.8795
G01 X18.7336 Y42.7736
G01 X18.7286 Y42.6699
G01 X18.7128 Y42.5628
G01 X18.6871 Y42.4599
G01 X18.6513 Y42.3601
G01 X18.6079 Y42.2679
G01 X18.6040 Y42.2606
G01 X18.5537 Y42.1768
G01 X18.5491 Y42.1698
G01 X18.4883 Y42.0881
G01 X18.4200 Y42.0125
G01 X18.4141 Y42.0066
G01 X18.3385 Y41.9383
G01 X18.2533 Y41.8751
G01 X18.1624 Y41.8206
G01 X18.0665 Y41.7753
G01 X17.9667 Y41.7395
G01 X17.8638 Y41.7138
G01 X17.7589 Y41.6982
G01 X17.6552 Y41.6930
G01 X17.5512 Y41.6979
G01 X17.5429 Y41.6987
G01 X17.4422 Y41.7138
G01 X17.3393 Y41.7395
G01 X17.2395 Y41.7753
G01 X17.1473 Y41.8187
G01 X17.1400 Y41.8226
G01 X17.0527 Y41.8751
G01 X16.9675 Y41.9383
G01 X16.8919 Y42.0066
G01 X16.8860 Y42.0125
G01 X16.8177 Y42.0881
G01 X16.7545 Y42.1733
G01 X16.7020 Y42.2606
G01 X16.6981 Y42.2679
G01 X16.6563 Y42.3563
G01 X16.6538 Y42.3621
G01 X16.6479 Y42.3786
G01 X11.1397 Y42.3787
G01 X11.1338 Y42.3621
G01 X11.1313 Y42.3563
G01 X11.0895 Y42.2679
G01 X11.0856 Y42.2606
G01 X11.0331 Y42.1733
G01 X10.9699 Y42.0881
G01 X10.9016 Y42.0125
G01 X10.8957 Y42.0066
G01 X10.8201 Y41.9383
G01 X10.7349 Y41.8751
G01 X10.6476 Y41.8226
G01 X10.6403 Y41.8187
G01 X10.5481 Y41.7753
G01 X10.4483 Y41.7395
G01 X10.3454 Y41.7138
G01 X10.2447 Y41.6987
G01 X10.2364 Y41.6979
G01 X10.1346 Y41.6930
G01 X10.0287 Y41.6982
G01 X9.9279 Y41.7130
G01 X9.9197 Y41.7147
G01 X9.8209 Y41.7395
G01 X9.7211 Y41.7753
G01 X9.6289 Y41.8187
G01 X9.6216 Y41.8226
G01 X9.5343 Y41.8751
G01 X9.4524 Y41.9357
G01 X9.4459 Y41.9410
G01 X9.3705 Y42.0095
G01 X9.2993 Y42.0881
G01 X9.2385 Y42.1698
G01 X9.2339 Y42.1768
G01 X9.1816 Y42.2642
G01 X9.1363 Y42.3601
G01 X9.1005 Y42.4599
G01 X9.0748 Y42.5628
G01 X9.0592 Y42.6677
G01 X9.0540 Y42.7736
G01 X9.0592 Y42.8795
G01 X9.0748 Y42.9844
G01 X9.1005 Y43.0873
G01 X9.1363 Y43.1871
G01 X9.1816 Y43.2830
G01 X9.2361 Y43.3739
G01 X9.2993 Y43.4591
G01 X9.3705 Y43.5377
G01 X9.4491 Y43.6089
G01 X9.5343 Y43.6721
G01 X9.6252 Y43.7266
G01 X9.7211 Y43.7719
G01 X9.8209 Y43.8077
G01 X9.9238 Y43.8334
G01 X10.0287 Y43.8490
G01 X10.1346 Y43.8542
G01 X10.2405 Y43.8490
G01 X10.3454 Y43.8334
G01 X10.4483 Y43.8077
G01 X10.5481 Y43.7719
G01 X10.6440 Y43.7266
G01 X10.7349 Y43.6721
G01 X10.8201 Y43.6089
G01 X10.8987 Y43.5377
G01 X10.9699 Y43.4591
G01 X11.0331 Y43.3739
G01 X11.0876 Y43.2830
G01 X11.1321 Y43.1892
G01 X11.1397 Y43.1686
G00 Z1.0000
G00 X11.1397 Y45.7086
G01 F90.00
G01 Z-0.1000
G01 F150.00
G01 X16.6479 Y45.7085
G01 X16.6538 Y45.7251
G01 X16.6563 Y45.7309
G01 X16.6981 Y45.8193
G01 X16.7020 Y45.8266
G01 X16.7545 Y45.9139
G01 X16.8177 Y45.9991
G01 X16.8889 Y46.0777
G01 X16.9643 Y46.1462
G01 X16.9708 Y46.1515
G01 X17.0492 Y46.2097
G01 X17.0562 Y46.2143
G01 X17.1436 Y46.2666
G01 X17.2395 Y46.3119
G01 X17.3393 Y46.3477
G01 X17.4381 Y46.3725
G01 X17.4463 Y46.3742
G01 X17.5429 Y46.3885
G01 X17.5512 Y46.3893
G01 X17.6530 Y46.3942
G01 X17.7567 Y46.3892
G01 X17.8638 Y46.3734
G01 X17.9667 Y46.3477
G01 X18.0665 Y46.3119
G01 X18.1624 Y46.2666
G01 X18.2533 Y46.2121
G01 X18.3385 Y46.1489
G01 X18.4171 Y46.0777
G01 X18.4883 Y45.9991
G01 X18.5515 Y45.9139
G01 X18.6060 Y45.8230
G01 X18.6513 Y45.7271
G01 X18.6871 Y45.6273
G01 X18.7128 Y45.5244
G01 X18.7284 Y45.4195
G01 X18.7336 Y45.3136
G01 X18.7286 Y45.2099
G01 X18.7128 Y45.1028
G01 X18.6871 Y44.9999
G01 X18.6513 Y44.9001
G01 X18.6079 Y44.8079
G01 X18.6040 Y44.8006
G01 X18.5537 Y44.7168
G01 X18.5491 Y44.7098
G01 X18.4883 Y44.6281
G01 X18.4200 Y44.5525
G01 X18.4141 Y44.5466
G01 X18.3385 Y44.4783
G01 X18.2533 Y44.4151
G01 X18.1624 Y44.3606
G01 X18.0665 Y44.3153
G01 X17.9667 Y44.2795
G01 X17.8638 Y44.2538
G01 X17.7589 Y44.2382
G01 X17.6552 Y44.2330
G01 X17.5512 Y44.2379
G01 X17.5429 Y44.2387
G01 X17.4422 Y44.2538
G01 X17.3393 Y44.2795
G01 X17.2434 Y44.3138
G01 X17.2357 Y44.3169
G01 X17.1436 Y44.3606
G01 X17.0527 Y44.4151
G01 X16.9708 Y44.4757
G01 X16.9643 Y44.4810
G01 X16.8889 Y44.5495
G01 X16.8177 Y44.6281
G01 X16.7545 Y44.7133
G01 X16.7020 Y44.8006
G01 X16.6981 Y44.8079
G01 X16.6563 Y44.8963
G01 X16.6538 Y44.9021
G01 X16.6479 Y44.9186
G01 X11.1397 Y44.9187
G01 X11.1338 Y44.9021
G01 X11.1313 Y44.8963
G01 X11.0895 Y44.8079
G01 X11.0856 Y44.8006
G01 X11.0331 Y44.7133
G01 X10.9699 Y44.6281
G01 X10.8987 Y44.5495
G01 X10.8233 Y44.4810
G01 X10.8168 Y44.4757
G01 X10.7349 Y44.4151
G01 X10.6476 Y44.3626
G01 X10.6403 Y44.3587
G01 X10.5481 Y44.3153
G01 X10.4483 Y44.2795
G01 X10.3495 Y44.2547
G01 X10.3413 Y44.2530
G01 X10.2405 Y44.2382
G01 X10.1346 Y44.2330
G01 X10.0328 Y44.2379
G01 X10.0245 Y44.2387
G01 X9.9238 Y44.2538
G01 X9.8209 Y44.2795
G01 X9.7250 Y44.3138
G01 X9.7173 Y44.3169
G01 X9.6252 Y44.3606
G01 X9.5343 Y44.4151
G01 X9.4524 Y44.4757
G01 X9.4459 Y44.4810
G01 X9.3705 Y44.5495
G01 X9.2993 Y44.6281
G01 X9.2385 Y44.7098
G01 X9.2339 Y44.7168
G01 X9.1816 Y44.8042
G01 X9.1363 Y44.9001
G01 X9.1005 Y44.9999
G01 X9.0748 Y45.1028
G01 X9.0592 Y45.2077
G01 X9.0540 Y45.3136
G01 X9.0592 Y45.4195
G01 X9.0748 Y45.5244
G01 X9.1005 Y45.6273
G01 X9.1363 Y45.7271
G01 X9.1816 Y45.8230
G01 X9.2361 Y45.9139
G01 X9.2993 Y45.9991
G01 X9.3705 Y46.0777
G01 X9.4491 Y46.1489
G01 X9.5343 Y46.2121
G01 X9.6252 Y46.2666
G01 X9.7211 Y46.3119
G01 X9.8209 Y46.3477
G01 X9.9238 Y46.3734
G01 X10.0287 Y46.3890
G01 X10.1346 Y46.3942
G01 X10.2405 Y46.3890
G01 X10.3454 Y46.3734
G01 X10.4483 Y46.3477
G01 X10.5481 Y46.3119
G01 X10.6440 Y46.2666
G01 X10.7349 Y46.2121
G01 X10.8201 Y46.1489
G01 X10.8987 Y46.0777
G01 X10.9699 Y45.9991
G01 X11.0331 Y45.9139
G01 X11.0876 Y45.8230
G01 X11.1321 Y45.7292
G01 X11.1397 Y45.7086
G00 X11.1397 Y45.7086
G01 F90.00
G01 Z-0.2000
G01 F150.00
G01 X16.6479 Y45.7085
G01 X16.6538 Y45.7251
G01 X16.6563 Y45.7309
G01 X16.6981 Y45.8193
G01 X16.7020 Y45.8266
G01 X16.7545 Y45.9139
G01 X16.8177 Y45.9991
G01 X16.8889 Y46.0777
G01 X16.9643 Y46.1462
G01 X16.9708 Y46.1515
G01 X17.0492 Y46.2097
G01 X17.0562 Y46.2143
G01 X17.1436 Y46.2666
G01 X17.2395 Y46.3119
G01 X17.3393 Y46.3477
G01 X17.4381 Y46.3725
G01 X17.4463 Y46.3742
G01 X17.5429 Y46.3885
G01 X17.5512 Y46.3893
G01 X17.6530 Y46.3942
G01 X17.7567 Y46.3892
G01 X17.8638 Y46.3734
G01 X17.9667 Y46.3477
G01 X18.0665 Y46.3119
G01 X18.1624 Y46.2666
G01 X18.2533 Y46.2121
G01 X18.3385 Y46.1489
G01 X18.4171 Y46.0777
G01 X18.4883 Y45.9991
G01 X18.5515 Y45.9139
G01 X18.6060 Y45.8230
G01 X18.6513 Y45.7271
G01 X18.6871 Y45.6273
G01 X18.7128 Y45.5244
G01 X18.7284 Y45.4195
G01 X18.7336 Y45.3136
G01 X18.7286 Y45.2099
G01 X18.7128 Y45.1028
G01 X18.6871 Y44.9999
G01 X18.6513 Y44.9001
G01 X18.6079 Y44.8079
G01 X18.6040 Y44.8006
G01 X18.5537 Y44.7168
G01 X18.5491 Y44.7098
G01 X18.4883 Y44.6281
G01 X18.4200 Y44.5525
G01 X18.4141 Y44.5466
G01 X18.3385 Y44.4783
G01 X18.2533 Y44.4151
G01 X18.1624 Y44.3606
G01 X18.0665 Y44.3153
G01 X17.9667 Y44.2795
G01 X17.8638 Y44.2538
G01 X17.7589 Y44.2382
G01 X17.6552 Y44.2330
G01 X17.5512 Y44.2379
G01 X17.5429 Y44.2387
G01 X17.4422 Y44.2538
G01 X17.3393 Y44.2795
G01 X17.2434 Y44.3138
G01 X17.2357 Y44.3169
G01 X17.1436 Y44.3606
G01 X17.0527 Y44.4151
G01 X16.9708 Y44.4757
G01 X16.9643 Y44.4810
G01 X16.8889 Y44.5495
G01 X16.8177 Y44.6281
G01 X16.7545 Y44.7133
G01 X16.7020 Y44.8006
G01 X16.6981 Y44.8079
G01 X16.6563 Y44.8963
G01 X16.6538 Y44.9021
G01 X16.6479 Y44.9186
G01 X11.1397 Y44.9187
G01 X11.1338 Y44.9021
G01 X11.1313 Y44.8963
G01 X11.0895 Y44.8079
G01 X11.0856 Y44.8006
G01 X11.0331 Y44.7133
G01 X10.9699 Y44.6281
G01 X10.8987 Y44.5495
G01 X10.8233 Y44.4810
G01 X10.8168 Y44.4757
G01 X10.7349 Y44.4151
G01 X10.6476 Y44.3626
G01 X10.6403 Y44.3587
G01 X10.5481 Y44.3153
G01 X10.4483 Y44.2795
G01 X10.3495 Y44.2547
G01 X10.3413 Y44.2530
G01 X10.2405 Y44.2382
G01 X10.1346 Y44.2330
G01 X10.0328 Y44.2379
G01 X10.0245 Y44.2387
G01 X9.9238 Y44.2538
G01 X9.8209 Y44.2795
G01 X9.7250 Y44.3138
G01 X9.7173 Y44.3169
G01 X9.6252 Y44.3606
G01 X9.5343 Y44.4151
G01 X9.4524 Y44.4757
G01 X9.4459 Y44.4810
G01 X9.3705 Y44.5495
G01 X9.2993 Y44.6281
G01 X9.2385 Y44.7098
G01 X9.2339 Y44.7168
G01 X9.1816 Y44.8042
G01 X9.1363 Y44.9001
G01 X9.1005 Y44.9999
G01 X9.0748 Y45.1028
G01 X9.0592 Y45.2077
G01 X9.0540 Y45.3136
G01 X9.0592 Y45.4195
G01 X9.0748 Y45.5244
G01 X9.1005 Y45.6273
G01 X9.1363 Y45.7271
G01 X9.1816 Y45.8230
G01 X9.2361 Y45.9139
G01 X9.2993 Y45.9991
G01 X9.3705 Y46.0777
G01 X9.4491 Y46.1489
G01 X9.5343 Y46.2121
G01 X9.6252 Y46.2666
G01 X9.7211 Y46.3119
G01 X9.8209 Y46.3477
G01 X9.9238 Y46.3734
G01 X10.0287 Y46.3890
G01 X10.1346 Y46.3942
G01 X10.2405 Y46.3890
G01 X10.3454 Y46.3734
G01 X10.4483 Y46.3477
G01 X10.5481 Y46.3119
G01 X10.6440 Y46.2666
G01 X10.7349 Y46.2121
G01 X10.8201 Y46.1489
G01 X10.8987 Y46.0777
G01 X10.9699 Y45.9991
G01 X11.0331 Y45.9139
G01 X11.0876 Y45.8230
G01 X11.1321 Y45.7292
G01 X11.1397 Y45.7086
G00 Z1.0000
G00 X26.2019 Y45.7086
G01 F90.00
G01 Z-0.1000
G01 F150.00
G01 X31.7101 Y45.7085
G01 X31.7160 Y45.7251
G01 X31.7185 Y45.7309
G01 X31.7603 Y45.8193
G01 X31.7642 Y45.8266
