(G-CODE GENERATED BY FLATCAM v8.993 - www.flatcam.org - Version Date: 2020/06/05)

(Name: cnc_socketplateV1.1_drill.txt_cnc)
(Type: G-code from Excellon)
(Units: MM)

(Created on Sunday, 27 June 2021 at 12:00)

(This preprocessor is the default preprocessor used by FlatCAM.)
(It is made to work with MACH3 compatible motion controllers.)


(TOOLS DIAMETER: )
(Tool: 1 -> Dia: 4.1999916)
(Tool: 100 -> Dia: 0.9652)
(Tool: 101 -> Dia: 0.3999992)

(FEEDRATE Z: )
(Tool: 1 -> Feedrate: 300)
(Tool: 100 -> Feedrate: 100.0)
(Tool: 101 -> Feedrate: 100.0)

(FEEDRATE RAPIDS: )
(Tool: 1 -> Feedrate Rapids: 1500)
(Tool: 100 -> Feedrate Rapids: 1500)
(Tool: 101 -> Feedrate Rapids: 1500)

(Z_CUT: )
(Tool: 1 -> Z_Cut: -2.0)
(Tool: 100 -> Z_Cut: -2.0)
(Tool: 101 -> Z_Cut: -2.0)

(Tools Offset: )
(Tool: 101 -> Offset Z: -0.0)
(Tool: 100 -> Offset Z: -0.0)

(Z_MOVE: )
(Tool: 1 -> Z_Move: 2)
(Tool: 100 -> Z_Move: 2)
(Tool: 101 -> Z_Move: 2)

(Z Start: None mm)
(Z End: 2.0 mm)
(Steps per circle: 64)
(Preprocessor Excellon: default)

(X range:    2.1443 ...   67.4776  mm)
(Y range:    2.3958 ...   42.6288  mm)

(Spindle Speed: 1000.0 RPM)
G21
G90
G94



G00 Z2.0000

G01 F100.00
M03 S1000
G00 X56.9544 Y27.0866
G01 Z-2.0000
G01 Z0
G00 Z2.0000
G00 X51.9074 Y24.5618
G01 Z-2.0000
G01 Z0
G00 Z2.0000
G00 X36.8757 Y24.5618
G01 Z-2.0000
G01 Z0
G00 Z2.0000
G00 X31.8643 Y27.0662
G01 Z-2.0000
G01 Z0
G00 Z2.0000
G00 X6.7386 Y27.0662
G01 Z-2.0000
G01 Z0
G00 Z2.0000
G00 X36.8757 Y14.5390
G01 Z-2.0000
G01 Z0
G00 Z2.0000
G00 X51.9074 Y14.5390
G01 Z-2.0000
G01 Z0
G00 Z2.0000
G01 F100.00
M03 S1000
G00 X46.9138 Y39.6062
G01 Z-2.0000
G01 Z0
G00 Z2.0000
G00 X46.9138 Y42.1462
G01 Z-2.0000
G01 Z0
G00 Z2.0000
G00 X54.4449 Y42.1462
G01 Z-2.0000
G01 Z0
G00 Z2.0000
G00 X59.4639 Y39.6062
G01 Z-2.0000
G01 Z0
G00 Z2.0000
G00 X59.4639 Y37.0662
G01 Z-2.0000
G01 Z0
G00 Z2.0000
G00 X59.4639 Y34.5262
G01 Z-2.0000
G01 Z0
G00 Z2.0000
G00 X66.9950 Y34.5262
G01 Z-2.0000
G01 Z0
G00 Z2.0000
G00 X66.9950 Y37.0662
G01 Z-2.0000
G01 Z0
G00 Z2.0000
G00 X66.9950 Y39.6062
G01 Z-2.0000
G01 Z0
G00 Z2.0000
G00 X66.9950 Y42.1462
G01 Z-2.0000
G01 Z0
G00 Z2.0000
G00 X59.4639 Y42.1462
G01 Z-2.0000
G01 Z0
G00 Z2.0000
G00 X54.4449 Y39.6062
G01 Z-2.0000
G01 Z0
G00 Z2.0000
G00 X54.4449 Y37.0662
G01 Z-2.0000
G01 Z0
G00 Z2.0000
G00 X54.4449 Y34.5262
G01 Z-2.0000
G01 Z0
G00 Z2.0000
G00 X46.9138 Y34.5262
G01 Z-2.0000
G01 Z0
G00 Z2.0000
G00 X44.3738 Y27.1170
G01 Z-2.0000
G01 Z0
G00 Z2.0000
G00 X46.9138 Y27.1170
G01 Z-2.0000
G01 Z0
G00 Z2.0000
G00 X46.9138 Y24.5770
G01 Z-2.0000
G01 Z0
G00 Z2.0000
G00 X44.3738 Y24.5770
G01 Z-2.0000
G01 Z0
G00 Z2.0000
G00 X44.3738 Y22.0370
G01 Z-2.0000
G01 Z0
G00 Z2.0000
G00 X46.9138 Y22.0370
G01 Z-2.0000
G01 Z0
G00 Z2.0000
G00 X46.9138 Y17.0764
G01 Z-2.0000
G01 Z0
G00 Z2.0000
G00 X46.9138 Y14.5364
G01 Z-2.0000
G01 Z0
G00 Z2.0000
G00 X46.9138 Y11.9964
G01 Z-2.0000
G01 Z0
G00 Z2.0000
G00 X44.3738 Y11.9964
G01 Z-2.0000
G01 Z0
G00 Z2.0000
G00 X44.3738 Y14.5364
G01 Z-2.0000
G01 Z0
G00 Z2.0000
G00 X44.3738 Y17.0764
G01 Z-2.0000
G01 Z0
G00 Z2.0000
G00 X31.8541 Y19.5275
G01 Z-2.0000
G01 Z0
G00 Z2.0000
G00 X31.8541 Y22.0675
G01 Z-2.0000
G01 Z0
G00 Z2.0000
G00 X24.3230 Y24.6964
G01 Z-2.0000
G01 Z0
G00 Z2.0000
G00 X24.3230 Y22.1564
G01 Z-2.0000
G01 Z0
G00 Z2.0000
G00 X24.3230 Y19.6164
G01 Z-2.0000
G01 Z0
G00 Z2.0000
G00 X24.3230 Y17.0764
G01 Z-2.0000
G01 Z0
G00 Z2.0000
G00 X24.3230 Y14.5364
G01 Z-2.0000
G01 Z0
G00 Z2.0000
G00 X24.3230 Y11.9964
G01 Z-2.0000
G01 Z0
G00 Z2.0000
G00 X19.3192 Y12.0371
G01 Z-2.0000
G01 Z0
G00 Z2.0000
G00 X19.3192 Y14.5771
G01 Z-2.0000
G01 Z0
G00 Z2.0000
G00 X19.3192 Y17.1171
G01 Z-2.0000
G01 Z0
G00 Z2.0000
G00 X19.3192 Y19.6571
G01 Z-2.0000
G01 Z0
G00 Z2.0000
G00 X19.3192 Y22.1971
G01 Z-2.0000
G01 Z0
G00 Z2.0000
G00 X19.3192 Y24.7371
G01 Z-2.0000
G01 Z0
G00 Z2.0000
G00 X11.7754 Y19.5580
G01 Z-2.0000
G01 Z0
G00 Z2.0000
G00 X11.7754 Y17.0180
G01 Z-2.0000
G01 Z0
G00 Z2.0000
G00 X11.7754 Y14.4780
G01 Z-2.0000
G01 Z0
G00 Z2.0000
G00 X11.7754 Y11.9380
G01 Z-2.0000
G01 Z0
G00 Z2.0000
G00 X6.7539 Y11.9075
G01 Z-2.0000
G01 Z0
G00 Z2.0000
G00 X6.7539 Y14.4475
G01 Z-2.0000
G01 Z0
G00 Z2.0000
G00 X6.7539 Y16.9875
G01 Z-2.0000
G01 Z0
G00 Z2.0000
G00 X6.7539 Y19.5275
G01 Z-2.0000
G01 Z0
G00 Z2.0000
G00 X6.7539 Y22.0675
G01 Z-2.0000
G01 Z0
G00 Z2.0000
G00 X9.2634 Y34.5262
G01 Z-2.0000
G01 Z0
G00 Z2.0000
G00 X9.2634 Y37.0662
G01 Z-2.0000
G01 Z0
G00 Z2.0000
G00 X9.2634 Y39.6062
G01 Z-2.0000
G01 Z0
G00 Z2.0000
G00 X9.2634 Y42.1462
G01 Z-2.0000
G01 Z0
G00 Z2.0000
G00 X16.7945 Y42.1462
G01 Z-2.0000
G01 Z0
G00 Z2.0000
G00 X16.7945 Y39.6062
G01 Z-2.0000
G01 Z0
G00 Z2.0000
G00 X16.7945 Y37.0662
G01 Z-2.0000
G01 Z0
G00 Z2.0000
G00 X16.7945 Y34.5262
G01 Z-2.0000
G01 Z0
G00 Z2.0000
G00 X21.8135 Y34.5262
G01 Z-2.0000
G01 Z0
G00 Z2.0000
G00 X21.8135 Y37.0662
G01 Z-2.0000
G01 Z0
G00 Z2.0000
G00 X21.8135 Y39.6062
G01 Z-2.0000
G01 Z0
G00 Z2.0000
G00 X21.8135 Y42.1462
G01 Z-2.0000
G01 Z0
G00 Z2.0000
G00 X29.3446 Y42.1462
G01 Z-2.0000
G01 Z0
G00 Z2.0000
G00 X29.3446 Y39.6062
G01 Z-2.0000
G01 Z0
G00 Z2.0000
G00 X29.3446 Y37.0662
G01 Z-2.0000
G01 Z0
G00 Z2.0000
G00 X29.3446 Y34.5262
G01 Z-2.0000
G01 Z0
G00 Z2.0000
G00 X34.3637 Y34.5262
G01 Z-2.0000
G01 Z0
G00 Z2.0000
G00 X34.3637 Y37.0662
G01 Z-2.0000
G01 Z0
G00 Z2.0000
G00 X34.3637 Y39.6062
G01 Z-2.0000
G01 Z0
G00 Z2.0000
G00 X34.3637 Y42.1462
G01 Z-2.0000
G01 Z0
G00 Z2.0000
G00 X41.8948 Y42.1462
G01 Z-2.0000
G01 Z0
G00 Z2.0000
G00 X41.8948 Y39.6062
G01 Z-2.0000
G01 Z0
G00 Z2.0000
G00 X41.8948 Y37.0662
G01 Z-2.0000
G01 Z0
G00 Z2.0000
G00 X41.8948 Y34.5262
G01 Z-2.0000
G01 Z0
G00 Z2.0000
G00 X46.9138 Y37.0662
G01 Z-2.0000
G01 Z0
G00 Z2.0000
M05
G00 Z2.00

