(G-CODE GENERATED BY FLATCAM v8.993 - www.flatcam.org - Version Date: 2020/06/05)

(Name: cnc_socketplateV1.1_maskTop.gts_mt_paint_cnc)
(Type: G-code from Geometry)
(Units: MM)

(Created on Sunday, 04 July 2021 at 19:38)

(This preprocessor is the default preprocessor used by FlatCAM.)
(It is made to work with MACH3 compatible motion controllers.)

(TOOL DIAMETER: 2.1 mm)
(Feedrate_XY: 120.0 mm/min)
(Feedrate_Z: 60.0 mm/min)
(Feedrate rapids 1500.0 mm/min)

(Z_Cut: -0.05 mm)
(Z_Move: 2.0 mm)
(Z Start: None mm)
(Z End: 15.0 mm)
(Steps per circle: 64)
(Preprocessor Geometry: default)

(X range:    1.1502 ...   68.9030  mm)
(Y range:    1.4042 ...   43.7570  mm)

(Spindle Speed: 1000 RPM)
G21
G90
G94



G01 F120.00
G00 Z2.0000

M03 S1000
G00 X3.1807 Y3.9928
G01 F60.00
G01 Z-0.0500
G01 F120.00
G01 X5.3029 Y3.9928
G01 X5.4175 Y4.4958
G01 X5.4119 Y4.3806
G01 X5.3949 Y4.2664
G01 X5.3669 Y4.1545
G01 X5.3280 Y4.0459
G01 X5.2787 Y3.9416
G01 X5.2194 Y3.8426
G01 X5.1506 Y3.7499
G01 X5.0732 Y3.6644
G01 X4.9877 Y3.5870
G01 X4.8950 Y3.5182
G01 X4.7960 Y3.4589
G01 X4.6917 Y3.4096
G01 X4.5831 Y3.3707
G01 X4.4712 Y3.3427
G01 X4.3570 Y3.3257
G01 X4.2418 Y3.3201
G01 X4.1266 Y3.3257
G01 X4.0124 Y3.3427
G01 X3.9005 Y3.3707
G01 X3.7919 Y3.4096
G01 X3.6876 Y3.4589
G01 X3.5886 Y3.5182
G01 X3.4959 Y3.5870
G01 X3.4104 Y3.6644
G01 X3.3330 Y3.7499
G01 X3.2642 Y3.8426
G01 X3.2049 Y3.9416
G01 X3.1556 Y4.0459
G01 X3.1167 Y4.1545
G01 X3.0887 Y4.2664
G01 X3.0717 Y4.3806
G01 X3.0661 Y4.4958
G01 X3.0717 Y4.6110
G01 X3.0887 Y4.7252
G01 X3.1167 Y4.8371
G01 X3.1556 Y4.9457
G01 X3.2049 Y5.0500
G01 X3.2642 Y5.1490
G01 X3.3330 Y5.2417
G01 X3.4104 Y5.3272
G01 X3.4959 Y5.4046
G01 X3.5886 Y5.4734
G01 X3.6876 Y5.5327
G01 X3.7919 Y5.5820
G01 X3.9005 Y5.6209
G01 X4.0124 Y5.6489
G01 X4.1266 Y5.6659
G01 X4.2418 Y5.6715
G01 X4.3570 Y5.6659
G01 X4.4712 Y5.6489
G01 X4.5831 Y5.6209
G01 X4.6917 Y5.5820
G01 X4.7960 Y5.5327
G01 X4.8950 Y5.4734
G01 X4.9877 Y5.4046
G01 X5.0732 Y5.3272
G01 X5.1506 Y5.2417
G01 X5.2194 Y5.1490
G01 X5.2787 Y5.0500
G01 X5.3280 Y4.9457
G01 X5.3669 Y4.8371
G01 X5.3949 Y4.7252
G01 X5.4119 Y4.6110
G01 X5.4175 Y4.4958
G00 Z2.0000
G00 X6.8227 Y11.9126
G01 F60.00
G01 Z-0.0500
G01 F120.00
G01 X6.8224 Y11.9061
G01 X6.8215 Y11.8997
G01 X6.8199 Y11.8933
G01 X6.8177 Y11.8872
G01 X6.8149 Y11.8813
G01 X6.8116 Y11.8757
G01 X6.8077 Y11.8705
G01 X6.8033 Y11.8657
G01 X6.7985 Y11.8613
G01 X6.7933 Y11.8574
G01 X6.7877 Y11.8541
G01 X6.7818 Y11.8513
G01 X6.7757 Y11.8491
G01 X6.7693 Y11.8475
G01 X6.7629 Y11.8466
G01 X6.7564 Y11.8463
G01 X6.7499 Y11.8466
G01 X6.7435 Y11.8475
G01 X6.7371 Y11.8491
G01 X6.7310 Y11.8513
G01 X6.7251 Y11.8541
G01 X6.7195 Y11.8574
G01 X6.7143 Y11.8613
G01 X6.7095 Y11.8657
G01 X6.7051 Y11.8705
G01 X6.7012 Y11.8757
G01 X6.6979 Y11.8813
G01 X6.6951 Y11.8872
G01 X6.6929 Y11.8933
G01 X6.6913 Y11.8997
G01 X6.6904 Y11.9061
G01 X6.6901 Y11.9126
G01 X6.6904 Y11.9191
G01 X6.6913 Y11.9255
G01 X6.6929 Y11.9319
G01 X6.6951 Y11.9380
G01 X6.6979 Y11.9439
G01 X6.7012 Y11.9495
G01 X6.7051 Y11.9547
G01 X6.7095 Y11.9595
G01 X6.7143 Y11.9639
G01 X6.7195 Y11.9678
G01 X6.7251 Y11.9711
G01 X6.7310 Y11.9739
G01 X6.7371 Y11.9761
G01 X6.7435 Y11.9777
G01 X6.7499 Y11.9786
G01 X6.7564 Y11.9789
G01 X6.7629 Y11.9786
G01 X6.7693 Y11.9777
G01 X6.7757 Y11.9761
G01 X6.7818 Y11.9739
G01 X6.7877 Y11.9711
G01 X6.7933 Y11.9678
G01 X6.7985 Y11.9639
G01 X6.8033 Y11.9595
G01 X6.8077 Y11.9547
G01 X6.8116 Y11.9495
G01 X6.8149 Y11.9439
G01 X6.8177 Y11.9380
G01 X6.8199 Y11.9319
G01 X6.8215 Y11.9255
G01 X6.8224 Y11.9191
G01 X6.8227 Y11.9126
G00 Z2.0000
G00 X6.8227 Y14.4526
G01 F60.00
G01 Z-0.0500
G01 F120.00
G01 X6.8224 Y14.4461
G01 X6.8215 Y14.4397
G01 X6.8199 Y14.4333
G01 X6.8177 Y14.4272
G01 X6.8149 Y14.4213
G01 X6.8116 Y14.4157
G01 X6.8077 Y14.4105
G01 X6.8033 Y14.4057
G01 X6.7985 Y14.4013
G01 X6.7933 Y14.3974
G01 X6.7877 Y14.3941
G01 X6.7818 Y14.3913
G01 X6.7757 Y14.3891
G01 X6.7693 Y14.3875
G01 X6.7629 Y14.3866
G01 X6.7564 Y14.3863
G01 X6.7499 Y14.3866
G01 X6.7435 Y14.3875
G01 X6.7371 Y14.3891
G01 X6.7310 Y14.3913
G01 X6.7251 Y14.3941
G01 X6.7195 Y14.3974
G01 X6.7143 Y14.4013
G01 X6.7095 Y14.4057
G01 X6.7051 Y14.4105
G01 X6.7012 Y14.4157
G01 X6.6979 Y14.4213
G01 X6.6951 Y14.4272
G01 X6.6929 Y14.4333
G01 X6.6913 Y14.4397
G01 X6.6904 Y14.4461
G01 X6.6901 Y14.4526
G01 X6.6904 Y14.4591
G01 X6.6913 Y14.4655
G01 X6.6929 Y14.4719
G01 X6.6951 Y14.4780
G01 X6.6979 Y14.4839
G01 X6.7012 Y14.4895
G01 X6.7051 Y14.4947
G01 X6.7095 Y14.4995
G01 X6.7143 Y14.5039
G01 X6.7195 Y14.5078
G01 X6.7251 Y14.5111
G01 X6.7310 Y14.5139
G01 X6.7371 Y14.5161
G01 X6.7435 Y14.5177
G01 X6.7499 Y14.5186
G01 X6.7564 Y14.5189
G01 X6.7629 Y14.5186
G01 X6.7693 Y14.5177
G01 X6.7757 Y14.5161
G01 X6.7818 Y14.5139
G01 X6.7877 Y14.5111
G01 X6.7933 Y14.5078
G01 X6.7985 Y14.5039
G01 X6.8033 Y14.4995
G01 X6.8077 Y14.4947
G01 X6.8116 Y14.4895
G01 X6.8149 Y14.4839
G01 X6.8177 Y14.4780
G01 X6.8199 Y14.4719
G01 X6.8215 Y14.4655
G01 X6.8224 Y14.4591
G01 X6.8227 Y14.4526
G00 Z2.0000
G00 X6.8227 Y16.9926
G01 F60.00
G01 Z-0.0500
G01 F120.00
G01 X6.8224 Y16.9861
G01 X6.8215 Y16.9797
G01 X6.8199 Y16.9733
G01 X6.8177 Y16.9672
G01 X6.8149 Y16.9613
G01 X6.8116 Y16.9557
G01 X6.8077 Y16.9505
G01 X6.8033 Y16.9457
G01 X6.7985 Y16.9413
G01 X6.7933 Y16.9374
G01 X6.7877 Y16.9341
G01 X6.7818 Y16.9313
G01 X6.7757 Y16.9291
G01 X6.7693 Y16.9275
G01 X6.7629 Y16.9266
G01 X6.7564 Y16.9263
G01 X6.7499 Y16.9266
G01 X6.7435 Y16.9275
G01 X6.7371 Y16.9291
G01 X6.7310 Y16.9313
G01 X6.7251 Y16.9341
G01 X6.7195 Y16.9374
G01 X6.7143 Y16.9413
G01 X6.7095 Y16.9457
G01 X6.7051 Y16.9505
G01 X6.7012 Y16.9557
G01 X6.6979 Y16.9613
G01 X6.6951 Y16.9672
G01 X6.6929 Y16.9733
G01 X6.6913 Y16.9797
G01 X6.6904 Y16.9861
G01 X6.6901 Y16.9926
G01 X6.6904 Y16.9991
G01 X6.6913 Y17.0055
G01 X6.6929 Y17.0119
G01 X6.6951 Y17.0180
G01 X6.6979 Y17.0239
G01 X6.7012 Y17.0295
G01 X6.7051 Y17.0347
G01 X6.7095 Y17.0395
G01 X6.7143 Y17.0439
G01 X6.7195 Y17.0478
G01 X6.7251 Y17.0511
G01 X6.7310 Y17.0539
G01 X6.7371 Y17.0561
G01 X6.7435 Y17.0577
G01 X6.7499 Y17.0586
G01 X6.7564 Y17.0589
G01 X6.7629 Y17.0586
G01 X6.7693 Y17.0577
G01 X6.7757 Y17.0561
G01 X6.7818 Y17.0539
G01 X6.7877 Y17.0511
G01 X6.7933 Y17.0478
G01 X6.7985 Y17.0439
G01 X6.8033 Y17.0395
G01 X6.8077 Y17.0347
G01 X6.8116 Y17.0295
G01 X6.8149 Y17.0239
G01 X6.8177 Y17.0180
G01 X6.8199 Y17.0119
G01 X6.8215 Y17.0055
G01 X6.8224 Y16.9991
G01 X6.8227 Y16.9926
G00 Z2.0000
G00 X6.8227 Y19.5326
G01 F60.00
G01 Z-0.0500
G01 F120.00
G01 X6.8224 Y19.5261
G01 X6.8215 Y19.5197
G01 X6.8199 Y19.5133
G01 X6.8177 Y19.5072
G01 X6.8149 Y19.5013
G01 X6.8116 Y19.4957
G01 X6.8077 Y19.4905
G01 X6.8033 Y19.4857
G01 X6.7985 Y19.4813
G01 X6.7933 Y19.4774
G01 X6.7877 Y19.4741
G01 X6.7818 Y19.4713
G01 X6.7757 Y19.4691
G01 X6.7693 Y19.4675
G01 X6.7629 Y19.4666
G01 X6.7564 Y19.4663
G01 X6.7499 Y19.4666
G01 X6.7435 Y19.4675
G01 X6.7371 Y19.4691
G01 X6.7310 Y19.4713
G01 X6.7251 Y19.4741
G01 X6.7195 Y19.4774
G01 X6.7143 Y19.4813
G01 X6.7095 Y19.4857
G01 X6.7051 Y19.4905
G01 X6.7012 Y19.4957
G01 X6.6979 Y19.5013
G01 X6.6951 Y19.5072
G01 X6.6929 Y19.5133
G01 X6.6913 Y19.5197
G01 X6.6904 Y19.5261
G01 X6.6901 Y19.5326
G01 X6.6904 Y19.5391
G01 X6.6913 Y19.5455
G01 X6.6929 Y19.5519
G01 X6.6951 Y19.5580
G01 X6.6979 Y19.5639
G01 X6.7012 Y19.5695
G01 X6.7051 Y19.5747
G01 X6.7095 Y19.5795
G01 X6.7143 Y19.5839
G01 X6.7195 Y19.5878
G01 X6.7251 Y19.5911
G01 X6.7310 Y19.5939
G01 X6.7371 Y19.5961
G01 X6.7435 Y19.5977
G01 X6.7499 Y19.5986
G01 X6.7564 Y19.5989
G01 X6.7629 Y19.5986
G01 X6.7693 Y19.5977
G01 X6.7757 Y19.5961
G01 X6.7818 Y19.5939
G01 X6.7877 Y19.5911
G01 X6.7933 Y19.5878
G01 X6.7985 Y19.5839
G01 X6.8033 Y19.5795
G01 X6.8077 Y19.5747
G01 X6.8116 Y19.5695
G01 X6.8149 Y19.5639
G01 X6.8177 Y19.5580
G01 X6.8199 Y19.5519
G01 X6.8215 Y19.5455
G01 X6.8224 Y19.5391
G01 X6.8227 Y19.5326
G00 Z2.0000
G00 X6.8227 Y22.0726
G01 F60.00
G01 Z-0.0500
G01 F120.00
G01 X6.8224 Y22.0661
G01 X6.8215 Y22.0597
G01 X6.8199 Y22.0533
G01 X6.8177 Y22.0472
G01 X6.8149 Y22.0413
G01 X6.8116 Y22.0357
G01 X6.8077 Y22.0305
G01 X6.8033 Y22.0257
G01 X6.7985 Y22.0213
G01 X6.7933 Y22.0174
G01 X6.7877 Y22.0141
G01 X6.7818 Y22.0113
G01 X6.7757 Y22.0091
G01 X6.7693 Y22.0075
G01 X6.7629 Y22.0066
G01 X6.7564 Y22.0063
G01 X6.7499 Y22.0066
G01 X6.7435 Y22.0075
G01 X6.7371 Y22.0091
G01 X6.7310 Y22.0113
G01 X6.7251 Y22.0141
G01 X6.7195 Y22.0174
G01 X6.7143 Y22.0213
G01 X6.7095 Y22.0257
G01 X6.7051 Y22.0305
G01 X6.7012 Y22.0357
G01 X6.6979 Y22.0413
G01 X6.6951 Y22.0472
G01 X6.6929 Y22.0533
G01 X6.6913 Y22.0597
G01 X6.6904 Y22.0661
G01 X6.6901 Y22.0726
G01 X6.6904 Y22.0791
G01 X6.6913 Y22.0855
G01 X6.6929 Y22.0919
G01 X6.6951 Y22.0980
G01 X6.6979 Y22.1039
G01 X6.7012 Y22.1095
G01 X6.7051 Y22.1147
G01 X6.7095 Y22.1195
G01 X6.7143 Y22.1239
G01 X6.7195 Y22.1278
G01 X6.7251 Y22.1311
G01 X6.7310 Y22.1339
G01 X6.7371 Y22.1361
G01 X6.7435 Y22.1377
G01 X6.7499 Y22.1386
G01 X6.7564 Y22.1389
G01 X6.7629 Y22.1386
G01 X6.7693 Y22.1377
G01 X6.7757 Y22.1361
G01 X6.7818 Y22.1339
G01 X6.7877 Y22.1311
G01 X6.7933 Y22.1278
G01 X6.7985 Y22.1239
G01 X6.8033 Y22.1195
G01 X6.8077 Y22.1147
G01 X6.8116 Y22.1095
G01 X6.8149 Y22.1039
G01 X6.8177 Y22.0980
G01 X6.8199 Y22.0919
G01 X6.8215 Y22.0855
G01 X6.8224 Y22.0791
G01 X6.8227 Y22.0726
G00 Z2.0000
G00 X6.1794 Y26.4994
G01 F60.00
G01 Z-0.0500
G01 F120.00
G01 X6.1794 Y27.6534
G01 X7.3334 Y27.6534
G01 X7.3334 Y26.4994
G01 X6.1794 Y26.4994
G00 Z2.0000
G00 X9.3373 Y34.5186
G01 F60.00
G01 Z-0.0500
G01 F120.00
G01 X9.3370 Y34.5121
G01 X9.3361 Y34.5057
G01 X9.3345 Y34.4993
G01 X9.3323 Y34.4932
G01 X9.3295 Y34.4873
G01 X9.3262 Y34.4817
G01 X9.3223 Y34.4765
G01 X9.3179 Y34.4717
G01 X9.3131 Y34.4673
G01 X9.3079 Y34.4634
G01 X9.3023 Y34.4601
G01 X9.2964 Y34.4573
G01 X9.2903 Y34.4551
G01 X9.2839 Y34.4535
G01 X9.2775 Y34.4526
G01 X9.2710 Y34.4523
G01 X9.2645 Y34.4526
G01 X9.2581 Y34.4535
G01 X9.2517 Y34.4551
G01 X9.2456 Y34.4573
G01 X9.2397 Y34.4601
G01 X9.2341 Y34.4634
G01 X9.2289 Y34.4673
G01 X9.2241 Y34.4717
G01 X9.2197 Y34.4765
G01 X9.2158 Y34.4817
G01 X9.2125 Y34.4873
G01 X9.2097 Y34.4932
G01 X9.2075 Y34.4993
G01 X9.2059 Y34.5057
G01 X9.2050 Y34.5121
G01 X9.2047 Y34.5186
G01 X9.2050 Y34.5251
G01 X9.2059 Y34.5315
G01 X9.2075 Y34.5379
G01 X9.2097 Y34.5440
G01 X9.2125 Y34.5499
G01 X9.2158 Y34.5555
G01 X9.2197 Y34.5607
G01 X9.2241 Y34.5655
G01 X9.2289 Y34.5699
G01 X9.2341 Y34.5738
G01 X9.2397 Y34.5771
G01 X9.2456 Y34.5799
G01 X9.2517 Y34.5821
G01 X9.2581 Y34.5837
G01 X9.2645 Y34.5846
G01 X9.2710 Y34.5849
G01 X9.2775 Y34.5846
G01 X9.2839 Y34.5837
G01 X9.2903 Y34.5821
G01 X9.2964 Y34.5799
G01 X9.3023 Y34.5771
G01 X9.3079 Y34.5738
G01 X9.3131 Y34.5699
G01 X9.3179 Y34.5655
G01 X9.3223 Y34.5607
G01 X9.3262 Y34.5555
G01 X9.3295 Y34.5499
G01 X9.3323 Y34.5440
G01 X9.3345 Y34.5379
G01 X9.3361 Y34.5315
G01 X9.3370 Y34.5251
G01 X9.3373 Y34.5186
G00 Z2.0000
G00 X9.3373 Y37.0586
G01 F60.00
G01 Z-0.0500
G01 F120.00
G01 X9.3370 Y37.0521
G01 X9.3361 Y37.0457
G01 X9.3345 Y37.0393
G01 X9.3323 Y37.0332
G01 X9.3295 Y37.0273
G01 X9.3262 Y37.0217
G01 X9.3223 Y37.0165
G01 X9.3179 Y37.0117
G01 X9.3131 Y37.0073
G01 X9.3079 Y37.0034
G01 X9.3023 Y37.0001
G01 X9.2964 Y36.9973
G01 X9.2903 Y36.9951
G01 X9.2839 Y36.9935
G01 X9.2775 Y36.9926
G01 X9.2710 Y36.9923
G01 X9.2645 Y36.9926
G01 X9.2581 Y36.9935
G01 X9.2517 Y36.9951
G01 X9.2456 Y36.9973
G01 X9.2397 Y37.0001
G01 X9.2341 Y37.0034
G01 X9.2289 Y37.0073
G01 X9.2241 Y37.0117
G01 X9.2197 Y37.0165
G01 X9.2158 Y37.0217
G01 X9.2125 Y37.0273
G01 X9.2097 Y37.0332
G01 X9.2075 Y37.0393
G01 X9.2059 Y37.0457
G01 X9.2050 Y37.0521
G01 X9.2047 Y37.0586
G01 X9.2050 Y37.0651
G01 X9.2059 Y37.0715
G01 X9.2075 Y37.0779
G01 X9.2097 Y37.0840
G01 X9.2125 Y37.0899
G01 X9.2158 Y37.0955
G01 X9.2197 Y37.1007
G01 X9.2241 Y37.1055
G01 X9.2289 Y37.1099
G01 X9.2341 Y37.1138
G01 X9.2397 Y37.1171
G01 X9.2456 Y37.1199
G01 X9.2517 Y37.1221
G01 X9.2581 Y37.1237
G01 X9.2645 Y37.1246
G01 X9.2710 Y37.1249
G01 X9.2775 Y37.1246
G01 X9.2839 Y37.1237
G01 X9.2903 Y37.1221
G01 X9.2964 Y37.1199
G01 X9.3023 Y37.1171
G01 X9.3079 Y37.1138
G01 X9.3131 Y37.1099
G01 X9.3179 Y37.1055
G01 X9.3223 Y37.1007
G01 X9.3262 Y37.0955
G01 X9.3295 Y37.0899
G01 X9.3323 Y37.0840
G01 X9.3345 Y37.0779
G01 X9.3361 Y37.0715
G01 X9.3370 Y37.0651
G01 X9.3373 Y37.0586
G00 Z2.0000
G00 X9.3373 Y39.5986
G01 F60.00
G01 Z-0.0500
G01 F120.00
G01 X9.3370 Y39.5921
G01 X9.3361 Y39.5857
G01 X9.3345 Y39.5793
G01 X9.3323 Y39.5732
G01 X9.3295 Y39.5673
G01 X9.3262 Y39.5617
G01 X9.3223 Y39.5565
G01 X9.3179 Y39.5517
G01 X9.3131 Y39.5473
G01 X9.3079 Y39.5434
G01 X9.3023 Y39.5401
G01 X9.2964 Y39.5373
G01 X9.2903 Y39.5351
G01 X9.2839 Y39.5335
G01 X9.2775 Y39.5326
G01 X9.2710 Y39.5323
G01 X9.2645 Y39.5326
G01 X9.2581 Y39.5335
G01 X9.2517 Y39.5351
G01 X9.2456 Y39.5373
G01 X9.2397 Y39.5401
G01 X9.2341 Y39.5434
G01 X9.2289 Y39.5473
G01 X9.2241 Y39.5517
G01 X9.2197 Y39.5565
G01 X9.2158 Y39.5617
G01 X9.2125 Y39.5673
G01 X9.2097 Y39.5732
G01 X9.2075 Y39.5793
G01 X9.2059 Y39.5857
G01 X9.2050 Y39.5921
G01 X9.2047 Y39.5986
G01 X9.2050 Y39.6051
G01 X9.2059 Y39.6115
G01 X9.2075 Y39.6179
G01 X9.2097 Y39.6240
G01 X9.2125 Y39.6299
G01 X9.2158 Y39.6355
G01 X9.2197 Y39.6407
G01 X9.2241 Y39.6455
G01 X9.2289 Y39.6499
G01 X9.2341 Y39.6538
G01 X9.2397 Y39.6571
G01 X9.2456 Y39.6599
G01 X9.2517 Y39.6621
G01 X9.2581 Y39.6637
G01 X9.2645 Y39.6646
G01 X9.2710 Y39.6649
G01 X9.2775 Y39.6646
G01 X9.2839 Y39.6637
G01 X9.2903 Y39.6621
G01 X9.2964 Y39.6599
G01 X9.3023 Y39.6571
G01 X9.3079 Y39.6538
G01 X9.3131 Y39.6499
G01 X9.3179 Y39.6455
G01 X9.3223 Y39.6407
G01 X9.3262 Y39.6355
G01 X9.3295 Y39.6299
G01 X9.3323 Y39.6240
G01 X9.3345 Y39.6179
G01 X9.3361 Y39.6115
G01 X9.3370 Y39.6051
G01 X9.3373 Y39.5986
G00 Z2.0000
G00 X9.3373 Y42.1386
G01 F60.00
G01 Z-0.0500
G01 F120.00
G01 X9.3370 Y42.1321
G01 X9.3361 Y42.1257
G01 X9.3345 Y42.1193
G01 X9.3323 Y42.1132
G01 X9.3295 Y42.1073
G01 X9.3262 Y42.1017
G01 X9.3223 Y42.0965
G01 X9.3179 Y42.0917
G01 X9.3131 Y42.0873
G01 X9.3079 Y42.0834
G01 X9.3023 Y42.0801
G01 X9.2964 Y42.0773
G01 X9.2903 Y42.0751
G01 X9.2839 Y42.0735
G01 X9.2775 Y42.0726
G01 X9.2710 Y42.0723
G01 X9.2645 Y42.0726
G01 X9.2581 Y42.0735
G01 X9.2517 Y42.0751
G01 X9.2456 Y42.0773
G01 X9.2397 Y42.0801
G01 X9.2341 Y42.0834
G01 X9.2289 Y42.0873
G01 X9.2241 Y42.0917
G01 X9.2197 Y42.0965
G01 X9.2158 Y42.1017
G01 X9.2125 Y42.1073
G01 X9.2097 Y42.1132
G01 X9.2075 Y42.1193
G01 X9.2059 Y42.1257
G01 X9.2050 Y42.1321
G01 X9.2047 Y42.1386
G01 X9.2050 Y42.1451
G01 X9.2059 Y42.1515
G01 X9.2075 Y42.1579
G01 X9.2097 Y42.1640
G01 X9.2125 Y42.1699
G01 X9.2158 Y42.1755
G01 X9.2197 Y42.1807
G01 X9.2241 Y42.1855
G01 X9.2289 Y42.1899
G01 X9.2341 Y42.1938
G01 X9.2397 Y42.1971
G01 X9.2456 Y42.1999
G01 X9.2517 Y42.2021
G01 X9.2581 Y42.2037
G01 X9.2645 Y42.2046
G01 X9.2710 Y42.2049
G01 X9.2775 Y42.2046
G01 X9.2839 Y42.2037
G01 X9.2903 Y42.2021
G01 X9.2964 Y42.1999
G01 X9.3023 Y42.1971
G01 X9.3079 Y42.1938
G01 X9.3131 Y42.1899
G01 X9.3179 Y42.1855
G01 X9.3223 Y42.1807
G01 X9.3262 Y42.1755
G01 X9.3295 Y42.1699
G01 X9.3323 Y42.1640
G01 X9.3345 Y42.1579
G01 X9.3361 Y42.1515
G01 X9.3370 Y42.1451
G01 X9.3373 Y42.1386
G00 Z2.0000
G00 X5.4175 Y37.1348
G01 F60.00
G01 Z-0.0500
G01 F120.00
G01 X5.4119 Y37.2500
G01 X5.3949 Y37.3642
G01 X5.3669 Y37.4761
G01 X5.3280 Y37.5847
G01 X5.2787 Y37.6890
G01 X5.2194 Y37.7880
G01 X5.1506 Y37.8807
G01 X5.0732 Y37.9662
G01 X4.9877 Y38.0436
G01 X4.8950 Y38.1124
G01 X4.7960 Y38.1717
G01 X4.6917 Y38.2210
G01 X4.5831 Y38.2599
G01 X4.4712 Y38.2879
G01 X4.3570 Y38.3049
G01 X4.2418 Y38.3105
G01 X4.1266 Y38.3049
G01 X4.0124 Y38.2879
G01 X3.9005 Y38.2599
G01 X3.7919 Y38.2210
G01 X3.6876 Y38.1717
G01 X3.5886 Y38.1124
G01 X3.4959 Y38.0436
G01 X3.4104 Y37.9662
G01 X3.3330 Y37.8807
G01 X3.2642 Y37.7880
G01 X3.2049 Y37.6890
G01 X3.1556 Y37.5847
G01 X3.1167 Y37.4761
G01 X3.0887 Y37.3642
G01 X3.0717 Y37.2500
G01 X3.0661 Y37.1348
G01 X3.0717 Y37.0196
G01 X3.0887 Y36.9054
G01 X3.1167 Y36.7935
G01 X3.1556 Y36.6849
G01 X3.2049 Y36.5806
G01 X3.2642 Y36.4816
G01 X3.3330 Y36.3889
G01 X3.4104 Y36.3034
G01 X3.4959 Y36.2260
G01 X3.5886 Y36.1572
G01 X3.6876 Y36.0979
G01 X3.7919 Y36.0486
G01 X3.9005 Y36.0097
G01 X4.0124 Y35.9817
G01 X4.1266 Y35.9647
G01 X4.2418 Y35.9591
G01 X4.3570 Y35.9647
G01 X4.4712 Y35.9817
G01 X4.5831 Y36.0097
G01 X4.6917 Y36.0486
G01 X4.7960 Y36.0979
G01 X4.8950 Y36.1572
G01 X4.9877 Y36.2260
G01 X5.0732 Y36.3034
G01 X5.1506 Y36.3889
G01 X5.2194 Y36.4816
G01 X5.2787 Y36.5806
G01 X5.3280 Y36.6849
G01 X5.3669 Y36.7935
G01 X5.3949 Y36.9054
G01 X5.4119 Y37.0196
G01 X5.4175 Y37.1348
G01 X5.3029 Y36.6318
G01 X3.1807 Y36.6318
G00 Z2.0000
G00 X1.1502 Y42.6030
G01 F60.00
G01 Z-0.0500
G01 F120.00
G01 X1.1502 Y43.7570
G01 X2.3042 Y43.7570
G01 X2.3042 Y42.6030
G01 X1.1502 Y42.6030
G00 Z2.0000
G00 X16.8557 Y42.1386
G01 F60.00
G01 Z-0.0500
G01 F120.00
G01 X16.8554 Y42.1321
G01 X16.8545 Y42.1257
G01 X16.8529 Y42.1193
G01 X16.8507 Y42.1132
G01 X16.8479 Y42.1073
G01 X16.8446 Y42.1017
G01 X16.8407 Y42.0965
G01 X16.8363 Y42.0917
G01 X16.8315 Y42.0873
G01 X16.8263 Y42.0834
G01 X16.8207 Y42.0801
G01 X16.8148 Y42.0773
G01 X16.8087 Y42.0751
G01 X16.8023 Y42.0735
G01 X16.7959 Y42.0726
G01 X16.7894 Y42.0723
G01 X16.7829 Y42.0726
G01 X16.7765 Y42.0735
G01 X16.7701 Y42.0751
G01 X16.7640 Y42.0773
G01 X16.7581 Y42.0801
G01 X16.7525 Y42.0834
G01 X16.7473 Y42.0873
G01 X16.7425 Y42.0917
G01 X16.7381 Y42.0965
G01 X16.7342 Y42.1017
G01 X16.7309 Y42.1073
G01 X16.7281 Y42.1132
G01 X16.7259 Y42.1193
G01 X16.7243 Y42.1257
G01 X16.7234 Y42.1321
G01 X16.7231 Y42.1386
G01 X16.7234 Y42.1451
G01 X16.7243 Y42.1515
G01 X16.7259 Y42.1579
G01 X16.7281 Y42.1640
G01 X16.7309 Y42.1699
G01 X16.7342 Y42.1755
G01 X16.7381 Y42.1807
G01 X16.7425 Y42.1855
G01 X16.7473 Y42.1899
G01 X16.7525 Y42.1938
G01 X16.7581 Y42.1971
G01 X16.7640 Y42.1999
G01 X16.7701 Y42.2021
G01 X16.7765 Y42.2037
G01 X16.7829 Y42.2046
G01 X16.7894 Y42.2049
G01 X16.7959 Y42.2046
G01 X16.8023 Y42.2037
G01 X16.8087 Y42.2021
G01 X16.8148 Y42.1999
G01 X16.8207 Y42.1971
G01 X16.8263 Y42.1938
G01 X16.8315 Y42.1899
G01 X16.8363 Y42.1855
G01 X16.8407 Y42.1807
G01 X16.8446 Y42.1755
G01 X16.8479 Y42.1699
G01 X16.8507 Y42.1640
G01 X16.8529 Y42.1579
G01 X16.8545 Y42.1515
G01 X16.8554 Y42.1451
G01 X16.8557 Y42.1386
G00 Z2.0000
G00 X16.8557 Y39.5986
G01 F60.00
G01 Z-0.0500
G01 F120.00
G01 X16.8554 Y39.5921
G01 X16.8545 Y39.5857
G01 X16.8529 Y39.5793
G01 X16.8507 Y39.5732
G01 X16.8479 Y39.5673
G01 X16.8446 Y39.5617
G01 X16.8407 Y39.5565
G01 X16.8363 Y39.5517
G01 X16.8315 Y39.5473
G01 X16.8263 Y39.5434
G01 X16.8207 Y39.5401
G01 X16.8148 Y39.5373
G01 X16.8087 Y39.5351
G01 X16.8023 Y39.5335
G01 X16.7959 Y39.5326
G01 X16.7894 Y39.5323
G01 X16.7829 Y39.5326
G01 X16.7765 Y39.5335
G01 X16.7701 Y39.5351
G01 X16.7640 Y39.5373
G01 X16.7581 Y39.5401
G01 X16.7525 Y39.5434
G01 X16.7473 Y39.5473
G01 X16.7425 Y39.5517
G01 X16.7381 Y39.5565
G01 X16.7342 Y39.5617
G01 X16.7309 Y39.5673
G01 X16.7281 Y39.5732
G01 X16.7259 Y39.5793
G01 X16.7243 Y39.5857
G01 X16.7234 Y39.5921
G01 X16.7231 Y39.5986
G01 X16.7234 Y39.6051
G01 X16.7243 Y39.6115
G01 X16.7259 Y39.6179
G01 X16.7281 Y39.6240
G01 X16.7309 Y39.6299
G01 X16.7342 Y39.6355
G01 X16.7381 Y39.6407
G01 X16.7425 Y39.6455
G01 X16.7473 Y39.6499
G01 X16.7525 Y39.6538
G01 X16.7581 Y39.6571
G01 X16.7640 Y39.6599
G01 X16.7701 Y39.6621
G01 X16.7765 Y39.6637
G01 X16.7829 Y39.6646
G01 X16.7894 Y39.6649
G01 X16.7959 Y39.6646
G01 X16.8023 Y39.6637
G01 X16.8087 Y39.6621
G01 X16.8148 Y39.6599
G01 X16.8207 Y39.6571
G01 X16.8263 Y39.6538
G01 X16.8315 Y39.6499
G01 X16.8363 Y39.6455
G01 X16.8407 Y39.6407
G01 X16.8446 Y39.6355
G01 X16.8479 Y39.6299
G01 X16.8507 Y39.6240
G01 X16.8529 Y39.6179
G01 X16.8545 Y39.6115
G01 X16.8554 Y39.6051
G01 X16.8557 Y39.5986
G00 Z2.0000
G00 X16.8557 Y37.0586
G01 F60.00
G01 Z-0.0500
G01 F120.00
G01 X16.8554 Y37.0521
G01 X16.8545 Y37.0457
G01 X16.8529 Y37.0393
G01 X16.8507 Y37.0332
G01 X16.8479 Y37.0273
G01 X16.8446 Y37.0217
G01 X16.8407 Y37.0165
G01 X16.8363 Y37.0117
G01 X16.8315 Y37.0073
G01 X16.8263 Y37.0034
G01 X16.8207 Y37.0001
G01 X16.8148 Y36.9973
G01 X16.8087 Y36.9951
G01 X16.8023 Y36.9935
G01 X16.7959 Y36.9926
G01 X16.7894 Y36.9923
G01 X16.7829 Y36.9926
G01 X16.7765 Y36.9935
G01 X16.7701 Y36.9951
G01 X16.7640 Y36.9973
G01 X16.7581 Y37.0001
G01 X16.7525 Y37.0034
G01 X16.7473 Y37.0073
G01 X16.7425 Y37.0117
G01 X16.7381 Y37.0165
G01 X16.7342 Y37.0217
G01 X16.7309 Y37.0273
G01 X16.7281 Y37.0332
G01 X16.7259 Y37.0393
G01 X16.7243 Y37.0457
G01 X16.7234 Y37.0521
G01 X16.7231 Y37.0586
G01 X16.7234 Y37.0651
G01 X16.7243 Y37.0715
G01 X16.7259 Y37.0779
G01 X16.7281 Y37.0840
G01 X16.7309 Y37.0899
G01 X16.7342 Y37.0955
G01 X16.7381 Y37.1007
G01 X16.7425 Y37.1055
G01 X16.7473 Y37.1099
G01 X16.7525 Y37.1138
G01 X16.7581 Y37.1171
G01 X16.7640 Y37.1199
G01 X16.7701 Y37.1221
G01 X16.7765 Y37.1237
G01 X16.7829 Y37.1246
G01 X16.7894 Y37.1249
G01 X16.7959 Y37.1246
G01 X16.8023 Y37.1237
G01 X16.8087 Y37.1221
G01 X16.8148 Y37.1199
G01 X16.8207 Y37.1171
G01 X16.8263 Y37.1138
G01 X16.8315 Y37.1099
G01 X16.8363 Y37.1055
G01 X16.8407 Y37.1007
G01 X16.8446 Y37.0955
G01 X16.8479 Y37.0899
G01 X16.8507 Y37.0840
G01 X16.8529 Y37.0779
G01 X16.8545 Y37.0715
G01 X16.8554 Y37.0651
G01 X16.8557 Y37.0586
G00 Z2.0000
G00 X16.8557 Y34.5186
G01 F60.00
G01 Z-0.0500
G01 F120.00
G01 X16.8554 Y34.5121
G01 X16.8545 Y34.5057
G01 X16.8529 Y34.4993
G01 X16.8507 Y34.4932
G01 X16.8479 Y34.4873
G01 X16.8446 Y34.4817
G01 X16.8407 Y34.4765
G01 X16.8363 Y34.4717
G01 X16.8315 Y34.4673
G01 X16.8263 Y34.4634
G01 X16.8207 Y34.4601
G01 X16.8148 Y34.4573
G01 X16.8087 Y34.4551
G01 X16.8023 Y34.4535
G01 X16.7959 Y34.4526
G01 X16.7894 Y34.4523
G01 X16.7829 Y34.4526
G01 X16.7765 Y34.4535
G01 X16.7701 Y34.4551
G01 X16.7640 Y34.4573
G01 X16.7581 Y34.4601
G01 X16.7525 Y34.4634
G01 X16.7473 Y34.4673
G01 X16.7425 Y34.4717
G01 X16.7381 Y34.4765
G01 X16.7342 Y34.4817
G01 X16.7309 Y34.4873
G01 X16.7281 Y34.4932
G01 X16.7259 Y34.4993
G01 X16.7243 Y34.5057
G01 X16.7234 Y34.5121
G01 X16.7231 Y34.5186
G01 X16.7234 Y34.5251
G01 X16.7243 Y34.5315
G01 X16.7259 Y34.5379
G01 X16.7281 Y34.5440
G01 X16.7309 Y34.5499
G01 X16.7342 Y34.5555
G01 X16.7381 Y34.5607
G01 X16.7425 Y34.5655
G01 X16.7473 Y34.5699
G01 X16.7525 Y34.5738
G01 X16.7581 Y34.5771
G01 X16.7640 Y34.5799
G01 X16.7701 Y34.5821
G01 X16.7765 Y34.5837
G01 X16.7829 Y34.5846
G01 X16.7894 Y34.5849
G01 X16.7959 Y34.5846
G01 X16.8023 Y34.5837
G01 X16.8087 Y34.5821
G01 X16.8148 Y34.5799
G01 X16.8207 Y34.5771
G01 X16.8263 Y34.5738
G01 X16.8315 Y34.5699
G01 X16.8363 Y34.5655
G01 X16.8407 Y34.5607
G01 X16.8446 Y34.5555
G01 X16.8479 Y34.5499
G01 X16.8507 Y34.5440
G01 X16.8529 Y34.5379
G01 X16.8545 Y34.5315
G01 X16.8554 Y34.5251
G01 X16.8557 Y34.5186
G00 Z2.0000
G00 X21.8849 Y34.5186
G01 F60.00
G01 Z-0.0500
G01 F120.00
G01 X21.8846 Y34.5121
G01 X21.8837 Y34.5057
G01 X21.8821 Y34.4993
G01 X21.8799 Y34.4932
G01 X21.8771 Y34.4873
G01 X21.8738 Y34.4817
G01 X21.8699 Y34.4765
G01 X21.8655 Y34.4717
G01 X21.8607 Y34.4673
G01 X21.8555 Y34.4634
G01 X21.8499 Y34.4601
G01 X21.8440 Y34.4573
G01 X21.8379 Y34.4551
G01 X21.8315 Y34.4535
G01 X21.8251 Y34.4526
G01 X21.8186 Y34.4523
G01 X21.8121 Y34.4526
G01 X21.8057 Y34.4535
G01 X21.7993 Y34.4551
G01 X21.7932 Y34.4573
G01 X21.7873 Y34.4601
G01 X21.7817 Y34.4634
G01 X21.7765 Y34.4673
G01 X21.7717 Y34.4717
G01 X21.7673 Y34.4765
G01 X21.7634 Y34.4817
G01 X21.7601 Y34.4873
G01 X21.7573 Y34.4932
G01 X21.7551 Y34.4993
G01 X21.7535 Y34.5057
G01 X21.7526 Y34.5121
G01 X21.7523 Y34.5186
G01 X21.7526 Y34.5251
G01 X21.7535 Y34.5315
G01 X21.7551 Y34.5379
G01 X21.7573 Y34.5440
G01 X21.7601 Y34.5499
G01 X21.7634 Y34.5555
G01 X21.7673 Y34.5607
G01 X21.7717 Y34.5655
G01 X21.7765 Y34.5699
G01 X21.7817 Y34.5738
G01 X21.7873 Y34.5771
G01 X21.7932 Y34.5799
G01 X21.7993 Y34.5821
G01 X21.8057 Y34.5837
G01 X21.8121 Y34.5846
G01 X21.8186 Y34.5849
G01 X21.8251 Y34.5846
G01 X21.8315 Y34.5837
G01 X21.8379 Y34.5821
G01 X21.8440 Y34.5799
G01 X21.8499 Y34.5771
G01 X21.8555 Y34.5738
G01 X21.8607 Y34.5699
G01 X21.8655 Y34.5655
G01 X21.8699 Y34.5607
G01 X21.8738 Y34.5555
G01 X21.8771 Y34.5499
G01 X21.8799 Y34.5440
G01 X21.8821 Y34.5379
G01 X21.8837 Y34.5315
G01 X21.8846 Y34.5251
G01 X21.8849 Y34.5186
G00 Z2.0000
G00 X21.8849 Y37.0586
G01 F60.00
G01 Z-0.0500
G01 F120.00
G01 X21.8846 Y37.0521
G01 X21.8837 Y37.0457
G01 X21.8821 Y37.0393
G01 X21.8799 Y37.0332
G01 X21.8771 Y37.0273
G01 X21.8738 Y37.0217
G01 X21.8699 Y37.0165
G01 X21.8655 Y37.0117
G01 X21.8607 Y37.0073
G01 X21.8555 Y37.0034
G01 X21.8499 Y37.0001
G01 X21.8440 Y36.9973
G01 X21.8379 Y36.9951
G01 X21.8315 Y36.9935
G01 X21.8251 Y36.9926
G01 X21.8186 Y36.9923
G01 X21.8121 Y36.9926
G01 X21.8057 Y36.9935
G01 X21.7993 Y36.9951
G01 X21.7932 Y36.9973
G01 X21.7873 Y37.0001
G01 X21.7817 Y37.0034
G01 X21.7765 Y37.0073
G01 X21.7717 Y37.0117
G01 X21.7673 Y37.0165
G01 X21.7634 Y37.0217
G01 X21.7601 Y37.0273
G01 X21.7573 Y37.0332
G01 X21.7551 Y37.0393
G01 X21.7535 Y37.0457
G01 X21.7526 Y37.0521
G01 X21.7523 Y37.0586
G01 X21.7526 Y37.0651
G01 X21.7535 Y37.0715
G01 X21.7551 Y37.0779
G01 X21.7573 Y37.0840
G01 X21.7601 Y37.0899
G01 X21.7634 Y37.0955
G01 X21.7673 Y37.1007
G01 X21.7717 Y37.1055
G01 X21.7765 Y37.1099
G01 X21.7817 Y37.1138
G01 X21.7873 Y37.1171
G01 X21.7932 Y37.1199
G01 X21.7993 Y37.1221
G01 X21.8057 Y37.1237
G01 X21.8121 Y37.1246
G01 X21.8186 Y37.1249
G01 X21.8251 Y37.1246
G01 X21.8315 Y37.1237
G01 X21.8379 Y37.1221
G01 X21.8440 Y37.1199
G01 X21.8499 Y37.1171
G01 X21.8555 Y37.1138
G01 X21.8607 Y37.1099
G01 X21.8655 Y37.1055
G01 X21.8699 Y37.1007
G01 X21.8738 Y37.0955
G01 X21.8771 Y37.0899
G01 X21.8799 Y37.0840
G01 X21.8821 Y37.0779
G01 X21.8837 Y37.0715
G01 X21.8846 Y37.0651
G01 X21.8849 Y37.0586
G00 Z2.0000
G00 X21.8849 Y39.5986
G01 F60.00
G01 Z-0.0500
G01 F120.00
G01 X21.8846 Y39.5921
G01 X21.8837 Y39.5857
G01 X21.8821 Y39.5793
G01 X21.8799 Y39.5732
G01 X21.8771 Y39.5673
G01 X21.8738 Y39.5617
G01 X21.8699 Y39.5565
G01 X21.8655 Y39.5517
G01 X21.8607 Y39.5473
G01 X21.8555 Y39.5434
G01 X21.8499 Y39.5401
G01 X21.8440 Y39.5373
G01 X21.8379 Y39.5351
G01 X21.8315 Y39.5335
G01 X21.8251 Y39.5326
G01 X21.8186 Y39.5323
G01 X21.8121 Y39.5326
G01 X21.8057 Y39.5335
G01 X21.7993 Y39.5351
G01 X21.7932 Y39.5373
G01 X21.7873 Y39.5401
G01 X21.7817 Y39.5434
G01 X21.7765 Y39.5473
G01 X21.7717 Y39.5517
G01 X21.7673 Y39.5565
G01 X21.7634 Y39.5617
G01 X21.7601 Y39.5673
G01 X21.7573 Y39.5732
G01 X21.7551 Y39.5793
G01 X21.7535 Y39.5857
G01 X21.7526 Y39.5921
G01 X21.7523 Y39.5986
G01 X21.7526 Y39.6051
G01 X21.7535 Y39.6115
G01 X21.7551 Y39.6179
G01 X21.7573 Y39.6240
G01 X21.7601 Y39.6299
G01 X21.7634 Y39.6355
G01 X21.7673 Y39.6407
G01 X21.7717 Y39.6455
G01 X21.7765 Y39.6499
G01 X21.7817 Y39.6538
G01 X21.7873 Y39.6571
G01 X21.7932 Y39.6599
G01 X21.7993 Y39.6621
G01 X21.8057 Y39.6637
G01 X21.8121 Y39.6646
G01 X21.8186 Y39.6649
G01 X21.8251 Y39.6646
G01 X21.8315 Y39.6637
G01 X21.8379 Y39.6621
G01 X21.8440 Y39.6599
G01 X21.8499 Y39.6571
G01 X21.8555 Y39.6538
G01 X21.8607 Y39.6499
G01 X21.8655 Y39.6455
G01 X21.8699 Y39.6407
G01 X21.8738 Y39.6355
G01 X21.8771 Y39.6299
G01 X21.8799 Y39.6240
G01 X21.8821 Y39.6179
G01 X21.8837 Y39.6115
G01 X21.8846 Y39.6051
G01 X21.8849 Y39.5986
G00 Z2.0000
G00 X21.8849 Y42.1386
G01 F60.00
G01 Z-0.0500
G01 F120.00
G01 X21.8846 Y42.1321
G01 X21.8837 Y42.1257
G01 X21.8821 Y42.1193
G01 X21.8799 Y42.1132
G01 X21.8771 Y42.1073
G01 X21.8738 Y42.1017
G01 X21.8699 Y42.0965
G01 X21.8655 Y42.0917
G01 X21.8607 Y42.0873
G01 X21.8555 Y42.0834
G01 X21.8499 Y42.0801
G01 X21.8440 Y42.0773
G01 X21.8379 Y42.0751
G01 X21.8315 Y42.0735
G01 X21.8251 Y42.0726
G01 X21.8186 Y42.0723
G01 X21.8121 Y42.0726
G01 X21.8057 Y42.0735
G01 X21.7993 Y42.0751
G01 X21.7932 Y42.0773
G01 X21.7873 Y42.0801
G01 X21.7817 Y42.0834
G01 X21.7765 Y42.0873
G01 X21.7717 Y42.0917
G01 X21.7673 Y42.0965
G01 X21.7634 Y42.1017
G01 X21.7601 Y42.1073
G01 X21.7573 Y42.1132
G01 X21.7551 Y42.1193
G01 X21.7535 Y42.1257
G01 X21.7526 Y42.1321
G01 X21.7523 Y42.1386
G01 X21.7526 Y42.1451
G01 X21.7535 Y42.1515
G01 X21.7551 Y42.1579
G01 X21.7573 Y42.1640
G01 X21.7601 Y42.1699
G01 X21.7634 Y42.1755
G01 X21.7673 Y42.1807
G01 X21.7717 Y42.1855
G01 X21.7765 Y42.1899
G01 X21.7817 Y42.1938
G01 X21.7873 Y42.1971
G01 X21.7932 Y42.1999
G01 X21.7993 Y42.2021
G01 X21.8057 Y42.2037
G01 X21.8121 Y42.2046
G01 X21.8186 Y42.2049
G01 X21.8251 Y42.2046
G01 X21.8315 Y42.2037
G01 X21.8379 Y42.2021
G01 X21.8440 Y42.1999
G01 X21.8499 Y42.1971
G01 X21.8555 Y42.1938
G01 X21.8607 Y42.1899
G01 X21.8655 Y42.1855
G01 X21.8699 Y42.1807
G01 X21.8738 Y42.1755
G01 X21.8771 Y42.1699
G01 X21.8799 Y42.1640
G01 X21.8821 Y42.1579
G01 X21.8837 Y42.1515
G01 X21.8846 Y42.1451
G01 X21.8849 Y42.1386
G00 Z2.0000
G00 X29.4033 Y42.1386
G01 F60.00
G01 Z-0.0500
G01 F120.00
G01 X29.4030 Y42.1321
G01 X29.4021 Y42.1257
G01 X29.4005 Y42.1193
G01 X29.3983 Y42.1132
G01 X29.3955 Y42.1073
G01 X29.3922 Y42.1017
G01 X29.3883 Y42.0965
G01 X29.3839 Y42.0917
G01 X29.3791 Y42.0873
G01 X29.3739 Y42.0834
G01 X29.3683 Y42.0801
G01 X29.3624 Y42.0773
G01 X29.3563 Y42.0751
G01 X29.3499 Y42.0735
G01 X29.3435 Y42.0726
G01 X29.3370 Y42.0723
G01 X29.3305 Y42.0726
G01 X29.3241 Y42.0735
G01 X29.3177 Y42.0751
G01 X29.3116 Y42.0773
G01 X29.3057 Y42.0801
G01 X29.3001 Y42.0834
G01 X29.2949 Y42.0873
G01 X29.2901 Y42.0917
G01 X29.2857 Y42.0965
G01 X29.2818 Y42.1017
G01 X29.2785 Y42.1073
G01 X29.2757 Y42.1132
G01 X29.2735 Y42.1193
G01 X29.2719 Y42.1257
G01 X29.2710 Y42.1321
G01 X29.2707 Y42.1386
G01 X29.2710 Y42.1451
G01 X29.2719 Y42.1515
G01 X29.2735 Y42.1579
G01 X29.2757 Y42.1640
G01 X29.2785 Y42.1699
G01 X29.2818 Y42.1755
G01 X29.2857 Y42.1807
G01 X29.2901 Y42.1855
G01 X29.2949 Y42.1899
G01 X29.3001 Y42.1938
G01 X29.3057 Y42.1971
G01 X29.3116 Y42.1999
G01 X29.3177 Y42.2021
G01 X29.3241 Y42.2037
G01 X29.3305 Y42.2046
G01 X29.3370 Y42.2049
G01 X29.3435 Y42.2046
G01 X29.3499 Y42.2037
G01 X29.3563 Y42.2021
G01 X29.3624 Y42.1999
G01 X29.3683 Y42.1971
G01 X29.3739 Y42.1938
G01 X29.3791 Y42.1899
G01 X29.3839 Y42.1855
G01 X29.3883 Y42.1807
G01 X29.3922 Y42.1755
G01 X29.3955 Y42.1699
G01 X29.3983 Y42.1640
G01 X29.4005 Y42.1579
G01 X29.4021 Y42.1515
G01 X29.4030 Y42.1451
G01 X29.4033 Y42.1386
G00 Z2.0000
G00 X29.4033 Y39.5986
G01 F60.00
G01 Z-0.0500
G01 F120.00
G01 X29.4030 Y39.5921
G01 X29.4021 Y39.5857
G01 X29.4005 Y39.5793
G01 X29.3983 Y39.5732
G01 X29.3955 Y39.5673
G01 X29.3922 Y39.5617
G01 X29.3883 Y39.5565
G01 X29.3839 Y39.5517
G01 X29.3791 Y39.5473
G01 X29.3739 Y39.5434
G01 X29.3683 Y39.5401
G01 X29.3624 Y39.5373
G01 X29.3563 Y39.5351
G01 X29.3499 Y39.5335
G01 X29.3435 Y39.5326
G01 X29.3370 Y39.5323
G01 X29.3305 Y39.5326
G01 X29.3241 Y39.5335
G01 X29.3177 Y39.5351
G01 X29.3116 Y39.5373
G01 X29.3057 Y39.5401
G01 X29.3001 Y39.5434
G01 X29.2949 Y39.5473
G01 X29.2901 Y39.5517
G01 X29.2857 Y39.5565
G01 X29.2818 Y39.5617
G01 X29.2785 Y39.5673
G01 X29.2757 Y39.5732
G01 X29.2735 Y39.5793
G01 X29.2719 Y39.5857
G01 X29.2710 Y39.5921
G01 X29.2707 Y39.5986
G01 X29.2710 Y39.6051
G01 X29.2719 Y39.6115
G01 X29.2735 Y39.6179
G01 X29.2757 Y39.6240
G01 X29.2785 Y39.6299
G01 X29.2818 Y39.6355
G01 X29.2857 Y39.6407
G01 X29.2901 Y39.6455
G01 X29.2949 Y39.6499
G01 X29.3001 Y39.6538
G01 X29.3057 Y39.6571
G01 X29.3116 Y39.6599
G01 X29.3177 Y39.6621
G01 X29.3241 Y39.6637
G01 X29.3305 Y39.6646
G01 X29.3370 Y39.6649
G01 X29.3435 Y39.6646
G01 X29.3499 Y39.6637
G01 X29.3563 Y39.6621
G01 X29.3624 Y39.6599
G01 X29.3683 Y39.6571
G01 X29.3739 Y39.6538
G01 X29.3791 Y39.6499
G01 X29.3839 Y39.6455
G01 X29.3883 Y39.6407
G01 X29.3922 Y39.6355
G01 X29.3955 Y39.6299
G01 X29.3983 Y39.6240
G01 X29.4005 Y39.6179
G01 X29.4021 Y39.6115
G01 X29.4030 Y39.6051
G01 X29.4033 Y39.5986
G00 Z2.0000
G00 X29.4033 Y37.0586
G01 F60.00
G01 Z-0.0500
G01 F120.00
G01 X29.4030 Y37.0521
G01 X29.4021 Y37.0457
G01 X29.4005 Y37.0393
G01 X29.3983 Y37.0332
G01 X29.3955 Y37.0273
G01 X29.3922 Y37.0217
G01 X29.3883 Y37.0165
G01 X29.3839 Y37.0117
G01 X29.3791 Y37.0073
G01 X29.3739 Y37.0034
G01 X29.3683 Y37.0001
G01 X29.3624 Y36.9973
G01 X29.3563 Y36.9951
G01 X29.3499 Y36.9935
G01 X29.3435 Y36.9926
G01 X29.3370 Y36.9923
G01 X29.3305 Y36.9926
G01 X29.3241 Y36.9935
G01 X29.3177 Y36.9951
G01 X29.3116 Y36.9973
G01 X29.3057 Y37.0001
G01 X29.3001 Y37.0034
G01 X29.2949 Y37.0073
G01 X29.2901 Y37.0117
G01 X29.2857 Y37.0165
G01 X29.2818 Y37.0217
G01 X29.2785 Y37.0273
G01 X29.2757 Y37.0332
G01 X29.2735 Y37.0393
G01 X29.2719 Y37.0457
G01 X29.2710 Y37.0521
G01 X29.2707 Y37.0586
G01 X29.2710 Y37.0651
G01 X29.2719 Y37.0715
G01 X29.2735 Y37.0779
G01 X29.2757 Y37.0840
G01 X29.2785 Y37.0899
G01 X29.2818 Y37.0955
G01 X29.2857 Y37.1007
G01 X29.2901 Y37.1055
G01 X29.2949 Y37.1099
G01 X29.3001 Y37.1138
G01 X29.3057 Y37.1171
G01 X29.3116 Y37.1199
G01 X29.3177 Y37.1221
G01 X29.3241 Y37.1237
G01 X29.3305 Y37.1246
G01 X29.3370 Y37.1249
G01 X29.3435 Y37.1246
G01 X29.3499 Y37.1237
G01 X29.3563 Y37.1221
G01 X29.3624 Y37.1199
G01 X29.3683 Y37.1171
G01 X29.3739 Y37.1138
G01 X29.3791 Y37.1099
G01 X29.3839 Y37.1055
G01 X29.3883 Y37.1007
G01 X29.3922 Y37.0955
G01 X29.3955 Y37.0899
G01 X29.3983 Y37.0840
G01 X29.4005 Y37.0779
G01 X29.4021 Y37.0715
G01 X29.4030 Y37.0651
G01 X29.4033 Y37.0586
G00 Z2.0000
G00 X29.4033 Y34.5186
G01 F60.00
G01 Z-0.0500
G01 F120.00
G01 X29.4030 Y34.5121
G01 X29.4021 Y34.5057
G01 X29.4005 Y34.4993
G01 X29.3983 Y34.4932
G01 X29.3955 Y34.4873
G01 X29.3922 Y34.4817
G01 X29.3883 Y34.4765
G01 X29.3839 Y34.4717
G01 X29.3791 Y34.4673
G01 X29.3739 Y34.4634
G01 X29.3683 Y34.4601
G01 X29.3624 Y34.4573
G01 X29.3563 Y34.4551
G01 X29.3499 Y34.4535
G01 X29.3435 Y34.4526
G01 X29.3370 Y34.4523
G01 X29.3305 Y34.4526
G01 X29.3241 Y34.4535
G01 X29.3177 Y34.4551
G01 X29.3116 Y34.4573
G01 X29.3057 Y34.4601
G01 X29.3001 Y34.4634
G01 X29.2949 Y34.4673
G01 X29.2901 Y34.4717
G01 X29.2857 Y34.4765
G01 X29.2818 Y34.4817
G01 X29.2785 Y34.4873
G01 X29.2757 Y34.4932
G01 X29.2735 Y34.4993
G01 X29.2719 Y34.5057
G01 X29.2710 Y34.5121
G01 X29.2707 Y34.5186
G01 X29.2710 Y34.5251
G01 X29.2719 Y34.5315
G01 X29.2735 Y34.5379
G01 X29.2757 Y34.5440
G01 X29.2785 Y34.5499
G01 X29.2818 Y34.5555
G01 X29.2857 Y34.5607
G01 X29.2901 Y34.5655
G01 X29.2949 Y34.5699
G01 X29.3001 Y34.5738
G01 X29.3057 Y34.5771
G01 X29.3116 Y34.5799
G01 X29.3177 Y34.5821
G01 X29.3241 Y34.5837
G01 X29.3305 Y34.5846
G01 X29.3370 Y34.5849
G01 X29.3435 Y34.5846
G01 X29.3499 Y34.5837
G01 X29.3563 Y34.5821
G01 X29.3624 Y34.5799
G01 X29.3683 Y34.5771
G01 X29.3739 Y34.5738
G01 X29.3791 Y34.5699
G01 X29.3839 Y34.5655
G01 X29.3883 Y34.5607
G01 X29.3922 Y34.5555
G01 X29.3955 Y34.5499
G01 X29.3983 Y34.5440
G01 X29.4005 Y34.5379
G01 X29.4021 Y34.5315
G01 X29.4030 Y34.5251
G01 X29.4033 Y34.5186
G00 Z2.0000
G00 X34.4325 Y34.5186
G01 F60.00
G01 Z-0.0500
G01 F120.00
G01 X34.4322 Y34.5121
G01 X34.4313 Y34.5057
G01 X34.4297 Y34.4993
G01 X34.4275 Y34.4932
G01 X34.4247 Y34.4873
G01 X34.4214 Y34.4817
G01 X34.4175 Y34.4765
G01 X34.4131 Y34.4717
G01 X34.4083 Y34.4673
G01 X34.4031 Y34.4634
G01 X34.3975 Y34.4601
G01 X34.3916 Y34.4573
G01 X34.3855 Y34.4551
G01 X34.3791 Y34.4535
G01 X34.3727 Y34.4526
G01 X34.3662 Y34.4523
G01 X34.3597 Y34.4526
G01 X34.3533 Y34.4535
G01 X34.3469 Y34.4551
G01 X34.3408 Y34.4573
G01 X34.3349 Y34.4601
G01 X34.3293 Y34.4634
G01 X34.3241 Y34.4673
G01 X34.3193 Y34.4717
G01 X34.3149 Y34.4765
G01 X34.3110 Y34.4817
G01 X34.3077 Y34.4873
G01 X34.3049 Y34.4932
G01 X34.3027 Y34.4993
G01 X34.3011 Y34.5057
G01 X34.3002 Y34.5121
G01 X34.2999 Y34.5186
G01 X34.3002 Y34.5251
G01 X34.3011 Y34.5315
G01 X34.3027 Y34.5379
G01 X34.3049 Y34.5440
G01 X34.3077 Y34.5499
G01 X34.3110 Y34.5555
G01 X34.3149 Y34.5607
G01 X34.3193 Y34.5655
G01 X34.3241 Y34.5699
G01 X34.3293 Y34.5738
G01 X34.3349 Y34.5771
G01 X34.3408 Y34.5799
G01 X34.3469 Y34.5821
G01 X34.3533 Y34.5837
G01 X34.3597 Y34.5846
G01 X34.3662 Y34.5849
G01 X34.3727 Y34.5846
G01 X34.3791 Y34.5837
G01 X34.3855 Y34.5821
G01 X34.3916 Y34.5799
G01 X34.3975 Y34.5771
G01 X34.4031 Y34.5738
G01 X34.4083 Y34.5699
G01 X34.4131 Y34.5655
G01 X34.4175 Y34.5607
G01 X34.4214 Y34.5555
G01 X34.4247 Y34.5499
G01 X34.4275 Y34.5440
G01 X34.4297 Y34.5379
G01 X34.4313 Y34.5315
G01 X34.4322 Y34.5251
G01 X34.4325 Y34.5186
G00 Z2.0000
G00 X34.4325 Y37.0586
G01 F60.00
G01 Z-0.0500
G01 F120.00
G01 X34.4322 Y37.0521
G01 X34.4313 Y37.0457
G01 X34.4297 Y37.0393
G01 X34.4275 Y37.0332
G01 X34.4247 Y37.0273
G01 X34.4214 Y37.0217
G01 X34.4175 Y37.0165
G01 X34.4131 Y37.0117
G01 X34.4083 Y37.0073
G01 X34.4031 Y37.0034
G01 X34.3975 Y37.0001
G01 X34.3916 Y36.9973
G01 X34.3855 Y36.9951
G01 X34.3791 Y36.9935
G01 X34.3727 Y36.9926
G01 X34.3662 Y36.9923
G01 X34.3597 Y36.9926
G01 X34.3533 Y36.9935
G01 X34.3469 Y36.9951
G01 X34.3408 Y36.9973
G01 X34.3349 Y37.0001
G01 X34.3293 Y37.0034
G01 X34.3241 Y37.0073
G01 X34.3193 Y37.0117
G01 X34.3149 Y37.0165
G01 X34.3110 Y37.0217
G01 X34.3077 Y37.0273
G01 X34.3049 Y37.0332
G01 X34.3027 Y37.0393
G01 X34.3011 Y37.0457
G01 X34.3002 Y37.0521
G01 X34.2999 Y37.0586
G01 X34.3002 Y37.0651
G01 X34.3011 Y37.0715
G01 X34.3027 Y37.0779
G01 X34.3049 Y37.0840
G01 X34.3077 Y37.0899
G01 X34.3110 Y37.0955
G01 X34.3149 Y37.1007
G01 X34.3193 Y37.1055
G01 X34.3241 Y37.1099
G01 X34.3293 Y37.1138
G01 X34.3349 Y37.1171
G01 X34.3408 Y37.1199
G01 X34.3469 Y37.1221
G01 X34.3533 Y37.1237
G01 X34.3597 Y37.1246
G01 X34.3662 Y37.1249
G01 X34.3727 Y37.1246
G01 X34.3791 Y37.1237
G01 X34.3855 Y37.1221
G01 X34.3916 Y37.1199
G01 X34.3975 Y37.1171
G01 X34.4031 Y37.1138
G01 X34.4083 Y37.1099
G01 X34.4131 Y37.1055
G01 X34.4175 Y37.1007
G01 X34.4214 Y37.0955
G01 X34.4247 Y37.0899
G01 X34.4275 Y37.0840
G01 X34.4297 Y37.0779
G01 X34.4313 Y37.0715
G01 X34.4322 Y37.0651
G01 X34.4325 Y37.0586
G00 Z2.0000
G00 X34.4325 Y39.5986
G01 F60.00
G01 Z-0.0500
G01 F120.00
G01 X34.4322 Y39.5921
G01 X34.4313 Y39.5857
G01 X34.4297 Y39.5793
G01 X34.4275 Y39.5732
G01 X34.4247 Y39.5673
G01 X34.4214 Y39.5617
G01 X34.4175 Y39.5565
G01 X34.4131 Y39.5517
G01 X34.4083 Y39.5473
G01 X34.4031 Y39.5434
G01 X34.3975 Y39.5401
G01 X34.3916 Y39.5373
G01 X34.3855 Y39.5351
G01 X34.3791 Y39.5335
G01 X34.3727 Y39.5326
G01 X34.3662 Y39.5323
G01 X34.3597 Y39.5326
G01 X34.3533 Y39.5335
G01 X34.3469 Y39.5351
G01 X34.3408 Y39.5373
G01 X34.3349 Y39.5401
G01 X34.3293 Y39.5434
G01 X34.3241 Y39.5473
G01 X34.3193 Y39.5517
G01 X34.3149 Y39.5565
G01 X34.3110 Y39.5617
G01 X34.3077 Y39.5673
G01 X34.3049 Y39.5732
G01 X34.3027 Y39.5793
G01 X34.3011 Y39.5857
G01 X34.3002 Y39.5921
G01 X34.2999 Y39.5986
G01 X34.3002 Y39.6051
G01 X34.3011 Y39.6115
G01 X34.3027 Y39.6179
G01 X34.3049 Y39.6240
G01 X34.3077 Y39.6299
G01 X34.3110 Y39.6355
G01 X34.3149 Y39.6407
G01 X34.3193 Y39.6455
G01 X34.3241 Y39.6499
G01 X34.3293 Y39.6538
G01 X34.3349 Y39.6571
G01 X34.3408 Y39.6599
G01 X34.3469 Y39.6621
G01 X34.3533 Y39.6637
G01 X34.3597 Y39.6646
G01 X34.3662 Y39.6649
G01 X34.3727 Y39.6646
G01 X34.3791 Y39.6637
G01 X34.3855 Y39.6621
G01 X34.3916 Y39.6599
G01 X34.3975 Y39.6571
G01 X34.4031 Y39.6538
G01 X34.4083 Y39.6499
G01 X34.4131 Y39.6455
G01 X34.4175 Y39.6407
G01 X34.4214 Y39.6355
G01 X34.4247 Y39.6299
G01 X34.4275 Y39.6240
G01 X34.4297 Y39.6179
G01 X34.4313 Y39.6115
G01 X34.4322 Y39.6051
G01 X34.4325 Y39.5986
G00 Z2.0000
G00 X34.4325 Y42.1386
G01 F60.00
G01 Z-0.0500
G01 F120.00
G01 X34.4322 Y42.1321
G01 X34.4313 Y42.1257
G01 X34.4297 Y42.1193
G01 X34.4275 Y42.1132
G01 X34.4247 Y42.1073
G01 X34.4214 Y42.1017
G01 X34.4175 Y42.0965
G01 X34.4131 Y42.0917
G01 X34.4083 Y42.0873
G01 X34.4031 Y42.0834
G01 X34.3975 Y42.0801
G01 X34.3916 Y42.0773
G01 X34.3855 Y42.0751
G01 X34.3791 Y42.0735
G01 X34.3727 Y42.0726
G01 X34.3662 Y42.0723
G01 X34.3597 Y42.0726
G01 X34.3533 Y42.0735
G01 X34.3469 Y42.0751
G01 X34.3408 Y42.0773
G01 X34.3349 Y42.0801
G01 X34.3293 Y42.0834
G01 X34.3241 Y42.0873
G01 X34.3193 Y42.0917
G01 X34.3149 Y42.0965
G01 X34.3110 Y42.1017
G01 X34.3077 Y42.1073
G01 X34.3049 Y42.1132
G01 X34.3027 Y42.1193
G01 X34.3011 Y42.1257
G01 X34.3002 Y42.1321
G01 X34.2999 Y42.1386
G01 X34.3002 Y42.1451
G01 X34.3011 Y42.1515
G01 X34.3027 Y42.1579
G01 X34.3049 Y42.1640
G01 X34.3077 Y42.1699
G01 X34.3110 Y42.1755
G01 X34.3149 Y42.1807
G01 X34.3193 Y42.1855
G01 X34.3241 Y42.1899
G01 X34.3293 Y42.1938
G01 X34.3349 Y42.1971
G01 X34.3408 Y42.1999
G01 X34.3469 Y42.2021
G01 X34.3533 Y42.2037
G01 X34.3597 Y42.2046
G01 X34.3662 Y42.2049
G01 X34.3727 Y42.2046
G01 X34.3791 Y42.2037
G01 X34.3855 Y42.2021
G01 X34.3916 Y42.1999
G01 X34.3975 Y42.1971
G01 X34.4031 Y42.1938
G01 X34.4083 Y42.1899
G01 X34.4131 Y42.1855
G01 X34.4175 Y42.1807
G01 X34.4214 Y42.1755
G01 X34.4247 Y42.1699
G01 X34.4275 Y42.1640
G01 X34.4297 Y42.1579
G01 X34.4313 Y42.1515
G01 X34.4322 Y42.1451
G01 X34.4325 Y42.1386
G00 Z2.0000
G00 X41.9509 Y42.1386
G01 F60.00
G01 Z-0.0500
G01 F120.00
G01 X41.9506 Y42.1321
G01 X41.9497 Y42.1257
G01 X41.9481 Y42.1193
G01 X41.9459 Y42.1132
G01 X41.9431 Y42.1073
G01 X41.9398 Y42.1017
G01 X41.9359 Y42.0965
G01 X41.9315 Y42.0917
G01 X41.9267 Y42.0873
G01 X41.9215 Y42.0834
G01 X41.9159 Y42.0801
G01 X41.9100 Y42.0773
G01 X41.9039 Y42.0751
G01 X41.8975 Y42.0735
G01 X41.8911 Y42.0726
G01 X41.8846 Y42.0723
G01 X41.8781 Y42.0726
G01 X41.8717 Y42.0735
G01 X41.8653 Y42.0751
G01 X41.8592 Y42.0773
G01 X41.8533 Y42.0801
G01 X41.8477 Y42.0834
G01 X41.8425 Y42.0873
G01 X41.8377 Y42.0917
G01 X41.8333 Y42.0965
G01 X41.8294 Y42.1017
G01 X41.8261 Y42.1073
G01 X41.8233 Y42.1132
G01 X41.8211 Y42.1193
G01 X41.8195 Y42.1257
G01 X41.8186 Y42.1321
G01 X41.8183 Y42.1386
G01 X41.8186 Y42.1451
G01 X41.8195 Y42.1515
G01 X41.8211 Y42.1579
G01 X41.8233 Y42.1640
G01 X41.8261 Y42.1699
G01 X41.8294 Y42.1755
G01 X41.8333 Y42.1807
G01 X41.8377 Y42.1855
G01 X41.8425 Y42.1899
G01 X41.8477 Y42.1938
G01 X41.8533 Y42.1971
G01 X41.8592 Y42.1999
G01 X41.8653 Y42.2021
G01 X41.8717 Y42.2037
G01 X41.8781 Y42.2046
G01 X41.8846 Y42.2049
G01 X41.8911 Y42.2046
G01 X41.8975 Y42.2037
G01 X41.9039 Y42.2021
G01 X41.9100 Y42.1999
G01 X41.9159 Y42.1971
G01 X41.9215 Y42.1938
G01 X41.9267 Y42.1899
G01 X41.9315 Y42.1855
G01 X41.9359 Y42.1807
G01 X41.9398 Y42.1755
G01 X41.9431 Y42.1699
G01 X41.9459 Y42.1640
G01 X41.9481 Y42.1579
G01 X41.9497 Y42.1515
G01 X41.9506 Y42.1451
G01 X41.9509 Y42.1386
G00 Z2.0000
G00 X41.9509 Y39.5986
G01 F60.00
G01 Z-0.0500
G01 F120.00
G01 X41.9506 Y39.5921
G01 X41.9497 Y39.5857
G01 X41.9481 Y39.5793
G01 X41.9459 Y39.5732
G01 X41.9431 Y39.5673
G01 X41.9398 Y39.5617
G01 X41.9359 Y39.5565
G01 X41.9315 Y39.5517
G01 X41.9267 Y39.5473
G01 X41.9215 Y39.5434
G01 X41.9159 Y39.5401
G01 X41.9100 Y39.5373
G01 X41.9039 Y39.5351
G01 X41.8975 Y39.5335
G01 X41.8911 Y39.5326
G01 X41.8846 Y39.5323
G01 X41.8781 Y39.5326
G01 X41.8717 Y39.5335
G01 X41.8653 Y39.5351
G01 X41.8592 Y39.5373
G01 X41.8533 Y39.5401
G01 X41.8477 Y39.5434
G01 X41.8425 Y39.5473
G01 X41.8377 Y39.5517
G01 X41.8333 Y39.5565
G01 X41.8294 Y39.5617
G01 X41.8261 Y39.5673
G01 X41.8233 Y39.5732
G01 X41.8211 Y39.5793
G01 X41.8195 Y39.5857
G01 X41.8186 Y39.5921
G01 X41.8183 Y39.5986
G01 X41.8186 Y39.6051
G01 X41.8195 Y39.6115
G01 X41.8211 Y39.6179
G01 X41.8233 Y39.6240
G01 X41.8261 Y39.6299
G01 X41.8294 Y39.6355
G01 X41.8333 Y39.6407
G01 X41.8377 Y39.6455
G01 X41.8425 Y39.6499
G01 X41.8477 Y39.6538
G01 X41.8533 Y39.6571
G01 X41.8592 Y39.6599
G01 X41.8653 Y39.6621
G01 X41.8717 Y39.6637
G01 X41.8781 Y39.6646
G01 X41.8846 Y39.6649
G01 X41.8911 Y39.6646
G01 X41.8975 Y39.6637
G01 X41.9039 Y39.6621
G01 X41.9100 Y39.6599
G01 X41.9159 Y39.6571
G01 X41.9215 Y39.6538
G01 X41.9267 Y39.6499
G01 X41.9315 Y39.6455
G01 X41.9359 Y39.6407
G01 X41.9398 Y39.6355
G01 X41.9431 Y39.6299
G01 X41.9459 Y39.6240
G01 X41.9481 Y39.6179
G01 X41.9497 Y39.6115
G01 X41.9506 Y39.6051
G01 X41.9509 Y39.5986
G00 Z2.0000
G00 X41.9509 Y37.0586
G01 F60.00
G01 Z-0.0500
G01 F120.00
G01 X41.9506 Y37.0521
G01 X41.9497 Y37.0457
G01 X41.9481 Y37.0393
G01 X41.9459 Y37.0332
G01 X41.9431 Y37.0273
G01 X41.9398 Y37.0217
G01 X41.9359 Y37.0165
G01 X41.9315 Y37.0117
G01 X41.9267 Y37.0073
G01 X41.9215 Y37.0034
G01 X41.9159 Y37.0001
G01 X41.9100 Y36.9973
G01 X41.9039 Y36.9951
G01 X41.8975 Y36.9935
G01 X41.8911 Y36.9926
G01 X41.8846 Y36.9923
G01 X41.8781 Y36.9926
G01 X41.8717 Y36.9935
G01 X41.8653 Y36.9951
G01 X41.8592 Y36.9973
G01 X41.8533 Y37.0001
G01 X41.8477 Y37.0034
G01 X41.8425 Y37.0073
G01 X41.8377 Y37.0117
G01 X41.8333 Y37.0165
G01 X41.8294 Y37.0217
G01 X41.8261 Y37.0273
G01 X41.8233 Y37.0332
G01 X41.8211 Y37.0393
G01 X41.8195 Y37.0457
G01 X41.8186 Y37.0521
G01 X41.8183 Y37.0586
G01 X41.8186 Y37.0651
G01 X41.8195 Y37.0715
G01 X41.8211 Y37.0779
G01 X41.8233 Y37.0840
G01 X41.8261 Y37.0899
G01 X41.8294 Y37.0955
G01 X41.8333 Y37.1007
G01 X41.8377 Y37.1055
G01 X41.8425 Y37.1099
G01 X41.8477 Y37.1138
G01 X41.8533 Y37.1171
G01 X41.8592 Y37.1199
G01 X41.8653 Y37.1221
G01 X41.8717 Y37.1237
G01 X41.8781 Y37.1246
G01 X41.8846 Y37.1249
G01 X41.8911 Y37.1246
G01 X41.8975 Y37.1237
G01 X41.9039 Y37.1221
G01 X41.9100 Y37.1199
G01 X41.9159 Y37.1171
G01 X41.9215 Y37.1138
G01 X41.9267 Y37.1099
G01 X41.9315 Y37.1055
G01 X41.9359 Y37.1007
G01 X41.9398 Y37.0955
G01 X41.9431 Y37.0899
G01 X41.9459 Y37.0840
G01 X41.9481 Y37.0779
G01 X41.9497 Y37.0715
G01 X41.9506 Y37.0651
G01 X41.9509 Y37.0586
G00 Z2.0000
G00 X41.9509 Y34.5186
G01 F60.00
G01 Z-0.0500
G01 F120.00
G01 X41.9506 Y34.5121
G01 X41.9497 Y34.5057
G01 X41.9481 Y34.4993
G01 X41.9459 Y34.4932
G01 X41.9431 Y34.4873
G01 X41.9398 Y34.4817
G01 X41.9359 Y34.4765
G01 X41.9315 Y34.4717
G01 X41.9267 Y34.4673
G01 X41.9215 Y34.4634
G01 X41.9159 Y34.4601
G01 X41.9100 Y34.4573
G01 X41.9039 Y34.4551
G01 X41.8975 Y34.4535
G01 X41.8911 Y34.4526
G01 X41.8846 Y34.4523
G01 X41.8781 Y34.4526
G01 X41.8717 Y34.4535
G01 X41.8653 Y34.4551
G01 X41.8592 Y34.4573
G01 X41.8533 Y34.4601
G01 X41.8477 Y34.4634
G01 X41.8425 Y34.4673
G01 X41.8377 Y34.4717
G01 X41.8333 Y34.4765
G01 X41.8294 Y34.4817
G01 X41.8261 Y34.4873
G01 X41.8233 Y34.4932
G01 X41.8211 Y34.4993
G01 X41.8195 Y34.5057
G01 X41.8186 Y34.5121
G01 X41.8183 Y34.5186
G01 X41.8186 Y34.5251
G01 X41.8195 Y34.5315
G01 X41.8211 Y34.5379
G01 X41.8233 Y34.5440
G01 X41.8261 Y34.5499
G01 X41.8294 Y34.5555
G01 X41.8333 Y34.5607
G01 X41.8377 Y34.5655
G01 X41.8425 Y34.5699
G01 X41.8477 Y34.5738
G01 X41.8533 Y34.5771
G01 X41.8592 Y34.5799
G01 X41.8653 Y34.5821
G01 X41.8717 Y34.5837
G01 X41.8781 Y34.5846
G01 X41.8846 Y34.5849
G01 X41.8911 Y34.5846
G01 X41.8975 Y34.5837
G01 X41.9039 Y34.5821
G01 X41.9100 Y34.5799
G01 X41.9159 Y34.5771
G01 X41.9215 Y34.5738
G01 X41.9267 Y34.5699
G01 X41.9315 Y34.5655
G01 X41.9359 Y34.5607
G01 X41.9398 Y34.5555
G01 X41.9431 Y34.5499
G01 X41.9459 Y34.5440
G01 X41.9481 Y34.5379
G01 X41.9497 Y34.5315
G01 X41.9506 Y34.5251
G01 X41.9509 Y34.5186
G00 Z2.0000
G00 X46.9801 Y34.5186
G01 F60.00
G01 Z-0.0500
G01 F120.00
G01 X46.9798 Y34.5121
G01 X46.9789 Y34.5057
G01 X46.9773 Y34.4993
G01 X46.9751 Y34.4932
G01 X46.9723 Y34.4873
G01 X46.9690 Y34.4817
G01 X46.9651 Y34.4765
G01 X46.9607 Y34.4717
G01 X46.9559 Y34.4673
G01 X46.9507 Y34.4634
G01 X46.9451 Y34.4601
G01 X46.9392 Y34.4573
G01 X46.9331 Y34.4551
G01 X46.9267 Y34.4535
G01 X46.9203 Y34.4526
G01 X46.9138 Y34.4523
G01 X46.9073 Y34.4526
G01 X46.9009 Y34.4535
G01 X46.8945 Y34.4551
G01 X46.8884 Y34.4573
G01 X46.8825 Y34.4601
G01 X46.8769 Y34.4634
G01 X46.8717 Y34.4673
G01 X46.8669 Y34.4717
G01 X46.8625 Y34.4765
G01 X46.8586 Y34.4817
G01 X46.8553 Y34.4873
G01 X46.8525 Y34.4932
G01 X46.8503 Y34.4993
G01 X46.8487 Y34.5057
G01 X46.8478 Y34.5121
G01 X46.8475 Y34.5186
G01 X46.8478 Y34.5251
G01 X46.8487 Y34.5315
G01 X46.8503 Y34.5379
G01 X46.8525 Y34.5440
G01 X46.8553 Y34.5499
G01 X46.8586 Y34.5555
G01 X46.8625 Y34.5607
G01 X46.8669 Y34.5655
G01 X46.8717 Y34.5699
G01 X46.8769 Y34.5738
G01 X46.8825 Y34.5771
G01 X46.8884 Y34.5799
G01 X46.8945 Y34.5821
G01 X46.9009 Y34.5837
G01 X46.9073 Y34.5846
G01 X46.9138 Y34.5849
G01 X46.9203 Y34.5846
G01 X46.9267 Y34.5837
G01 X46.9331 Y34.5821
G01 X46.9392 Y34.5799
G01 X46.9451 Y34.5771
G01 X46.9507 Y34.5738
G01 X46.9559 Y34.5699
G01 X46.9607 Y34.5655
G01 X46.9651 Y34.5607
G01 X46.9690 Y34.5555
G01 X46.9723 Y34.5499
G01 X46.9751 Y34.5440
G01 X46.9773 Y34.5379
G01 X46.9789 Y34.5315
G01 X46.9798 Y34.5251
G01 X46.9801 Y34.5186
G00 Z2.0000
G00 X46.9801 Y37.0586
G01 F60.00
G01 Z-0.0500
G01 F120.00
G01 X46.9798 Y37.0521
G01 X46.9789 Y37.0457
G01 X46.9773 Y37.0393
G01 X46.9751 Y37.0332
G01 X46.9723 Y37.0273
G01 X46.9690 Y37.0217
G01 X46.9651 Y37.0165
G01 X46.9607 Y37.0117
G01 X46.9559 Y37.0073
G01 X46.9507 Y37.0034
G01 X46.9451 Y37.0001
G01 X46.9392 Y36.9973
G01 X46.9331 Y36.9951
G01 X46.9267 Y36.9935
G01 X46.9203 Y36.9926
G01 X46.9138 Y36.9923
G01 X46.9073 Y36.9926
G01 X46.9009 Y36.9935
G01 X46.8945 Y36.9951
G01 X46.8884 Y36.9973
G01 X46.8825 Y37.0001
G01 X46.8769 Y37.0034
G01 X46.8717 Y37.0073
G01 X46.8669 Y37.0117
G01 X46.8625 Y37.0165
G01 X46.8586 Y37.0217
G01 X46.8553 Y37.0273
G01 X46.8525 Y37.0332
G01 X46.8503 Y37.0393
G01 X46.8487 Y37.0457
G01 X46.8478 Y37.0521
G01 X46.8475 Y37.0586
G01 X46.8478 Y37.0651
G01 X46.8487 Y37.0715
G01 X46.8503 Y37.0779
G01 X46.8525 Y37.0840
G01 X46.8553 Y37.0899
G01 X46.8586 Y37.0955
G01 X46.8625 Y37.1007
G01 X46.8669 Y37.1055
G01 X46.8717 Y37.1099
G01 X46.8769 Y37.1138
G01 X46.8825 Y37.1171
G01 X46.8884 Y37.1199
G01 X46.8945 Y37.1221
G01 X46.9009 Y37.1237
G01 X46.9073 Y37.1246
G01 X46.9138 Y37.1249
G01 X46.9203 Y37.1246
G01 X46.9267 Y37.1237
G01 X46.9331 Y37.1221
G01 X46.9392 Y37.1199
G01 X46.9451 Y37.1171
G01 X46.9507 Y37.1138
G01 X46.9559 Y37.1099
G01 X46.9607 Y37.1055
G01 X46.9651 Y37.1007
G01 X46.9690 Y37.0955
G01 X46.9723 Y37.0899
G01 X46.9751 Y37.0840
G01 X46.9773 Y37.0779
G01 X46.9789 Y37.0715
G01 X46.9798 Y37.0651
G01 X46.9801 Y37.0586
G00 Z2.0000
G00 X46.9801 Y39.5986
G01 F60.00
G01 Z-0.0500
G01 F120.00
G01 X46.9798 Y39.5921
G01 X46.9789 Y39.5857
G01 X46.9773 Y39.5793
G01 X46.9751 Y39.5732
G01 X46.9723 Y39.5673
G01 X46.9690 Y39.5617
G01 X46.9651 Y39.5565
G01 X46.9607 Y39.5517
G01 X46.9559 Y39.5473
G01 X46.9507 Y39.5434
G01 X46.9451 Y39.5401
G01 X46.9392 Y39.5373
G01 X46.9331 Y39.5351
G01 X46.9267 Y39.5335
G01 X46.9203 Y39.5326
G01 X46.9138 Y39.5323
G01 X46.9073 Y39.5326
G01 X46.9009 Y39.5335
G01 X46.8945 Y39.5351
G01 X46.8884 Y39.5373
G01 X46.8825 Y39.5401
G01 X46.8769 Y39.5434
G01 X46.8717 Y39.5473
G01 X46.8669 Y39.5517
G01 X46.8625 Y39.5565
G01 X46.8586 Y39.5617
G01 X46.8553 Y39.5673
G01 X46.8525 Y39.5732
G01 X46.8503 Y39.5793
G01 X46.8487 Y39.5857
G01 X46.8478 Y39.5921
G01 X46.8475 Y39.5986
G01 X46.8478 Y39.6051
G01 X46.8487 Y39.6115
G01 X46.8503 Y39.6179
G01 X46.8525 Y39.6240
G01 X46.8553 Y39.6299
G01 X46.8586 Y39.6355
G01 X46.8625 Y39.6407
G01 X46.8669 Y39.6455
G01 X46.8717 Y39.6499
G01 X46.8769 Y39.6538
G01 X46.8825 Y39.6571
G01 X46.8884 Y39.6599
G01 X46.8945 Y39.6621
G01 X46.9009 Y39.6637
G01 X46.9073 Y39.6646
G01 X46.9138 Y39.6649
G01 X46.9203 Y39.6646
G01 X46.9267 Y39.6637
G01 X46.9331 Y39.6621
G01 X46.9392 Y39.6599
G01 X46.9451 Y39.6571
G01 X46.9507 Y39.6538
G01 X46.9559 Y39.6499
G01 X46.9607 Y39.6455
G01 X46.9651 Y39.6407
G01 X46.9690 Y39.6355
G01 X46.9723 Y39.6299
G01 X46.9751 Y39.6240
G01 X46.9773 Y39.6179
G01 X46.9789 Y39.6115
G01 X46.9798 Y39.6051
G01 X46.9801 Y39.5986
G00 Z2.0000
G00 X46.9801 Y42.1386
G01 F60.00
G01 Z-0.0500
G01 F120.00
G01 X46.9798 Y42.1321
G01 X46.9789 Y42.1257
G01 X46.9773 Y42.1193
G01 X46.9751 Y42.1132
G01 X46.9723 Y42.1073
G01 X46.9690 Y42.1017
G01 X46.9651 Y42.0965
G01 X46.9607 Y42.0917
G01 X46.9559 Y42.0873
G01 X46.9507 Y42.0834
G01 X46.9451 Y42.0801
G01 X46.9392 Y42.0773
G01 X46.9331 Y42.0751
G01 X46.9267 Y42.0735
G01 X46.9203 Y42.0726
G01 X46.9138 Y42.0723
G01 X46.9073 Y42.0726
G01 X46.9009 Y42.0735
G01 X46.8945 Y42.0751
G01 X46.8884 Y42.0773
G01 X46.8825 Y42.0801
G01 X46.8769 Y42.0834
G01 X46.8717 Y42.0873
G01 X46.8669 Y42.0917
G01 X46.8625 Y42.0965
G01 X46.8586 Y42.1017
G01 X46.8553 Y42.1073
G01 X46.8525 Y42.1132
G01 X46.8503 Y42.1193
G01 X46.8487 Y42.1257
G01 X46.8478 Y42.1321
G01 X46.8475 Y42.1386
G01 X46.8478 Y42.1451
G01 X46.8487 Y42.1515
G01 X46.8503 Y42.1579
G01 X46.8525 Y42.1640
G01 X46.8553 Y42.1699
G01 X46.8586 Y42.1755
G01 X46.8625 Y42.1807
G01 X46.8669 Y42.1855
G01 X46.8717 Y42.1899
G01 X46.8769 Y42.1938
G01 X46.8825 Y42.1971
G01 X46.8884 Y42.1999
G01 X46.8945 Y42.2021
G01 X46.9009 Y42.2037
G01 X46.9073 Y42.2046
G01 X46.9138 Y42.2049
G01 X46.9203 Y42.2046
G01 X46.9267 Y42.2037
G01 X46.9331 Y42.2021
G01 X46.9392 Y42.1999
G01 X46.9451 Y42.1971
G01 X46.9507 Y42.1938
G01 X46.9559 Y42.1899
G01 X46.9607 Y42.1855
G01 X46.9651 Y42.1807
G01 X46.9690 Y42.1755
G01 X46.9723 Y42.1699
G01 X46.9751 Y42.1640
G01 X46.9773 Y42.1579
G01 X46.9789 Y42.1515
G01 X46.9798 Y42.1451
G01 X46.9801 Y42.1386
G00 Z2.0000
G00 X54.5239 Y42.1386
G01 F60.00
G01 Z-0.0500
G01 F120.00
G01 X54.5236 Y42.1321
G01 X54.5227 Y42.1257
G01 X54.5211 Y42.1193
G01 X54.5189 Y42.1132
G01 X54.5161 Y42.1073
G01 X54.5128 Y42.1017
G01 X54.5089 Y42.0965
G01 X54.5045 Y42.0917
G01 X54.4997 Y42.0873
G01 X54.4945 Y42.0834
G01 X54.4889 Y42.0801
G01 X54.4830 Y42.0773
G01 X54.4769 Y42.0751
G01 X54.4705 Y42.0735
G01 X54.4641 Y42.0726
G01 X54.4576 Y42.0723
G01 X54.4511 Y42.0726
G01 X54.4447 Y42.0735
G01 X54.4383 Y42.0751
G01 X54.4322 Y42.0773
G01 X54.4263 Y42.0801
G01 X54.4207 Y42.0834
G01 X54.4155 Y42.0873
G01 X54.4107 Y42.0917
G01 X54.4063 Y42.0965
G01 X54.4024 Y42.1017
G01 X54.3991 Y42.1073
G01 X54.3963 Y42.1132
G01 X54.3941 Y42.1193
G01 X54.3925 Y42.1257
G01 X54.3916 Y42.1321
G01 X54.3913 Y42.1386
G01 X54.3916 Y42.1451
G01 X54.3925 Y42.1515
G01 X54.3941 Y42.1579
G01 X54.3963 Y42.1640
G01 X54.3991 Y42.1699
G01 X54.4024 Y42.1755
G01 X54.4063 Y42.1807
G01 X54.4107 Y42.1855
G01 X54.4155 Y42.1899
G01 X54.4207 Y42.1938
G01 X54.4263 Y42.1971
G01 X54.4322 Y42.1999
G01 X54.4383 Y42.2021
G01 X54.4447 Y42.2037
G01 X54.4511 Y42.2046
G01 X54.4576 Y42.2049
G01 X54.4641 Y42.2046
G01 X54.4705 Y42.2037
G01 X54.4769 Y42.2021
G01 X54.4830 Y42.1999
G01 X54.4889 Y42.1971
G01 X54.4945 Y42.1938
G01 X54.4997 Y42.1899
G01 X54.5045 Y42.1855
G01 X54.5089 Y42.1807
G01 X54.5128 Y42.1755
G01 X54.5161 Y42.1699
G01 X54.5189 Y42.1640
G01 X54.5211 Y42.1579
G01 X54.5227 Y42.1515
G01 X54.5236 Y42.1451
G01 X54.5239 Y42.1386
G00 Z2.0000
G00 X54.5239 Y39.5986
G01 F60.00
G01 Z-0.0500
G01 F120.00
G01 X54.5236 Y39.5921
G01 X54.5227 Y39.5857
G01 X54.5211 Y39.5793
G01 X54.5189 Y39.5732
G01 X54.5161 Y39.5673
G01 X54.5128 Y39.5617
G01 X54.5089 Y39.5565
G01 X54.5045 Y39.5517
G01 X54.4997 Y39.5473
G01 X54.4945 Y39.5434
G01 X54.4889 Y39.5401
G01 X54.4830 Y39.5373
G01 X54.4769 Y39.5351
G01 X54.4705 Y39.5335
G01 X54.4641 Y39.5326
G01 X54.4576 Y39.5323
G01 X54.4511 Y39.5326
G01 X54.4447 Y39.5335
G01 X54.4383 Y39.5351
G01 X54.4322 Y39.5373
G01 X54.4263 Y39.5401
G01 X54.4207 Y39.5434
G01 X54.4155 Y39.5473
G01 X54.4107 Y39.5517
G01 X54.4063 Y39.5565
G01 X54.4024 Y39.5617
G01 X54.3991 Y39.5673
G01 X54.3963 Y39.5732
G01 X54.3941 Y39.5793
G01 X54.3925 Y39.5857
G01 X54.3916 Y39.5921
G01 X54.3913 Y39.5986
G01 X54.3916 Y39.6051
G01 X54.3925 Y39.6115
G01 X54.3941 Y39.6179
G01 X54.3963 Y39.6240
G01 X54.3991 Y39.6299
G01 X54.4024 Y39.6355
G01 X54.4063 Y39.6407
G01 X54.4107 Y39.6455
G01 X54.4155 Y39.6499
G01 X54.4207 Y39.6538
G01 X54.4263 Y39.6571
G01 X54.4322 Y39.6599
G01 X54.4383 Y39.6621
G01 X54.4447 Y39.6637
G01 X54.4511 Y39.6646
G01 X54.4576 Y39.6649
G01 X54.4641 Y39.6646
G01 X54.4705 Y39.6637
G01 X54.4769 Y39.6621
G01 X54.4830 Y39.6599
G01 X54.4889 Y39.6571
G01 X54.4945 Y39.6538
G01 X54.4997 Y39.6499
G01 X54.5045 Y39.6455
G01 X54.5089 Y39.6407
G01 X54.5128 Y39.6355
G01 X54.5161 Y39.6299
G01 X54.5189 Y39.6240
G01 X54.5211 Y39.6179
G01 X54.5227 Y39.6115
G01 X54.5236 Y39.6051
G01 X54.5239 Y39.5986
G00 Z2.0000
G00 X54.5239 Y37.0586
G01 F60.00
G01 Z-0.0500
G01 F120.00
G01 X54.5236 Y37.0521
G01 X54.5227 Y37.0457
G01 X54.5211 Y37.0393
G01 X54.5189 Y37.0332
G01 X54.5161 Y37.0273
G01 X54.5128 Y37.0217
G01 X54.5089 Y37.0165
G01 X54.5045 Y37.0117
G01 X54.4997 Y37.0073
G01 X54.4945 Y37.0034
G01 X54.4889 Y37.0001
G01 X54.4830 Y36.9973
G01 X54.4769 Y36.9951
G01 X54.4705 Y36.9935
G01 X54.4641 Y36.9926
G01 X54.4576 Y36.9923
G01 X54.4511 Y36.9926
G01 X54.4447 Y36.9935
G01 X54.4383 Y36.9951
G01 X54.4322 Y36.9973
G01 X54.4263 Y37.0001
G01 X54.4207 Y37.0034
G01 X54.4155 Y37.0073
G01 X54.4107 Y37.0117
G01 X54.4063 Y37.0165
G01 X54.4024 Y37.0217
G01 X54.3991 Y37.0273
G01 X54.3963 Y37.0332
G01 X54.3941 Y37.0393
G01 X54.3925 Y37.0457
G01 X54.3916 Y37.0521
G01 X54.3913 Y37.0586
G01 X54.3916 Y37.0651
G01 X54.3925 Y37.0715
G01 X54.3941 Y37.0779
G01 X54.3963 Y37.0840
G01 X54.3991 Y37.0899
G01 X54.4024 Y37.0955
G01 X54.4063 Y37.1007
G01 X54.4107 Y37.1055
G01 X54.4155 Y37.1099
G01 X54.4207 Y37.1138
G01 X54.4263 Y37.1171
G01 X54.4322 Y37.1199
G01 X54.4383 Y37.1221
G01 X54.4447 Y37.1237
G01 X54.4511 Y37.1246
G01 X54.4576 Y37.1249
G01 X54.4641 Y37.1246
G01 X54.4705 Y37.1237
G01 X54.4769 Y37.1221
G01 X54.4830 Y37.1199
G01 X54.4889 Y37.1171
G01 X54.4945 Y37.1138
G01 X54.4997 Y37.1099
G01 X54.5045 Y37.1055
G01 X54.5089 Y37.1007
G01 X54.5128 Y37.0955
G01 X54.5161 Y37.0899
G01 X54.5189 Y37.0840
G01 X54.5211 Y37.0779
G01 X54.5227 Y37.0715
G01 X54.5236 Y37.0651
G01 X54.5239 Y37.0586
G00 Z2.0000
G00 X54.5239 Y34.5186
G01 F60.00
G01 Z-0.0500
G01 F120.00
G01 X54.5236 Y34.5121
G01 X54.5227 Y34.5057
G01 X54.5211 Y34.4993
G01 X54.5189 Y34.4932
G01 X54.5161 Y34.4873
G01 X54.5128 Y34.4817
G01 X54.5089 Y34.4765
G01 X54.5045 Y34.4717
G01 X54.4997 Y34.4673
G01 X54.4945 Y34.4634
G01 X54.4889 Y34.4601
G01 X54.4830 Y34.4573
G01 X54.4769 Y34.4551
G01 X54.4705 Y34.4535
G01 X54.4641 Y34.4526
G01 X54.4576 Y34.4523
G01 X54.4511 Y34.4526
G01 X54.4447 Y34.4535
G01 X54.4383 Y34.4551
G01 X54.4322 Y34.4573
G01 X54.4263 Y34.4601
G01 X54.4207 Y34.4634
G01 X54.4155 Y34.4673
G01 X54.4107 Y34.4717
G01 X54.4063 Y34.4765
G01 X54.4024 Y34.4817
G01 X54.3991 Y34.4873
G01 X54.3963 Y34.4932
G01 X54.3941 Y34.4993
G01 X54.3925 Y34.5057
G01 X54.3916 Y34.5121
G01 X54.3913 Y34.5186
G01 X54.3916 Y34.5251
G01 X54.3925 Y34.5315
G01 X54.3941 Y34.5379
G01 X54.3963 Y34.5440
G01 X54.3991 Y34.5499
G01 X54.4024 Y34.5555
G01 X54.4063 Y34.5607
G01 X54.4107 Y34.5655
G01 X54.4155 Y34.5699
G01 X54.4207 Y34.5738
G01 X54.4263 Y34.5771
G01 X54.4322 Y34.5799
G01 X54.4383 Y34.5821
G01 X54.4447 Y34.5837
G01 X54.4511 Y34.5846
G01 X54.4576 Y34.5849
G01 X54.4641 Y34.5846
G01 X54.4705 Y34.5837
G01 X54.4769 Y34.5821
G01 X54.4830 Y34.5799
G01 X54.4889 Y34.5771
G01 X54.4945 Y34.5738
G01 X54.4997 Y34.5699
G01 X54.5045 Y34.5655
G01 X54.5089 Y34.5607
G01 X54.5128 Y34.5555
G01 X54.5161 Y34.5499
G01 X54.5189 Y34.5440
G01 X54.5211 Y34.5379
G01 X54.5227 Y34.5315
G01 X54.5236 Y34.5251
G01 X54.5239 Y34.5186
G00 Z2.0000
G00 X59.5277 Y34.5186
G01 F60.00
G01 Z-0.0500
G01 F120.00
G01 X59.5274 Y34.5121
G01 X59.5265 Y34.5057
G01 X59.5249 Y34.4993
G01 X59.5227 Y34.4932
G01 X59.5199 Y34.4873
G01 X59.5166 Y34.4817
G01 X59.5127 Y34.4765
G01 X59.5083 Y34.4717
G01 X59.5035 Y34.4673
G01 X59.4983 Y34.4634
G01 X59.4927 Y34.4601
G01 X59.4868 Y34.4573
G01 X59.4807 Y34.4551
G01 X59.4743 Y34.4535
G01 X59.4679 Y34.4526
G01 X59.4614 Y34.4523
G01 X59.4549 Y34.4526
G01 X59.4485 Y34.4535
G01 X59.4421 Y34.4551
G01 X59.4360 Y34.4573
G01 X59.4301 Y34.4601
G01 X59.4245 Y34.4634
G01 X59.4193 Y34.4673
G01 X59.4145 Y34.4717
G01 X59.4101 Y34.4765
G01 X59.4062 Y34.4817
G01 X59.4029 Y34.4873
G01 X59.4001 Y34.4932
G01 X59.3979 Y34.4993
G01 X59.3963 Y34.5057
G01 X59.3954 Y34.5121
G01 X59.3951 Y34.5186
G01 X59.3954 Y34.5251
G01 X59.3963 Y34.5315
G01 X59.3979 Y34.5379
G01 X59.4001 Y34.5440
G01 X59.4029 Y34.5499
G01 X59.4062 Y34.5555
G01 X59.4101 Y34.5607
G01 X59.4145 Y34.5655
G01 X59.4193 Y34.5699
G01 X59.4245 Y34.5738
G01 X59.4301 Y34.5771
G01 X59.4360 Y34.5799
G01 X59.4421 Y34.5821
G01 X59.4485 Y34.5837
G01 X59.4549 Y34.5846
G01 X59.4614 Y34.5849
G01 X59.4679 Y34.5846
G01 X59.4743 Y34.5837
G01 X59.4807 Y34.5821
G01 X59.4868 Y34.5799
G01 X59.4927 Y34.5771
G01 X59.4983 Y34.5738
G01 X59.5035 Y34.5699
G01 X59.5083 Y34.5655
G01 X59.5127 Y34.5607
G01 X59.5166 Y34.5555
G01 X59.5199 Y34.5499
G01 X59.5227 Y34.5440
G01 X59.5249 Y34.5379
G01 X59.5265 Y34.5315
G01 X59.5274 Y34.5251
G01 X59.5277 Y34.5186
G00 Z2.0000
G00 X59.5277 Y37.0586
G01 F60.00
G01 Z-0.0500
G01 F120.00
G01 X59.5274 Y37.0521
G01 X59.5265 Y37.0457
G01 X59.5249 Y37.0393
G01 X59.5227 Y37.0332
G01 X59.5199 Y37.0273
G01 X59.5166 Y37.0217
G01 X59.5127 Y37.0165
G01 X59.5083 Y37.0117
G01 X59.5035 Y37.0073
G01 X59.4983 Y37.0034
G01 X59.4927 Y37.0001
G01 X59.4868 Y36.9973
G01 X59.4807 Y36.9951
G01 X59.4743 Y36.9935
G01 X59.4679 Y36.9926
G01 X59.4614 Y36.9923
G01 X59.4549 Y36.9926
G01 X59.4485 Y36.9935
G01 X59.4421 Y36.9951
G01 X59.4360 Y36.9973
G01 X59.4301 Y37.0001
G01 X59.4245 Y37.0034
G01 X59.4193 Y37.0073
G01 X59.4145 Y37.0117
G01 X59.4101 Y37.0165
G01 X59.4062 Y37.0217
G01 X59.4029 Y37.0273
G01 X59.4001 Y37.0332
G01 X59.3979 Y37.0393
G01 X59.3963 Y37.0457
G01 X59.3954 Y37.0521
G01 X59.3951 Y37.0586
G01 X59.3954 Y37.0651
G01 X59.3963 Y37.0715
G01 X59.3979 Y37.0779
G01 X59.4001 Y37.0840
G01 X59.4029 Y37.0899
G01 X59.4062 Y37.0955
G01 X59.4101 Y37.1007
G01 X59.4145 Y37.1055
G01 X59.4193 Y37.1099
G01 X59.4245 Y37.1138
G01 X59.4301 Y37.1171
G01 X59.4360 Y37.1199
G01 X59.4421 Y37.1221
G01 X59.4485 Y37.1237
G01 X59.4549 Y37.1246
G01 X59.4614 Y37.1249
G01 X59.4679 Y37.1246
G01 X59.4743 Y37.1237
G01 X59.4807 Y37.1221
G01 X59.4868 Y37.1199
G01 X59.4927 Y37.1171
G01 X59.4983 Y37.1138
G01 X59.5035 Y37.1099
G01 X59.5083 Y37.1055
G01 X59.5127 Y37.1007
G01 X59.5166 Y37.0955
G01 X59.5199 Y37.0899
G01 X59.5227 Y37.0840
G01 X59.5249 Y37.0779
G01 X59.5265 Y37.0715
G01 X59.5274 Y37.0651
G01 X59.5277 Y37.0586
G00 Z2.0000
G00 X59.5277 Y39.5986
G01 F60.00
G01 Z-0.0500
G01 F120.00
G01 X59.5274 Y39.5921
G01 X59.5265 Y39.5857
G01 X59.5249 Y39.5793
G01 X59.5227 Y39.5732
G01 X59.5199 Y39.5673
G01 X59.5166 Y39.5617
G01 X59.5127 Y39.5565
G01 X59.5083 Y39.5517
G01 X59.5035 Y39.5473
G01 X59.4983 Y39.5434
G01 X59.4927 Y39.5401
G01 X59.4868 Y39.5373
G01 X59.4807 Y39.5351
G01 X59.4743 Y39.5335
G01 X59.4679 Y39.5326
G01 X59.4614 Y39.5323
G01 X59.4549 Y39.5326
G01 X59.4485 Y39.5335
G01 X59.4421 Y39.5351
G01 X59.4360 Y39.5373
G01 X59.4301 Y39.5401
G01 X59.4245 Y39.5434
G01 X59.4193 Y39.5473
G01 X59.4145 Y39.5517
G01 X59.4101 Y39.5565
G01 X59.4062 Y39.5617
G01 X59.4029 Y39.5673
G01 X59.4001 Y39.5732
G01 X59.3979 Y39.5793
G01 X59.3963 Y39.5857
G01 X59.3954 Y39.5921
G01 X59.3951 Y39.5986
G01 X59.3954 Y39.6051
G01 X59.3963 Y39.6115
G01 X59.3979 Y39.6179
G01 X59.4001 Y39.6240
G01 X59.4029 Y39.6299
G01 X59.4062 Y39.6355
G01 X59.4101 Y39.6407
G01 X59.4145 Y39.6455
G01 X59.4193 Y39.6499
G01 X59.4245 Y39.6538
G01 X59.4301 Y39.6571
G01 X59.4360 Y39.6599
G01 X59.4421 Y39.6621
G01 X59.4485 Y39.6637
G01 X59.4549 Y39.6646
G01 X59.4614 Y39.6649
G01 X59.4679 Y39.6646
G01 X59.4743 Y39.6637
G01 X59.4807 Y39.6621
G01 X59.4868 Y39.6599
G01 X59.4927 Y39.6571
G01 X59.4983 Y39.6538
G01 X59.5035 Y39.6499
G01 X59.5083 Y39.6455
G01 X59.5127 Y39.6407
G01 X59.5166 Y39.6355
G01 X59.5199 Y39.6299
G01 X59.5227 Y39.6240
G01 X59.5249 Y39.6179
G01 X59.5265 Y39.6115
G01 X59.5274 Y39.6051
G01 X59.5277 Y39.5986
G00 Z2.0000
G00 X59.5277 Y42.1386
G01 F60.00
G01 Z-0.0500
G01 F120.00
G01 X59.5274 Y42.1321
G01 X59.5265 Y42.1257
G01 X59.5249 Y42.1193
G01 X59.5227 Y42.1132
G01 X59.5199 Y42.1073
G01 X59.5166 Y42.1017
G01 X59.5127 Y42.0965
G01 X59.5083 Y42.0917
G01 X59.5035 Y42.0873
G01 X59.4983 Y42.0834
G01 X59.4927 Y42.0801
G01 X59.4868 Y42.0773
G01 X59.4807 Y42.0751
G01 X59.4743 Y42.0735
G01 X59.4679 Y42.0726
G01 X59.4614 Y42.0723
G01 X59.4549 Y42.0726
G01 X59.4485 Y42.0735
G01 X59.4421 Y42.0751
G01 X59.4360 Y42.0773
G01 X59.4301 Y42.0801
G01 X59.4245 Y42.0834
G01 X59.4193 Y42.0873
G01 X59.4145 Y42.0917
G01 X59.4101 Y42.0965
G01 X59.4062 Y42.1017
G01 X59.4029 Y42.1073
G01 X59.4001 Y42.1132
G01 X59.3979 Y42.1193
G01 X59.3963 Y42.1257
G01 X59.3954 Y42.1321
G01 X59.3951 Y42.1386
G01 X59.3954 Y42.1451
G01 X59.3963 Y42.1515
G01 X59.3979 Y42.1579
G01 X59.4001 Y42.1640
G01 X59.4029 Y42.1699
G01 X59.4062 Y42.1755
G01 X59.4101 Y42.1807
G01 X59.4145 Y42.1855
G01 X59.4193 Y42.1899
G01 X59.4245 Y42.1938
G01 X59.4301 Y42.1971
G01 X59.4360 Y42.1999
G01 X59.4421 Y42.2021
G01 X59.4485 Y42.2037
G01 X59.4549 Y42.2046
G01 X59.4614 Y42.2049
G01 X59.4679 Y42.2046
G01 X59.4743 Y42.2037
G01 X59.4807 Y42.2021
G01 X59.4868 Y42.1999
G01 X59.4927 Y42.1971
G01 X59.4983 Y42.1938
G01 X59.5035 Y42.1899
G01 X59.5083 Y42.1855
G01 X59.5127 Y42.1807
G01 X59.5166 Y42.1755
G01 X59.5199 Y42.1699
G01 X59.5227 Y42.1640
G01 X59.5249 Y42.1579
G01 X59.5265 Y42.1515
G01 X59.5274 Y42.1451
G01 X59.5277 Y42.1386
G00 Z2.0000
G00 X67.0715 Y42.1386
G01 F60.00
G01 Z-0.0500
G01 F120.00
G01 X67.0712 Y42.1321
G01 X67.0703 Y42.1257
G01 X67.0687 Y42.1193
G01 X67.0665 Y42.1132
G01 X67.0637 Y42.1073
G01 X67.0604 Y42.1017
G01 X67.0565 Y42.0965
G01 X67.0521 Y42.0917
G01 X67.0473 Y42.0873
G01 X67.0421 Y42.0834
G01 X67.0365 Y42.0801
G01 X67.0306 Y42.0773
G01 X67.0245 Y42.0751
G01 X67.0181 Y42.0735
G01 X67.0117 Y42.0726
G01 X67.0052 Y42.0723
G01 X66.9987 Y42.0726
G01 X66.9923 Y42.0735
G01 X66.9859 Y42.0751
G01 X66.9798 Y42.0773
G01 X66.9739 Y42.0801
G01 X66.9683 Y42.0834
G01 X66.9631 Y42.0873
G01 X66.9583 Y42.0917
G01 X66.9539 Y42.0965
G01 X66.9500 Y42.1017
G01 X66.9467 Y42.1073
G01 X66.9439 Y42.1132
G01 X66.9417 Y42.1193
G01 X66.9401 Y42.1257
G01 X66.9392 Y42.1321
G01 X66.9389 Y42.1386
G01 X66.9392 Y42.1451
G01 X66.9401 Y42.1515
G01 X66.9417 Y42.1579
G01 X66.9439 Y42.1640
G01 X66.9467 Y42.1699
G01 X66.9500 Y42.1755
G01 X66.9539 Y42.1807
G01 X66.9583 Y42.1855
G01 X66.9631 Y42.1899
G01 X66.9683 Y42.1938
G01 X66.9739 Y42.1971
G01 X66.9798 Y42.1999
G01 X66.9859 Y42.2021
G01 X66.9923 Y42.2037
G01 X66.9987 Y42.2046
G01 X67.0052 Y42.2049
G01 X67.0117 Y42.2046
G01 X67.0181 Y42.2037
G01 X67.0245 Y42.2021
G01 X67.0306 Y42.1999
G01 X67.0365 Y42.1971
G01 X67.0421 Y42.1938
G01 X67.0473 Y42.1899
G01 X67.0521 Y42.1855
G01 X67.0565 Y42.1807
G01 X67.0604 Y42.1755
G01 X67.0637 Y42.1699
G01 X67.0665 Y42.1640
G01 X67.0687 Y42.1579
G01 X67.0703 Y42.1515
G01 X67.0712 Y42.1451
G01 X67.0715 Y42.1386
G00 Z2.0000
G00 X67.0715 Y39.5986
G01 F60.00
G01 Z-0.0500
G01 F120.00
G01 X67.0712 Y39.5921
G01 X67.0703 Y39.5857
G01 X67.0687 Y39.5793
G01 X67.0665 Y39.5732
G01 X67.0637 Y39.5673
G01 X67.0604 Y39.5617
G01 X67.0565 Y39.5565
G01 X67.0521 Y39.5517
G01 X67.0473 Y39.5473
G01 X67.0421 Y39.5434
G01 X67.0365 Y39.5401
G01 X67.0306 Y39.5373
G01 X67.0245 Y39.5351
G01 X67.0181 Y39.5335
G01 X67.0117 Y39.5326
G01 X67.0052 Y39.5323
G01 X66.9987 Y39.5326
G01 X66.9923 Y39.5335
G01 X66.9859 Y39.5351
G01 X66.9798 Y39.5373
G01 X66.9739 Y39.5401
G01 X66.9683 Y39.5434
G01 X66.9631 Y39.5473
G01 X66.9583 Y39.5517
G01 X66.9539 Y39.5565
G01 X66.9500 Y39.5617
G01 X66.9467 Y39.5673
G01 X66.9439 Y39.5732
G01 X66.9417 Y39.5793
G01 X66.9401 Y39.5857
G01 X66.9392 Y39.5921
G01 X66.9389 Y39.5986
G01 X66.9392 Y39.6051
G01 X66.9401 Y39.6115
G01 X66.9417 Y39.6179
G01 X66.9439 Y39.6240
G01 X66.9467 Y39.6299
G01 X66.9500 Y39.6355
G01 X66.9539 Y39.6407
G01 X66.9583 Y39.6455
G01 X66.9631 Y39.6499
G01 X66.9683 Y39.6538
G01 X66.9739 Y39.6571
G01 X66.9798 Y39.6599
G01 X66.9859 Y39.6621
G01 X66.9923 Y39.6637
G01 X66.9987 Y39.6646
G01 X67.0052 Y39.6649
G01 X67.0117 Y39.6646
G01 X67.0181 Y39.6637
G01 X67.0245 Y39.6621
G01 X67.0306 Y39.6599
G01 X67.0365 Y39.6571
G01 X67.0421 Y39.6538
G01 X67.0473 Y39.6499
G01 X67.0521 Y39.6455
G01 X67.0565 Y39.6407
G01 X67.0604 Y39.6355
G01 X67.0637 Y39.6299
G01 X67.0665 Y39.6240
G01 X67.0687 Y39.6179
G01 X67.0703 Y39.6115
G01 X67.0712 Y39.6051
G01 X67.0715 Y39.5986
G00 Z2.0000
G00 X67.0715 Y37.0586
G01 F60.00
G01 Z-0.0500
G01 F120.00
G01 X67.0712 Y37.0521
G01 X67.0703 Y37.0457
G01 X67.0687 Y37.0393
G01 X67.0665 Y37.0332
G01 X67.0637 Y37.0273
G01 X67.0604 Y37.0217
G01 X67.0565 Y37.0165
G01 X67.0521 Y37.0117
G01 X67.0473 Y37.0073
G01 X67.0421 Y37.0034
G01 X67.0365 Y37.0001
G01 X67.0306 Y36.9973
G01 X67.0245 Y36.9951
G01 X67.0181 Y36.9935
G01 X67.0117 Y36.9926
G01 X67.0052 Y36.9923
G01 X66.9987 Y36.9926
G01 X66.9923 Y36.9935
G01 X66.9859 Y36.9951
G01 X66.9798 Y36.9973
G01 X66.9739 Y37.0001
G01 X66.9683 Y37.0034
G01 X66.9631 Y37.0073
G01 X66.9583 Y37.0117
G01 X66.9539 Y37.0165
G01 X66.9500 Y37.0217
G01 X66.9467 Y37.0273
G01 X66.9439 Y37.0332
G01 X66.9417 Y37.0393
G01 X66.9401 Y37.0457
G01 X66.9392 Y37.0521
G01 X66.9389 Y37.0586
G01 X66.9392 Y37.0651
G01 X66.9401 Y37.0715
G01 X66.9417 Y37.0779
G01 X66.9439 Y37.0840
G01 X66.9467 Y37.0899
G01 X66.9500 Y37.0955
G01 X66.9539 Y37.1007
G01 X66.9583 Y37.1055
G01 X66.9631 Y37.1099
G01 X66.9683 Y37.1138
G01 X66.9739 Y37.1171
G01 X66.9798 Y37.1199
G01 X66.9859 Y37.1221
G01 X66.9923 Y37.1237
G01 X66.9987 Y37.1246
G01 X67.0052 Y37.1249
G01 X67.0117 Y37.1246
G01 X67.0181 Y37.1237
G01 X67.0245 Y37.1221
G01 X67.0306 Y37.1199
G01 X67.0365 Y37.1171
G01 X67.0421 Y37.1138
G01 X67.0473 Y37.1099
G01 X67.0521 Y37.1055
G01 X67.0565 Y37.1007
G01 X67.0604 Y37.0955
G01 X67.0637 Y37.0899
G01 X67.0665 Y37.0840
G01 X67.0687 Y37.0779
G01 X67.0703 Y37.0715
G01 X67.0712 Y37.0651
G01 X67.0715 Y37.0586
G00 Z2.0000
G00 X67.0715 Y34.5186
G01 F60.00
G01 Z-0.0500
G01 F120.00
G01 X67.0712 Y34.5121
G01 X67.0703 Y34.5057
G01 X67.0687 Y34.4993
G01 X67.0665 Y34.4932
G01 X67.0637 Y34.4873
G01 X67.0604 Y34.4817
G01 X67.0565 Y34.4765
G01 X67.0521 Y34.4717
G01 X67.0473 Y34.4673
G01 X67.0421 Y34.4634
G01 X67.0365 Y34.4601
G01 X67.0306 Y34.4573
G01 X67.0245 Y34.4551
G01 X67.0181 Y34.4535
G01 X67.0117 Y34.4526
G01 X67.0052 Y34.4523
G01 X66.9987 Y34.4526
G01 X66.9923 Y34.4535
G01 X66.9859 Y34.4551
G01 X66.9798 Y34.4573
G01 X66.9739 Y34.4601
G01 X66.9683 Y34.4634
G01 X66.9631 Y34.4673
G01 X66.9583 Y34.4717
G01 X66.9539 Y34.4765
G01 X66.9500 Y34.4817
G01 X66.9467 Y34.4873
G01 X66.9439 Y34.4932
G01 X66.9417 Y34.4993
G01 X66.9401 Y34.5057
G01 X66.9392 Y34.5121
G01 X66.9389 Y34.5186
G01 X66.9392 Y34.5251
G01 X66.9401 Y34.5315
G01 X66.9417 Y34.5379
G01 X66.9439 Y34.5440
G01 X66.9467 Y34.5499
G01 X66.9500 Y34.5555
G01 X66.9539 Y34.5607
G01 X66.9583 Y34.5655
G01 X66.9631 Y34.5699
G01 X66.9683 Y34.5738
G01 X66.9739 Y34.5771
G01 X66.9798 Y34.5799
G01 X66.9859 Y34.5821
G01 X66.9923 Y34.5837
G01 X66.9987 Y34.5846
G01 X67.0052 Y34.5849
G01 X67.0117 Y34.5846
G01 X67.0181 Y34.5837
G01 X67.0245 Y34.5821
G01 X67.0306 Y34.5799
G01 X67.0365 Y34.5771
G01 X67.0421 Y34.5738
G01 X67.0473 Y34.5699
G01 X67.0521 Y34.5655
G01 X67.0565 Y34.5607
G01 X67.0604 Y34.5555
G01 X67.0637 Y34.5499
G01 X67.0665 Y34.5440
G01 X67.0687 Y34.5379
G01 X67.0703 Y34.5315
G01 X67.0712 Y34.5251
G01 X67.0715 Y34.5186
G00 Z2.0000
G00 X65.6663 Y27.0764
G01 F60.00
G01 Z-0.0500
G01 F120.00
G01 X65.6607 Y27.1916
G01 X65.6437 Y27.3058
G01 X65.6157 Y27.4177
G01 X65.5768 Y27.5263
G01 X65.5275 Y27.6306
G01 X65.4682 Y27.7296
G01 X65.3994 Y27.8223
G01 X65.3220 Y27.9078
G01 X65.2365 Y27.9852
G01 X65.1438 Y28.0540
G01 X65.0448 Y28.1133
G01 X64.9405 Y28.1626
G01 X64.8319 Y28.2015
G01 X64.7200 Y28.2295
G01 X64.6058 Y28.2465
G01 X64.4906 Y28.2521
G01 X64.3754 Y28.2465
G01 X64.2612 Y28.2295
G01 X64.1493 Y28.2015
G01 X64.0407 Y28.1626
G01 X63.9364 Y28.1133
G01 X63.8374 Y28.0540
G01 X63.7447 Y27.9852
G01 X63.6592 Y27.9078
G01 X63.5818 Y27.8223
G01 X63.5130 Y27.7296
G01 X63.4537 Y27.6306
G01 X63.4044 Y27.5263
G01 X63.3655 Y27.4177
G01 X63.3375 Y27.3058
G01 X63.3205 Y27.1916
G01 X63.3149 Y27.0764
G01 X63.3205 Y26.9612
G01 X63.3375 Y26.8470
G01 X63.3655 Y26.7351
G01 X63.4044 Y26.6265
G01 X63.4537 Y26.5222
G01 X63.5130 Y26.4232
G01 X63.5818 Y26.3305
G01 X63.6592 Y26.2450
G01 X63.7447 Y26.1676
G01 X63.8374 Y26.0988
G01 X63.9364 Y26.0395
G01 X64.0407 Y25.9902
G01 X64.1493 Y25.9513
G01 X64.2612 Y25.9233
G01 X64.3754 Y25.9063
G01 X64.4906 Y25.9007
G01 X64.6058 Y25.9063
G01 X64.7200 Y25.9233
G01 X64.8319 Y25.9513
G01 X64.9405 Y25.9902
G01 X65.0448 Y26.0395
G01 X65.1438 Y26.0988
G01 X65.2365 Y26.1676
G01 X65.3220 Y26.2450
G01 X65.3994 Y26.3305
G01 X65.4682 Y26.4232
G01 X65.5275 Y26.5222
G01 X65.5768 Y26.6265
G01 X65.6157 Y26.7351
G01 X65.6437 Y26.8470
G01 X65.6607 Y26.9612
G01 X65.6663 Y27.0764
G01 X65.5517 Y26.5734
G01 X63.4295 Y26.5734
G00 Z2.0000
G00 X56.3698 Y26.4994
G01 F60.00
G01 Z-0.0500
G01 F120.00
G01 X56.3698 Y27.6534
G01 X57.5238 Y27.6534
G01 X57.5238 Y26.4994
G01 X56.3698 Y26.4994
G00 Z2.0000
G00 X51.3660 Y24.0102
G01 F60.00
G01 Z-0.0500
G01 F120.00
G01 X51.3660 Y25.1642
G01 X52.5200 Y25.1642
G01 X52.5200 Y24.0102
G01 X51.3660 Y24.0102
G00 Z2.0000
G00 X46.9801 Y24.5872
G01 F60.00
G01 Z-0.0500
G01 F120.00
G01 X46.9798 Y24.5807
G01 X46.9789 Y24.5743
G01 X46.9773 Y24.5679
G01 X46.9751 Y24.5618
G01 X46.9723 Y24.5559
G01 X46.9690 Y24.5503
G01 X46.9651 Y24.5451
G01 X46.9607 Y24.5403
G01 X46.9559 Y24.5359
G01 X46.9507 Y24.5320
G01 X46.9451 Y24.5287
G01 X46.9392 Y24.5259
G01 X46.9331 Y24.5237
G01 X46.9267 Y24.5221
G01 X46.9203 Y24.5212
G01 X46.9138 Y24.5209
G01 X46.9073 Y24.5212
G01 X46.9009 Y24.5221
G01 X46.8945 Y24.5237
G01 X46.8884 Y24.5259
G01 X46.8825 Y24.5287
G01 X46.8769 Y24.5320
G01 X46.8717 Y24.5359
G01 X46.8669 Y24.5403
G01 X46.8625 Y24.5451
G01 X46.8586 Y24.5503
G01 X46.8553 Y24.5559
G01 X46.8525 Y24.5618
G01 X46.8503 Y24.5679
G01 X46.8487 Y24.5743
G01 X46.8478 Y24.5807
G01 X46.8475 Y24.5872
G01 X46.8478 Y24.5937
G01 X46.8487 Y24.6001
G01 X46.8503 Y24.6065
G01 X46.8525 Y24.6126
G01 X46.8553 Y24.6185
G01 X46.8586 Y24.6241
G01 X46.8625 Y24.6293
G01 X46.8669 Y24.6341
G01 X46.8717 Y24.6385
G01 X46.8769 Y24.6424
G01 X46.8825 Y24.6457
G01 X46.8884 Y24.6485
G01 X46.8945 Y24.6507
G01 X46.9009 Y24.6523
G01 X46.9073 Y24.6532
G01 X46.9138 Y24.6535
G01 X46.9203 Y24.6532
G01 X46.9267 Y24.6523
G01 X46.9331 Y24.6507
G01 X46.9392 Y24.6485
G01 X46.9451 Y24.6457
G01 X46.9507 Y24.6424
G01 X46.9559 Y24.6385
G01 X46.9607 Y24.6341
G01 X46.9651 Y24.6293
G01 X46.9690 Y24.6241
G01 X46.9723 Y24.6185
G01 X46.9751 Y24.6126
G01 X46.9773 Y24.6065
G01 X46.9789 Y24.6001
G01 X46.9798 Y24.5937
G01 X46.9801 Y24.5872
G00 Z2.0000
G00 X46.9801 Y22.0472
G01 F60.00
G01 Z-0.0500
G01 F120.00
G01 X46.9798 Y22.0407
G01 X46.9789 Y22.0343
G01 X46.9773 Y22.0279
G01 X46.9751 Y22.0218
G01 X46.9723 Y22.0159
G01 X46.9690 Y22.0103
G01 X46.9651 Y22.0051
G01 X46.9607 Y22.0003
G01 X46.9559 Y21.9959
G01 X46.9507 Y21.9920
G01 X46.9451 Y21.9887
G01 X46.9392 Y21.9859
G01 X46.9331 Y21.9837
G01 X46.9267 Y21.9821
G01 X46.9203 Y21.9812
G01 X46.9138 Y21.9809
G01 X46.9073 Y21.9812
G01 X46.9009 Y21.9821
G01 X46.8945 Y21.9837
G01 X46.8884 Y21.9859
G01 X46.8825 Y21.9887
G01 X46.8769 Y21.9920
G01 X46.8717 Y21.9959
G01 X46.8669 Y22.0003
G01 X46.8625 Y22.0051
G01 X46.8586 Y22.0103
G01 X46.8553 Y22.0159
G01 X46.8525 Y22.0218
G01 X46.8503 Y22.0279
G01 X46.8487 Y22.0343
G01 X46.8478 Y22.0407
G01 X46.8475 Y22.0472
G01 X46.8478 Y22.0537
G01 X46.8487 Y22.0601
G01 X46.8503 Y22.0665
G01 X46.8525 Y22.0726
G01 X46.8553 Y22.0785
G01 X46.8586 Y22.0841
G01 X46.8625 Y22.0893
G01 X46.8669 Y22.0941
G01 X46.8717 Y22.0985
G01 X46.8769 Y22.1024
G01 X46.8825 Y22.1057
G01 X46.8884 Y22.1085
G01 X46.8945 Y22.1107
G01 X46.9009 Y22.1123
G01 X46.9073 Y22.1132
G01 X46.9138 Y22.1135
G01 X46.9203 Y22.1132
G01 X46.9267 Y22.1123
G01 X46.9331 Y22.1107
G01 X46.9392 Y22.1085
G01 X46.9451 Y22.1057
G01 X46.9507 Y22.1024
G01 X46.9559 Y22.0985
G01 X46.9607 Y22.0941
G01 X46.9651 Y22.0893
G01 X46.9690 Y22.0841
G01 X46.9723 Y22.0785
G01 X46.9751 Y22.0726
G01 X46.9773 Y22.0665
G01 X46.9789 Y22.0601
G01 X46.9798 Y22.0537
G01 X46.9801 Y22.0472
G00 Z2.0000
G00 X44.3075 Y22.0472
G01 F60.00
G01 Z-0.0500
G01 F120.00
G01 X44.3078 Y22.0537
G01 X44.3087 Y22.0601
G01 X44.3103 Y22.0665
G01 X44.3125 Y22.0726
G01 X44.3153 Y22.0785
G01 X44.3186 Y22.0841
G01 X44.3225 Y22.0893
G01 X44.3269 Y22.0941
G01 X44.3317 Y22.0985
G01 X44.3369 Y22.1024
G01 X44.3425 Y22.1057
G01 X44.3484 Y22.1085
G01 X44.3545 Y22.1107
G01 X44.3609 Y22.1123
G01 X44.3673 Y22.1132
G01 X44.3738 Y22.1135
G01 X44.3803 Y22.1132
G01 X44.3867 Y22.1123
G01 X44.3931 Y22.1107
G01 X44.3992 Y22.1085
G01 X44.4051 Y22.1057
G01 X44.4107 Y22.1024
G01 X44.4159 Y22.0985
G01 X44.4207 Y22.0941
G01 X44.4251 Y22.0893
G01 X44.4290 Y22.0841
G01 X44.4323 Y22.0785
G01 X44.4351 Y22.0726
G01 X44.4373 Y22.0665
G01 X44.4389 Y22.0601
G01 X44.4398 Y22.0537
G01 X44.4401 Y22.0472
G01 X44.4398 Y22.0407
G01 X44.4389 Y22.0343
G01 X44.4373 Y22.0279
G01 X44.4351 Y22.0218
G01 X44.4323 Y22.0159
G01 X44.4290 Y22.0103
G01 X44.4251 Y22.0051
G01 X44.4207 Y22.0003
G01 X44.4159 Y21.9959
G01 X44.4107 Y21.9920
G01 X44.4051 Y21.9887
G01 X44.3992 Y21.9859
G01 X44.3931 Y21.9837
G01 X44.3867 Y21.9821
G01 X44.3803 Y21.9812
G01 X44.3738 Y21.9809
G01 X44.3673 Y21.9812
G01 X44.3609 Y21.9821
G01 X44.3545 Y21.9837
G01 X44.3484 Y21.9859
G01 X44.3425 Y21.9887
G01 X44.3369 Y21.9920
G01 X44.3317 Y21.9959
G01 X44.3269 Y22.0003
G01 X44.3225 Y22.0051
G01 X44.3186 Y22.0103
G01 X44.3153 Y22.0159
G01 X44.3125 Y22.0218
G01 X44.3103 Y22.0279
G01 X44.3087 Y22.0343
G01 X44.3078 Y22.0407
G01 X44.3075 Y22.0472
G00 Z2.0000
G00 X44.3075 Y24.5872
G01 F60.00
G01 Z-0.0500
G01 F120.00
G01 X44.3078 Y24.5937
G01 X44.3087 Y24.6001
G01 X44.3103 Y24.6065
G01 X44.3125 Y24.6126
G01 X44.3153 Y24.6185
G01 X44.3186 Y24.6241
G01 X44.3225 Y24.6293
G01 X44.3269 Y24.6341
G01 X44.3317 Y24.6385
G01 X44.3369 Y24.6424
G01 X44.3425 Y24.6457
G01 X44.3484 Y24.6485
G01 X44.3545 Y24.6507
G01 X44.3609 Y24.6523
G01 X44.3673 Y24.6532
G01 X44.3738 Y24.6535
G01 X44.3803 Y24.6532
G01 X44.3867 Y24.6523
G01 X44.3931 Y24.6507
G01 X44.3992 Y24.6485
G01 X44.4051 Y24.6457
G01 X44.4107 Y24.6424
G01 X44.4159 Y24.6385
G01 X44.4207 Y24.6341
G01 X44.4251 Y24.6293
G01 X44.4290 Y24.6241
G01 X44.4323 Y24.6185
G01 X44.4351 Y24.6126
G01 X44.4373 Y24.6065
G01 X44.4389 Y24.6001
G01 X44.4398 Y24.5937
G01 X44.4401 Y24.5872
G01 X44.4398 Y24.5807
G01 X44.4389 Y24.5743
G01 X44.4373 Y24.5679
G01 X44.4351 Y24.5618
G01 X44.4323 Y24.5559
G01 X44.4290 Y24.5503
G01 X44.4251 Y24.5451
G01 X44.4207 Y24.5403
G01 X44.4159 Y24.5359
G01 X44.4107 Y24.5320
G01 X44.4051 Y24.5287
G01 X44.3992 Y24.5259
G01 X44.3931 Y24.5237
G01 X44.3867 Y24.5221
G01 X44.3803 Y24.5212
G01 X44.3738 Y24.5209
G01 X44.3673 Y24.5212
G01 X44.3609 Y24.5221
G01 X44.3545 Y24.5237
G01 X44.3484 Y24.5259
G01 X44.3425 Y24.5287
G01 X44.3369 Y24.5320
G01 X44.3317 Y24.5359
G01 X44.3269 Y24.5403
G01 X44.3225 Y24.5451
G01 X44.3186 Y24.5503
G01 X44.3153 Y24.5559
G01 X44.3125 Y24.5618
G01 X44.3103 Y24.5679
G01 X44.3087 Y24.5743
G01 X44.3078 Y24.5807
G01 X44.3075 Y24.5872
G00 Z2.0000
G00 X44.3075 Y27.1272
G01 F60.00
G01 Z-0.0500
G01 F120.00
G01 X44.3078 Y27.1337
G01 X44.3087 Y27.1401
G01 X44.3103 Y27.1465
G01 X44.3125 Y27.1526
G01 X44.3153 Y27.1585
G01 X44.3186 Y27.1641
G01 X44.3225 Y27.1693
G01 X44.3269 Y27.1741
G01 X44.3317 Y27.1785
G01 X44.3369 Y27.1824
G01 X44.3425 Y27.1857
G01 X44.3484 Y27.1885
G01 X44.3545 Y27.1907
G01 X44.3609 Y27.1923
G01 X44.3673 Y27.1932
G01 X44.3738 Y27.1935
G01 X44.3803 Y27.1932
G01 X44.3867 Y27.1923
G01 X44.3931 Y27.1907
G01 X44.3992 Y27.1885
G01 X44.4051 Y27.1857
G01 X44.4107 Y27.1824
G01 X44.4159 Y27.1785
G01 X44.4207 Y27.1741
G01 X44.4251 Y27.1693
G01 X44.4290 Y27.1641
G01 X44.4323 Y27.1585
G01 X44.4351 Y27.1526
G01 X44.4373 Y27.1465
G01 X44.4389 Y27.1401
G01 X44.4398 Y27.1337
G01 X44.4401 Y27.1272
G01 X44.4398 Y27.1207
G01 X44.4389 Y27.1143
G01 X44.4373 Y27.1079
G01 X44.4351 Y27.1018
G01 X44.4323 Y27.0959
G01 X44.4290 Y27.0903
G01 X44.4251 Y27.0851
G01 X44.4207 Y27.0803
G01 X44.4159 Y27.0759
G01 X44.4107 Y27.0720
G01 X44.4051 Y27.0687
G01 X44.3992 Y27.0659
G01 X44.3931 Y27.0637
G01 X44.3867 Y27.0621
G01 X44.3803 Y27.0612
G01 X44.3738 Y27.0609
G01 X44.3673 Y27.0612
G01 X44.3609 Y27.0621
G01 X44.3545 Y27.0637
G01 X44.3484 Y27.0659
G01 X44.3425 Y27.0687
G01 X44.3369 Y27.0720
G01 X44.3317 Y27.0759
G01 X44.3269 Y27.0803
G01 X44.3225 Y27.0851
G01 X44.3186 Y27.0903
G01 X44.3153 Y27.0959
G01 X44.3125 Y27.1018
G01 X44.3103 Y27.1079
G01 X44.3087 Y27.1143
G01 X44.3078 Y27.1207
G01 X44.3075 Y27.1272
G00 Z2.0000
G00 X46.9801 Y27.1272
G01 F60.00
G01 Z-0.0500
G01 F120.00
G01 X46.9798 Y27.1207
G01 X46.9789 Y27.1143
G01 X46.9773 Y27.1079
G01 X46.9751 Y27.1018
G01 X46.9723 Y27.0959
G01 X46.9690 Y27.0903
G01 X46.9651 Y27.0851
G01 X46.9607 Y27.0803
G01 X46.9559 Y27.0759
G01 X46.9507 Y27.0720
G01 X46.9451 Y27.0687
G01 X46.9392 Y27.0659
G01 X46.9331 Y27.0637
G01 X46.9267 Y27.0621
G01 X46.9203 Y27.0612
G01 X46.9138 Y27.0609
G01 X46.9073 Y27.0612
G01 X46.9009 Y27.0621
G01 X46.8945 Y27.0637
G01 X46.8884 Y27.0659
G01 X46.8825 Y27.0687
G01 X46.8769 Y27.0720
G01 X46.8717 Y27.0759
G01 X46.8669 Y27.0803
G01 X46.8625 Y27.0851
G01 X46.8586 Y27.0903
G01 X46.8553 Y27.0959
G01 X46.8525 Y27.1018
G01 X46.8503 Y27.1079
G01 X46.8487 Y27.1143
G01 X46.8478 Y27.1207
G01 X46.8475 Y27.1272
G01 X46.8478 Y27.1337
G01 X46.8487 Y27.1401
G01 X46.8503 Y27.1465
G01 X46.8525 Y27.1526
G01 X46.8553 Y27.1585
G01 X46.8586 Y27.1641
G01 X46.8625 Y27.1693
G01 X46.8669 Y27.1741
G01 X46.8717 Y27.1785
G01 X46.8769 Y27.1824
G01 X46.8825 Y27.1857
G01 X46.8884 Y27.1885
G01 X46.8945 Y27.1907
G01 X46.9009 Y27.1923
G01 X46.9073 Y27.1932
G01 X46.9138 Y27.1935
G01 X46.9203 Y27.1932
G01 X46.9267 Y27.1923
G01 X46.9331 Y27.1907
G01 X46.9392 Y27.1885
G01 X46.9451 Y27.1857
G01 X46.9507 Y27.1824
G01 X46.9559 Y27.1785
G01 X46.9607 Y27.1741
G01 X46.9651 Y27.1693
G01 X46.9690 Y27.1641
G01 X46.9723 Y27.1585
G01 X46.9751 Y27.1526
G01 X46.9773 Y27.1465
G01 X46.9789 Y27.1401
G01 X46.9798 Y27.1337
G01 X46.9801 Y27.1272
G00 Z2.0000
G00 X46.9801 Y17.0688
G01 F60.00
G01 Z-0.0500
G01 F120.00
G01 X46.9798 Y17.0623
G01 X46.9789 Y17.0559
G01 X46.9773 Y17.0495
G01 X46.9751 Y17.0434
G01 X46.9723 Y17.0375
G01 X46.9690 Y17.0319
G01 X46.9651 Y17.0267
G01 X46.9607 Y17.0219
G01 X46.9559 Y17.0175
G01 X46.9507 Y17.0136
G01 X46.9451 Y17.0103
G01 X46.9392 Y17.0075
G01 X46.9331 Y17.0053
G01 X46.9267 Y17.0037
G01 X46.9203 Y17.0028
G01 X46.9138 Y17.0025
G01 X46.9073 Y17.0028
G01 X46.9009 Y17.0037
G01 X46.8945 Y17.0053
G01 X46.8884 Y17.0075
G01 X46.8825 Y17.0103
G01 X46.8769 Y17.0136
G01 X46.8717 Y17.0175
G01 X46.8669 Y17.0219
G01 X46.8625 Y17.0267
G01 X46.8586 Y17.0319
G01 X46.8553 Y17.0375
G01 X46.8525 Y17.0434
G01 X46.8503 Y17.0495
G01 X46.8487 Y17.0559
G01 X46.8478 Y17.0623
G01 X46.8475 Y17.0688
G01 X46.8478 Y17.0753
G01 X46.8487 Y17.0817
G01 X46.8503 Y17.0881
G01 X46.8525 Y17.0942
G01 X46.8553 Y17.1001
G01 X46.8586 Y17.1057
G01 X46.8625 Y17.1109
G01 X46.8669 Y17.1157
G01 X46.8717 Y17.1201
G01 X46.8769 Y17.1240
G01 X46.8825 Y17.1273
G01 X46.8884 Y17.1301
G01 X46.8945 Y17.1323
G01 X46.9009 Y17.1339
G01 X46.9073 Y17.1348
G01 X46.9138 Y17.1351
G01 X46.9203 Y17.1348
G01 X46.9267 Y17.1339
G01 X46.9331 Y17.1323
G01 X46.9392 Y17.1301
G01 X46.9451 Y17.1273
G01 X46.9507 Y17.1240
G01 X46.9559 Y17.1201
G01 X46.9607 Y17.1157
G01 X46.9651 Y17.1109
G01 X46.9690 Y17.1057
G01 X46.9723 Y17.1001
G01 X46.9751 Y17.0942
G01 X46.9773 Y17.0881
G01 X46.9789 Y17.0817
G01 X46.9798 Y17.0753
G01 X46.9801 Y17.0688
G00 Z2.0000
G00 X46.9801 Y14.5288
G01 F60.00
G01 Z-0.0500
G01 F120.00
G01 X46.9798 Y14.5223
G01 X46.9789 Y14.5159
G01 X46.9773 Y14.5095
G01 X46.9751 Y14.5034
G01 X46.9723 Y14.4975
G01 X46.9690 Y14.4919
G01 X46.9651 Y14.4867
G01 X46.9607 Y14.4819
G01 X46.9559 Y14.4775
G01 X46.9507 Y14.4736
G01 X46.9451 Y14.4703
G01 X46.9392 Y14.4675
G01 X46.9331 Y14.4653
G01 X46.9267 Y14.4637
G01 X46.9203 Y14.4628
G01 X46.9138 Y14.4625
G01 X46.9073 Y14.4628
G01 X46.9009 Y14.4637
G01 X46.8945 Y14.4653
G01 X46.8884 Y14.4675
G01 X46.8825 Y14.4703
G01 X46.8769 Y14.4736
G01 X46.8717 Y14.4775
G01 X46.8669 Y14.4819
G01 X46.8625 Y14.4867
G01 X46.8586 Y14.4919
G01 X46.8553 Y14.4975
G01 X46.8525 Y14.5034
G01 X46.8503 Y14.5095
G01 X46.8487 Y14.5159
G01 X46.8478 Y14.5223
G01 X46.8475 Y14.5288
G01 X46.8478 Y14.5353
G01 X46.8487 Y14.5417
G01 X46.8503 Y14.5481
G01 X46.8525 Y14.5542
G01 X46.8553 Y14.5601
G01 X46.8586 Y14.5657
G01 X46.8625 Y14.5709
G01 X46.8669 Y14.5757
G01 X46.8717 Y14.5801
G01 X46.8769 Y14.5840
G01 X46.8825 Y14.5873
G01 X46.8884 Y14.5901
G01 X46.8945 Y14.5923
G01 X46.9009 Y14.5939
G01 X46.9073 Y14.5948
G01 X46.9138 Y14.5951
G01 X46.9203 Y14.5948
G01 X46.9267 Y14.5939
G01 X46.9331 Y14.5923
G01 X46.9392 Y14.5901
G01 X46.9451 Y14.5873
G01 X46.9507 Y14.5840
G01 X46.9559 Y14.5801
G01 X46.9607 Y14.5757
G01 X46.9651 Y14.5709
G01 X46.9690 Y14.5657
G01 X46.9723 Y14.5601
G01 X46.9751 Y14.5542
G01 X46.9773 Y14.5481
G01 X46.9789 Y14.5417
G01 X46.9798 Y14.5353
G01 X46.9801 Y14.5288
G00 Z2.0000
G00 X46.9801 Y11.9888
G01 F60.00
G01 Z-0.0500
G01 F120.00
G01 X46.9798 Y11.9823
G01 X46.9789 Y11.9759
G01 X46.9773 Y11.9695
G01 X46.9751 Y11.9634
G01 X46.9723 Y11.9575
G01 X46.9690 Y11.9519
G01 X46.9651 Y11.9467
G01 X46.9607 Y11.9419
G01 X46.9559 Y11.9375
G01 X46.9507 Y11.9336
G01 X46.9451 Y11.9303
G01 X46.9392 Y11.9275
G01 X46.9331 Y11.9253
G01 X46.9267 Y11.9237
G01 X46.9203 Y11.9228
G01 X46.9138 Y11.9225
G01 X46.9073 Y11.9228
G01 X46.9009 Y11.9237
G01 X46.8945 Y11.9253
G01 X46.8884 Y11.9275
G01 X46.8825 Y11.9303
G01 X46.8769 Y11.9336
G01 X46.8717 Y11.9375
G01 X46.8669 Y11.9419
G01 X46.8625 Y11.9467
G01 X46.8586 Y11.9519
G01 X46.8553 Y11.9575
G01 X46.8525 Y11.9634
G01 X46.8503 Y11.9695
G01 X46.8487 Y11.9759
G01 X46.8478 Y11.9823
G01 X46.8475 Y11.9888
G01 X46.8478 Y11.9953
G01 X46.8487 Y12.0017
G01 X46.8503 Y12.0081
G01 X46.8525 Y12.0142
G01 X46.8553 Y12.0201
G01 X46.8586 Y12.0257
G01 X46.8625 Y12.0309
G01 X46.8669 Y12.0357
G01 X46.8717 Y12.0401
G01 X46.8769 Y12.0440
G01 X46.8825 Y12.0473
G01 X46.8884 Y12.0501
G01 X46.8945 Y12.0523
G01 X46.9009 Y12.0539
G01 X46.9073 Y12.0548
G01 X46.9138 Y12.0551
G01 X46.9203 Y12.0548
G01 X46.9267 Y12.0539
G01 X46.9331 Y12.0523
G01 X46.9392 Y12.0501
G01 X46.9451 Y12.0473
G01 X46.9507 Y12.0440
G01 X46.9559 Y12.0401
G01 X46.9607 Y12.0357
G01 X46.9651 Y12.0309
G01 X46.9690 Y12.0257
G01 X46.9723 Y12.0201
G01 X46.9751 Y12.0142
G01 X46.9773 Y12.0081
G01 X46.9789 Y12.0017
G01 X46.9798 Y11.9953
G01 X46.9801 Y11.9888
G00 Z2.0000
G00 X44.3075 Y11.9888
G01 F60.00
G01 Z-0.0500
G01 F120.00
G01 X44.3078 Y11.9953
G01 X44.3087 Y12.0017
G01 X44.3103 Y12.0081
G01 X44.3125 Y12.0142
G01 X44.3153 Y12.0201
G01 X44.3186 Y12.0257
G01 X44.3225 Y12.0309
G01 X44.3269 Y12.0357
G01 X44.3317 Y12.0401
G01 X44.3369 Y12.0440
G01 X44.3425 Y12.0473
G01 X44.3484 Y12.0501
G01 X44.3545 Y12.0523
G01 X44.3609 Y12.0539
G01 X44.3673 Y12.0548
G01 X44.3738 Y12.0551
G01 X44.3803 Y12.0548
G01 X44.3867 Y12.0539
G01 X44.3931 Y12.0523
G01 X44.3992 Y12.0501
G01 X44.4051 Y12.0473
G01 X44.4107 Y12.0440
G01 X44.4159 Y12.0401
G01 X44.4207 Y12.0357
G01 X44.4251 Y12.0309
G01 X44.4290 Y12.0257
G01 X44.4323 Y12.0201
G01 X44.4351 Y12.0142
G01 X44.4373 Y12.0081
G01 X44.4389 Y12.0017
G01 X44.4398 Y11.9953
G01 X44.4401 Y11.9888
G01 X44.4398 Y11.9823
G01 X44.4389 Y11.9759
G01 X44.4373 Y11.9695
G01 X44.4351 Y11.9634
G01 X44.4323 Y11.9575
G01 X44.4290 Y11.9519
G01 X44.4251 Y11.9467
G01 X44.4207 Y11.9419
G01 X44.4159 Y11.9375
G01 X44.4107 Y11.9336
G01 X44.4051 Y11.9303
G01 X44.3992 Y11.9275
G01 X44.3931 Y11.9253
G01 X44.3867 Y11.9237
G01 X44.3803 Y11.9228
G01 X44.3738 Y11.9225
G01 X44.3673 Y11.9228
G01 X44.3609 Y11.9237
G01 X44.3545 Y11.9253
G01 X44.3484 Y11.9275
G01 X44.3425 Y11.9303
G01 X44.3369 Y11.9336
G01 X44.3317 Y11.9375
G01 X44.3269 Y11.9419
G01 X44.3225 Y11.9467
G01 X44.3186 Y11.9519
G01 X44.3153 Y11.9575
G01 X44.3125 Y11.9634
G01 X44.3103 Y11.9695
G01 X44.3087 Y11.9759
G01 X44.3078 Y11.9823
G01 X44.3075 Y11.9888
G00 Z2.0000
G00 X44.3075 Y14.5288
G01 F60.00
G01 Z-0.0500
G01 F120.00
G01 X44.3078 Y14.5353
G01 X44.3087 Y14.5417
G01 X44.3103 Y14.5481
G01 X44.3125 Y14.5542
G01 X44.3153 Y14.5601
G01 X44.3186 Y14.5657
G01 X44.3225 Y14.5709
G01 X44.3269 Y14.5757
G01 X44.3317 Y14.5801
G01 X44.3369 Y14.5840
G01 X44.3425 Y14.5873
G01 X44.3484 Y14.5901
G01 X44.3545 Y14.5923
G01 X44.3609 Y14.5939
G01 X44.3673 Y14.5948
G01 X44.3738 Y14.5951
G01 X44.3803 Y14.5948
G01 X44.3867 Y14.5939
G01 X44.3931 Y14.5923
G01 X44.3992 Y14.5901
G01 X44.4051 Y14.5873
G01 X44.4107 Y14.5840
G01 X44.4159 Y14.5801
G01 X44.4207 Y14.5757
G01 X44.4251 Y14.5709
G01 X44.4290 Y14.5657
G01 X44.4323 Y14.5601
G01 X44.4351 Y14.5542
G01 X44.4373 Y14.5481
G01 X44.4389 Y14.5417
G01 X44.4398 Y14.5353
G01 X44.4401 Y14.5288
G01 X44.4398 Y14.5223
G01 X44.4389 Y14.5159
G01 X44.4373 Y14.5095
G01 X44.4351 Y14.5034
G01 X44.4323 Y14.4975
G01 X44.4290 Y14.4919
G01 X44.4251 Y14.4867
G01 X44.4207 Y14.4819
G01 X44.4159 Y14.4775
G01 X44.4107 Y14.4736
G01 X44.4051 Y14.4703
G01 X44.3992 Y14.4675
G01 X44.3931 Y14.4653
G01 X44.3867 Y14.4637
G01 X44.3803 Y14.4628
G01 X44.3738 Y14.4625
G01 X44.3673 Y14.4628
G01 X44.3609 Y14.4637
G01 X44.3545 Y14.4653
G01 X44.3484 Y14.4675
G01 X44.3425 Y14.4703
G01 X44.3369 Y14.4736
G01 X44.3317 Y14.4775
G01 X44.3269 Y14.4819
G01 X44.3225 Y14.4867
G01 X44.3186 Y14.4919
G01 X44.3153 Y14.4975
G01 X44.3125 Y14.5034
G01 X44.3103 Y14.5095
G01 X44.3087 Y14.5159
G01 X44.3078 Y14.5223
G01 X44.3075 Y14.5288
G00 Z2.0000
G00 X44.3075 Y17.0688
G01 F60.00
G01 Z-0.0500
G01 F120.00
G01 X44.3078 Y17.0753
G01 X44.3087 Y17.0817
G01 X44.3103 Y17.0881
G01 X44.3125 Y17.0942
G01 X44.3153 Y17.1001
G01 X44.3186 Y17.1057
G01 X44.3225 Y17.1109
G01 X44.3269 Y17.1157
G01 X44.3317 Y17.1201
G01 X44.3369 Y17.1240
G01 X44.3425 Y17.1273
G01 X44.3484 Y17.1301
G01 X44.3545 Y17.1323
G01 X44.3609 Y17.1339
G01 X44.3673 Y17.1348
G01 X44.3738 Y17.1351
G01 X44.3803 Y17.1348
G01 X44.3867 Y17.1339
G01 X44.3931 Y17.1323
G01 X44.3992 Y17.1301
G01 X44.4051 Y17.1273
G01 X44.4107 Y17.1240
G01 X44.4159 Y17.1201
G01 X44.4207 Y17.1157
G01 X44.4251 Y17.1109
G01 X44.4290 Y17.1057
G01 X44.4323 Y17.1001
G01 X44.4351 Y17.0942
G01 X44.4373 Y17.0881
G01 X44.4389 Y17.0817
G01 X44.4398 Y17.0753
G01 X44.4401 Y17.0688
G01 X44.4398 Y17.0623
G01 X44.4389 Y17.0559
G01 X44.4373 Y17.0495
G01 X44.4351 Y17.0434
G01 X44.4323 Y17.0375
G01 X44.4290 Y17.0319
G01 X44.4251 Y17.0267
G01 X44.4207 Y17.0219
G01 X44.4159 Y17.0175
G01 X44.4107 Y17.0136
G01 X44.4051 Y17.0103
G01 X44.3992 Y17.0075
G01 X44.3931 Y17.0053
G01 X44.3867 Y17.0037
G01 X44.3803 Y17.0028
G01 X44.3738 Y17.0025
G01 X44.3673 Y17.0028
G01 X44.3609 Y17.0037
G01 X44.3545 Y17.0053
G01 X44.3484 Y17.0075
G01 X44.3425 Y17.0103
G01 X44.3369 Y17.0136
G01 X44.3317 Y17.0175
G01 X44.3269 Y17.0219
G01 X44.3225 Y17.0267
G01 X44.3186 Y17.0319
G01 X44.3153 Y17.0375
G01 X44.3125 Y17.0434
G01 X44.3103 Y17.0495
G01 X44.3087 Y17.0559
G01 X44.3078 Y17.0623
G01 X44.3075 Y17.0688
G00 Z2.0000
G00 X51.3660 Y13.9518
G01 F60.00
G01 Z-0.0500
G01 F120.00
G01 X51.3660 Y15.1058
G01 X52.5200 Y15.1058
G01 X52.5200 Y13.9518
G01 X51.3660 Y13.9518
G00 Z2.0000
G00 X36.3038 Y13.9518
G01 F60.00
G01 Z-0.0500
G01 F120.00
G01 X36.3038 Y15.1058
G01 X37.4578 Y15.1058
G01 X37.4578 Y13.9518
G01 X36.3038 Y13.9518
G00 Z2.0000
G00 X31.9179 Y19.5326
G01 F60.00
G01 Z-0.0500
G01 F120.00
G01 X31.9176 Y19.5261
G01 X31.9167 Y19.5197
G01 X31.9151 Y19.5133
G01 X31.9129 Y19.5072
G01 X31.9101 Y19.5013
G01 X31.9068 Y19.4957
G01 X31.9029 Y19.4905
G01 X31.8985 Y19.4857
G01 X31.8937 Y19.4813
G01 X31.8885 Y19.4774
G01 X31.8829 Y19.4741
G01 X31.8770 Y19.4713
G01 X31.8709 Y19.4691
G01 X31.8645 Y19.4675
G01 X31.8581 Y19.4666
G01 X31.8516 Y19.4663
G01 X31.8451 Y19.4666
G01 X31.8387 Y19.4675
G01 X31.8323 Y19.4691
G01 X31.8262 Y19.4713
G01 X31.8203 Y19.4741
G01 X31.8147 Y19.4774
G01 X31.8095 Y19.4813
G01 X31.8047 Y19.4857
G01 X31.8003 Y19.4905
G01 X31.7964 Y19.4957
G01 X31.7931 Y19.5013
G01 X31.7903 Y19.5072
G01 X31.7881 Y19.5133
G01 X31.7865 Y19.5197
G01 X31.7856 Y19.5261
G01 X31.7853 Y19.5326
G01 X31.7856 Y19.5391
G01 X31.7865 Y19.5455
G01 X31.7881 Y19.5519
G01 X31.7903 Y19.5580
G01 X31.7931 Y19.5639
G01 X31.7964 Y19.5695
G01 X31.8003 Y19.5747
G01 X31.8047 Y19.5795
G01 X31.8095 Y19.5839
G01 X31.8147 Y19.5878
G01 X31.8203 Y19.5911
G01 X31.8262 Y19.5939
G01 X31.8323 Y19.5961
G01 X31.8387 Y19.5977
G01 X31.8451 Y19.5986
G01 X31.8516 Y19.5989
G01 X31.8581 Y19.5986
G01 X31.8645 Y19.5977
G01 X31.8709 Y19.5961
G01 X31.8770 Y19.5939
G01 X31.8829 Y19.5911
G01 X31.8885 Y19.5878
G01 X31.8937 Y19.5839
G01 X31.8985 Y19.5795
G01 X31.9029 Y19.5747
G01 X31.9068 Y19.5695
G01 X31.9101 Y19.5639
G01 X31.9129 Y19.5580
G01 X31.9151 Y19.5519
G01 X31.9167 Y19.5455
G01 X31.9176 Y19.5391
G01 X31.9179 Y19.5326
G00 Z2.0000
G00 X31.9179 Y22.0726
G01 F60.00
G01 Z-0.0500
G01 F120.00
G01 X31.9176 Y22.0661
G01 X31.9167 Y22.0597
G01 X31.9151 Y22.0533
G01 X31.9129 Y22.0472
G01 X31.9101 Y22.0413
G01 X31.9068 Y22.0357
G01 X31.9029 Y22.0305
G01 X31.8985 Y22.0257
G01 X31.8937 Y22.0213
G01 X31.8885 Y22.0174
G01 X31.8829 Y22.0141
G01 X31.8770 Y22.0113
G01 X31.8709 Y22.0091
G01 X31.8645 Y22.0075
G01 X31.8581 Y22.0066
G01 X31.8516 Y22.0063
G01 X31.8451 Y22.0066
G01 X31.8387 Y22.0075
G01 X31.8323 Y22.0091
G01 X31.8262 Y22.0113
G01 X31.8203 Y22.0141
G01 X31.8147 Y22.0174
G01 X31.8095 Y22.0213
G01 X31.8047 Y22.0257
G01 X31.8003 Y22.0305
G01 X31.7964 Y22.0357
G01 X31.7931 Y22.0413
G01 X31.7903 Y22.0472
G01 X31.7881 Y22.0533
G01 X31.7865 Y22.0597
G01 X31.7856 Y22.0661
G01 X31.7853 Y22.0726
G01 X31.7856 Y22.0791
G01 X31.7865 Y22.0855
G01 X31.7881 Y22.0919
G01 X31.7903 Y22.0980
G01 X31.7931 Y22.1039
G01 X31.7964 Y22.1095
G01 X31.8003 Y22.1147
G01 X31.8047 Y22.1195
G01 X31.8095 Y22.1239
G01 X31.8147 Y22.1278
G01 X31.8203 Y22.1311
G01 X31.8262 Y22.1339
G01 X31.8323 Y22.1361
G01 X31.8387 Y22.1377
G01 X31.8451 Y22.1386
G01 X31.8516 Y22.1389
G01 X31.8581 Y22.1386
G01 X31.8645 Y22.1377
G01 X31.8709 Y22.1361
G01 X31.8770 Y22.1339
G01 X31.8829 Y22.1311
G01 X31.8885 Y22.1278
G01 X31.8937 Y22.1239
G01 X31.8985 Y22.1195
G01 X31.9029 Y22.1147
G01 X31.9068 Y22.1095
G01 X31.9101 Y22.1039
G01 X31.9129 Y22.0980
G01 X31.9151 Y22.0919
G01 X31.9167 Y22.0855
G01 X31.9176 Y22.0791
G01 X31.9179 Y22.0726
G00 Z2.0000
G00 X31.2746 Y26.4994
G01 F60.00
G01 Z-0.0500
G01 F120.00
G01 X31.2746 Y27.6534
G01 X32.4286 Y27.6534
G01 X32.4286 Y26.4994
G01 X31.2746 Y26.4994
G00 Z2.0000
G00 X36.3038 Y24.0102
G01 F60.00
G01 Z-0.0500
G01 F120.00
G01 X36.3038 Y25.1642
G01 X37.4578 Y25.1642
G01 X37.4578 Y24.0102
G01 X36.3038 Y24.0102
G00 Z2.0000
G00 X24.3995 Y24.6888
G01 F60.00
G01 Z-0.0500
G01 F120.00
G01 X24.3992 Y24.6823
G01 X24.3983 Y24.6759
G01 X24.3967 Y24.6695
G01 X24.3945 Y24.6634
G01 X24.3917 Y24.6575
G01 X24.3884 Y24.6519
G01 X24.3845 Y24.6467
G01 X24.3801 Y24.6419
G01 X24.3753 Y24.6375
G01 X24.3701 Y24.6336
G01 X24.3645 Y24.6303
G01 X24.3586 Y24.6275
G01 X24.3525 Y24.6253
G01 X24.3461 Y24.6237
G01 X24.3397 Y24.6228
G01 X24.3332 Y24.6225
G01 X24.3267 Y24.6228
G01 X24.3203 Y24.6237
G01 X24.3139 Y24.6253
G01 X24.3078 Y24.6275
G01 X24.3019 Y24.6303
G01 X24.2963 Y24.6336
G01 X24.2911 Y24.6375
G01 X24.2863 Y24.6419
G01 X24.2819 Y24.6467
G01 X24.2780 Y24.6519
G01 X24.2747 Y24.6575
G01 X24.2719 Y24.6634
G01 X24.2697 Y24.6695
G01 X24.2681 Y24.6759
G01 X24.2672 Y24.6823
G01 X24.2669 Y24.6888
G01 X24.2672 Y24.6953
G01 X24.2681 Y24.7017
G01 X24.2697 Y24.7081
G01 X24.2719 Y24.7142
G01 X24.2747 Y24.7201
G01 X24.2780 Y24.7257
G01 X24.2819 Y24.7309
G01 X24.2863 Y24.7357
G01 X24.2911 Y24.7401
G01 X24.2963 Y24.7440
G01 X24.3019 Y24.7473
G01 X24.3078 Y24.7501
G01 X24.3139 Y24.7523
G01 X24.3203 Y24.7539
G01 X24.3267 Y24.7548
G01 X24.3332 Y24.7551
G01 X24.3397 Y24.7548
G01 X24.3461 Y24.7539
G01 X24.3525 Y24.7523
G01 X24.3586 Y24.7501
G01 X24.3645 Y24.7473
G01 X24.3701 Y24.7440
G01 X24.3753 Y24.7401
G01 X24.3801 Y24.7357
G01 X24.3845 Y24.7309
G01 X24.3884 Y24.7257
G01 X24.3917 Y24.7201
G01 X24.3945 Y24.7142
G01 X24.3967 Y24.7081
G01 X24.3983 Y24.7017
G01 X24.3992 Y24.6953
G01 X24.3995 Y24.6888
G00 Z2.0000
G00 X24.3995 Y22.1488
G01 F60.00
G01 Z-0.0500
G01 F120.00
G01 X24.3992 Y22.1423
G01 X24.3983 Y22.1359
G01 X24.3967 Y22.1295
G01 X24.3945 Y22.1234
G01 X24.3917 Y22.1175
G01 X24.3884 Y22.1119
G01 X24.3845 Y22.1067
G01 X24.3801 Y22.1019
G01 X24.3753 Y22.0975
G01 X24.3701 Y22.0936
G01 X24.3645 Y22.0903
G01 X24.3586 Y22.0875
G01 X24.3525 Y22.0853
G01 X24.3461 Y22.0837
G01 X24.3397 Y22.0828
G01 X24.3332 Y22.0825
G01 X24.3267 Y22.0828
G01 X24.3203 Y22.0837
G01 X24.3139 Y22.0853
G01 X24.3078 Y22.0875
G01 X24.3019 Y22.0903
G01 X24.2963 Y22.0936
G01 X24.2911 Y22.0975
G01 X24.2863 Y22.1019
G01 X24.2819 Y22.1067
G01 X24.2780 Y22.1119
G01 X24.2747 Y22.1175
G01 X24.2719 Y22.1234
G01 X24.2697 Y22.1295
G01 X24.2681 Y22.1359
G01 X24.2672 Y22.1423
G01 X24.2669 Y22.1488
G01 X24.2672 Y22.1553
G01 X24.2681 Y22.1617
G01 X24.2697 Y22.1681
G01 X24.2719 Y22.1742
G01 X24.2747 Y22.1801
G01 X24.2780 Y22.1857
G01 X24.2819 Y22.1909
G01 X24.2863 Y22.1957
G01 X24.2911 Y22.2001
G01 X24.2963 Y22.2040
G01 X24.3019 Y22.2073
G01 X24.3078 Y22.2101
G01 X24.3139 Y22.2123
G01 X24.3203 Y22.2139
G01 X24.3267 Y22.2148
G01 X24.3332 Y22.2151
G01 X24.3397 Y22.2148
G01 X24.3461 Y22.2139
G01 X24.3525 Y22.2123
G01 X24.3586 Y22.2101
G01 X24.3645 Y22.2073
G01 X24.3701 Y22.2040
G01 X24.3753 Y22.2001
G01 X24.3801 Y22.1957
G01 X24.3845 Y22.1909
G01 X24.3884 Y22.1857
G01 X24.3917 Y22.1801
G01 X24.3945 Y22.1742
G01 X24.3967 Y22.1681
G01 X24.3983 Y22.1617
G01 X24.3992 Y22.1553
G01 X24.3995 Y22.1488
G00 Z2.0000
G00 X24.3995 Y19.6088
G01 F60.00
G01 Z-0.0500
G01 F120.00
G01 X24.3992 Y19.6023
G01 X24.3983 Y19.5959
G01 X24.3967 Y19.5895
G01 X24.3945 Y19.5834
G01 X24.3917 Y19.5775
G01 X24.3884 Y19.5719
G01 X24.3845 Y19.5667
G01 X24.3801 Y19.5619
G01 X24.3753 Y19.5575
G01 X24.3701 Y19.5536
G01 X24.3645 Y19.5503
G01 X24.3586 Y19.5475
G01 X24.3525 Y19.5453
G01 X24.3461 Y19.5437
G01 X24.3397 Y19.5428
G01 X24.3332 Y19.5425
G01 X24.3267 Y19.5428
G01 X24.3203 Y19.5437
G01 X24.3139 Y19.5453
G01 X24.3078 Y19.5475
G01 X24.3019 Y19.5503
G01 X24.2963 Y19.5536
G01 X24.2911 Y19.5575
G01 X24.2863 Y19.5619
G01 X24.2819 Y19.5667
G01 X24.2780 Y19.5719
G01 X24.2747 Y19.5775
G01 X24.2719 Y19.5834
G01 X24.2697 Y19.5895
G01 X24.2681 Y19.5959
G01 X24.2672 Y19.6023
G01 X24.2669 Y19.6088
G01 X24.2672 Y19.6153
G01 X24.2681 Y19.6217
G01 X24.2697 Y19.6281
G01 X24.2719 Y19.6342
G01 X24.2747 Y19.6401
G01 X24.2780 Y19.6457
G01 X24.2819 Y19.6509
G01 X24.2863 Y19.6557
G01 X24.2911 Y19.6601
G01 X24.2963 Y19.6640
G01 X24.3019 Y19.6673
G01 X24.3078 Y19.6701
G01 X24.3139 Y19.6723
G01 X24.3203 Y19.6739
G01 X24.3267 Y19.6748
G01 X24.3332 Y19.6751
G01 X24.3397 Y19.6748
G01 X24.3461 Y19.6739
G01 X24.3525 Y19.6723
G01 X24.3586 Y19.6701
G01 X24.3645 Y19.6673
G01 X24.3701 Y19.6640
G01 X24.3753 Y19.6601
G01 X24.3801 Y19.6557
G01 X24.3845 Y19.6509
G01 X24.3884 Y19.6457
G01 X24.3917 Y19.6401
G01 X24.3945 Y19.6342
G01 X24.3967 Y19.6281
G01 X24.3983 Y19.6217
G01 X24.3992 Y19.6153
G01 X24.3995 Y19.6088
G00 Z2.0000
G00 X24.3995 Y17.0688
G01 F60.00
G01 Z-0.0500
G01 F120.00
G01 X24.3992 Y17.0623
G01 X24.3983 Y17.0559
G01 X24.3967 Y17.0495
G01 X24.3945 Y17.0434
G01 X24.3917 Y17.0375
G01 X24.3884 Y17.0319
G01 X24.3845 Y17.0267
G01 X24.3801 Y17.0219
G01 X24.3753 Y17.0175
G01 X24.3701 Y17.0136
G01 X24.3645 Y17.0103
G01 X24.3586 Y17.0075
G01 X24.3525 Y17.0053
G01 X24.3461 Y17.0037
G01 X24.3397 Y17.0028
G01 X24.3332 Y17.0025
G01 X24.3267 Y17.0028
G01 X24.3203 Y17.0037
G01 X24.3139 Y17.0053
G01 X24.3078 Y17.0075
G01 X24.3019 Y17.0103
G01 X24.2963 Y17.0136
G01 X24.2911 Y17.0175
G01 X24.2863 Y17.0219
G01 X24.2819 Y17.0267
G01 X24.2780 Y17.0319
G01 X24.2747 Y17.0375
G01 X24.2719 Y17.0434
G01 X24.2697 Y17.0495
G01 X24.2681 Y17.0559
G01 X24.2672 Y17.0623
G01 X24.2669 Y17.0688
G01 X24.2672 Y17.0753
G01 X24.2681 Y17.0817
G01 X24.2697 Y17.0881
G01 X24.2719 Y17.0942
G01 X24.2747 Y17.1001
G01 X24.2780 Y17.1057
G01 X24.2819 Y17.1109
G01 X24.2863 Y17.1157
G01 X24.2911 Y17.1201
G01 X24.2963 Y17.1240
G01 X24.3019 Y17.1273
G01 X24.3078 Y17.1301
G01 X24.3139 Y17.1323
G01 X24.3203 Y17.1339
G01 X24.3267 Y17.1348
G01 X24.3332 Y17.1351
G01 X24.3397 Y17.1348
G01 X24.3461 Y17.1339
G01 X24.3525 Y17.1323
G01 X24.3586 Y17.1301
G01 X24.3645 Y17.1273
G01 X24.3701 Y17.1240
G01 X24.3753 Y17.1201
G01 X24.3801 Y17.1157
G01 X24.3845 Y17.1109
G01 X24.3884 Y17.1057
G01 X24.3917 Y17.1001
G01 X24.3945 Y17.0942
G01 X24.3967 Y17.0881
G01 X24.3983 Y17.0817
G01 X24.3992 Y17.0753
G01 X24.3995 Y17.0688
G00 Z2.0000
G00 X24.3995 Y14.5288
G01 F60.00
G01 Z-0.0500
G01 F120.00
G01 X24.3992 Y14.5223
G01 X24.3983 Y14.5159
G01 X24.3967 Y14.5095
G01 X24.3945 Y14.5034
G01 X24.3917 Y14.4975
G01 X24.3884 Y14.4919
G01 X24.3845 Y14.4867
G01 X24.3801 Y14.4819
G01 X24.3753 Y14.4775
G01 X24.3701 Y14.4736
G01 X24.3645 Y14.4703
G01 X24.3586 Y14.4675
G01 X24.3525 Y14.4653
G01 X24.3461 Y14.4637
G01 X24.3397 Y14.4628
G01 X24.3332 Y14.4625
G01 X24.3267 Y14.4628
G01 X24.3203 Y14.4637
G01 X24.3139 Y14.4653
G01 X24.3078 Y14.4675
G01 X24.3019 Y14.4703
G01 X24.2963 Y14.4736
G01 X24.2911 Y14.4775
G01 X24.2863 Y14.4819
G01 X24.2819 Y14.4867
G01 X24.2780 Y14.4919
G01 X24.2747 Y14.4975
G01 X24.2719 Y14.5034
G01 X24.2697 Y14.5095
G01 X24.2681 Y14.5159
G01 X24.2672 Y14.5223
G01 X24.2669 Y14.5288
G01 X24.2672 Y14.5353
G01 X24.2681 Y14.5417
G01 X24.2697 Y14.5481
G01 X24.2719 Y14.5542
G01 X24.2747 Y14.5601
G01 X24.2780 Y14.5657
G01 X24.2819 Y14.5709
G01 X24.2863 Y14.5757
G01 X24.2911 Y14.5801
G01 X24.2963 Y14.5840
G01 X24.3019 Y14.5873
G01 X24.3078 Y14.5901
G01 X24.3139 Y14.5923
G01 X24.3203 Y14.5939
G01 X24.3267 Y14.5948
