(G-CODE GENERATED BY FLATCAM v8.993 - www.flatcam.org - Version Date: 2020/06/05)

(Name: cnc_socketplateV1.1_copperTop.gtl_skirt_cnc_1)
(Type: G-code from Geometry)
(Units: MM)

(Created on Sunday, 27 June 2021 at 14:15)

(This preprocessor is the default preprocessor used by FlatCAM.)
(It is made to work with MACH3 compatible motion controllers.)

(TOOL DIAMETER: 2.4 mm)
(Feedrate_XY: 120.0 mm/min)
(Feedrate_Z: 60.0 mm/min)
(Feedrate rapids 1500.0 mm/min)

(Z_Cut: -0.1 mm)
(Z_Move: 2.0 mm)
(Z Start: None mm)
(Z End: 15.0 mm)
(Steps per circle: 64)
(Preprocessor Geometry: default)

(X range:   -1.0728 ...   71.1260  mm)
(Y range:   -0.8188 ...   45.9800  mm)

(Spindle Speed: 1000 RPM)
G21
G90
G94



G01 F120.00
G00 Z2.0000

M03 S1000
G00 X32.9266 Y-0.8188
G01 F60.00
G01 Z-0.1000
G01 F120.00
G01 X0.2272 Y-0.8188
G01 X0.0998 Y-0.8125
G01 X-0.0264 Y-0.7938
G01 X-0.1502 Y-0.7628
G01 X-0.2703 Y-0.7198
G01 X-0.3856 Y-0.6653
G01 X-0.4950 Y-0.5997
G01 X-0.5975 Y-0.5237
G01 X-0.6920 Y-0.4380
G01 X-0.7777 Y-0.3435
G01 X-0.8537 Y-0.2410
G01 X-0.9193 Y-0.1316
G01 X-0.9738 Y-0.0163
G01 X-1.0168 Y0.1038
G01 X-1.0478 Y0.2276
G01 X-1.0665 Y0.3538
G01 X-1.0728 Y0.4812
G01 X-1.0728 Y44.6800
G01 X-1.0665 Y44.8074
G01 X-1.0478 Y44.9336
G01 X-1.0168 Y45.0574
G01 X-0.9738 Y45.1775
G01 X-0.9193 Y45.2928
G01 X-0.8537 Y45.4022
G01 X-0.7777 Y45.5047
G01 X-0.6920 Y45.5992
G01 X-0.5975 Y45.6849
G01 X-0.4950 Y45.7609
G01 X-0.3856 Y45.8265
G01 X-0.2703 Y45.8810
G01 X-0.1502 Y45.9240
G01 X-0.0264 Y45.9550
G01 X0.0998 Y45.9737
G01 X0.2272 Y45.9800
G01 X32.9266 Y45.9800
G00 Z2.0000
G00 X37.3266 Y45.9800
G01 F60.00
G01 Z-0.1000
G01 F120.00
G01 X69.8260 Y45.9800
G01 X69.9534 Y45.9737
G01 X70.0796 Y45.9550
G01 X70.2034 Y45.9240
G01 X70.3235 Y45.8810
G01 X70.4388 Y45.8265
G01 X70.5482 Y45.7609
G01 X70.6507 Y45.6849
G01 X70.7452 Y45.5992
G01 X70.8309 Y45.5047
G01 X70.9069 Y45.4022
G01 X70.9725 Y45.2928
G01 X71.0270 Y45.1775
G01 X71.0700 Y45.0574
G01 X71.1010 Y44.9336
G01 X71.1197 Y44.8074
G01 X71.1260 Y44.6800
G01 X71.1260 Y0.4812
G01 X71.1197 Y0.3538
G01 X71.1010 Y0.2276
G01 X71.0700 Y0.1038
G01 X71.0270 Y-0.0163
G01 X70.9725 Y-0.1316
G01 X70.9069 Y-0.2410
G01 X70.8309 Y-0.3435
G01 X70.7452 Y-0.4380
G01 X70.6507 Y-0.5237
G01 X70.5482 Y-0.5997
G01 X70.4388 Y-0.6653
G01 X70.3235 Y-0.7198
G01 X70.2034 Y-0.7628
G01 X70.0796 Y-0.7938
G01 X69.9534 Y-0.8125
G01 X69.8260 Y-0.8188
G00 Z2.0000
G00 X69.8260 Y-0.8188
G01 F60.00
G01 Z-0.1000
G01 F120.00
G01 X37.3266 Y-0.8188
G00 Z2.0000
M05
G00 Z2.0000
G00 Z15.00

