(G-CODE GENERATED BY FLATCAM v8.993 - www.flatcam.org - Version Date: 2020/06/05)

(Name: limitswitchbuffer_drill.txt_cnc)
(Type: G-code from Excellon)
(Units: MM)

(Created on Sunday, 25 July 2021 at 10:36)

(This preprocessor is the default preprocessor used by FlatCAM.)
(It is made to work with MACH3 compatible motion controllers.)


(TOOLS DIAMETER: )
(Tool: 1 -> Dia: 4.1999916)
(Tool: 100 -> Dia: 0.7999984)
(Tool: 101 -> Dia: 0.889)
(Tool: 102 -> Dia: 0.9652)

(FEEDRATE Z: )
(Tool: 1 -> Feedrate: 300)
(Tool: 100 -> Feedrate: 300)
(Tool: 101 -> Feedrate: 300)
(Tool: 102 -> Feedrate: 300)

(FEEDRATE RAPIDS: )
(Tool: 1 -> Feedrate Rapids: 1500)
(Tool: 100 -> Feedrate Rapids: 1500)
(Tool: 101 -> Feedrate Rapids: 1500)
(Tool: 102 -> Feedrate Rapids: 1500)

(Z_CUT: )
(Tool: 1 -> Z_Cut: -2.0)
(Tool: 100 -> Z_Cut: -2.0)
(Tool: 101 -> Z_Cut: -2.0)
(Tool: 102 -> Z_Cut: -2.0)

(Tools Offset: )
(Tool: 100 -> Offset Z: -0.0)
(Tool: 101 -> Offset Z: -0.0)
(Tool: 102 -> Offset Z: -0.0)

(Z_MOVE: )
(Tool: 1 -> Z_Move: 2)
(Tool: 100 -> Z_Move: 2)
(Tool: 101 -> Z_Move: 2)
(Tool: 102 -> Z_Move: 2)

(Z Start: None mm)
(Z End: 2.0 mm)
(Steps per circle: 64)
(Preprocessor Excellon: default)

(X range:    0.7702 ...   36.4865  mm)
(Y range:    0.6711 ...   36.3875  mm)

(Spindle Speed: 1000.0 RPM)
G21
G90
G94



G00 Z2.0000

G01 F300.00
M03 S1000
G00 X28.8417 Y17.9578
G01 Z-2.0000
G01 Z0
G00 Z2.0000
G00 X28.8417 Y20.4978
G01 Z-2.0000
G01 Z0
G00 Z2.0000
G00 X28.8417 Y23.0378
G01 Z-2.0000
G01 Z0
G00 Z2.0000
G00 X28.8417 Y25.5778
G01 Z-2.0000
G01 Z0
G00 Z2.0000
G00 X28.8417 Y28.1178
G01 Z-2.0000
G01 Z0
G00 Z2.0000
G00 X28.8417 Y15.4178
G01 Z-2.0000
G01 Z0
G00 Z2.0000
G01 F300.00
M03 S1000
G00 X16.1417 Y12.8778
G01 Z-2.0000
G01 Z0
G00 Z2.0000
G00 X16.1417 Y15.4178
G01 Z-2.0000
G01 Z0
G00 Z2.0000
G00 X16.1417 Y17.9578
G01 Z-2.0000
G01 Z0
G00 Z2.0000
G00 X16.1417 Y20.4978
G01 Z-2.0000
G01 Z0
G00 Z2.0000
G00 X21.2217 Y17.9578
G01 Z-2.0000
G01 Z0
G00 Z2.0000
G00 X23.7617 Y23.0378
G01 Z-2.0000
G01 Z0
G00 Z2.0000
G00 X23.7617 Y30.6578
G01 Z-2.0000
G01 Z0
G00 Z2.0000
G00 X21.2217 Y25.5778
G01 Z-2.0000
G01 Z0
G00 Z2.0000
G00 X16.1417 Y23.0378
G01 Z-2.0000
G01 Z0
G00 Z2.0000
G00 X16.1417 Y25.5778
G01 Z-2.0000
G01 Z0
G00 Z2.0000
G00 X8.5217 Y25.5778
G01 Z-2.0000
G01 Z0
G00 Z2.0000
G00 X8.5217 Y23.0378
G01 Z-2.0000
G01 Z0
G00 Z2.0000
G00 X8.5217 Y20.4978
G01 Z-2.0000
G01 Z0
G00 Z2.0000
G00 X8.5217 Y17.9578
G01 Z-2.0000
G01 Z0
G00 Z2.0000
G00 X8.5217 Y15.4178
G01 Z-2.0000
G01 Z0
G00 Z2.0000
G00 X8.5217 Y12.8778
G01 Z-2.0000
G01 Z0
G00 Z2.0000
G00 X8.5217 Y10.3378
G01 Z-2.0000
G01 Z0
G00 Z2.0000
G00 X8.5217 Y7.7978
G01 Z-2.0000
G01 Z0
G00 Z2.0000
G00 X8.5217 Y5.2578
G01 Z-2.0000
G01 Z0
G00 Z2.0000
G00 X16.1417 Y5.2578
G01 Z-2.0000
G01 Z0
G00 Z2.0000
G00 X21.2217 Y5.2578
G01 Z-2.0000
G01 Z0
G00 Z2.0000
G00 X16.1417 Y7.7978
G01 Z-2.0000
G01 Z0
G00 Z2.0000
G00 X16.1417 Y10.3378
G01 Z-2.0000
G01 Z0
G00 Z2.0000
G00 X21.2217 Y12.8778
G01 Z-2.0000
G01 Z0
G00 Z2.0000
G01 F300.00
M03 S1000
G00 X3.4417 Y23.0378
G01 Z-2.0000
G01 Z0
G00 Z2.0000
G00 X3.4417 Y25.5778
G01 Z-2.0000
G01 Z0
G00 Z2.0000
G00 X3.4417 Y12.8778
G01 Z-2.0000
G01 Z0
G00 Z2.0000
G00 X3.4417 Y15.4178
G01 Z-2.0000
G01 Z0
G00 Z2.0000
G00 X3.4417 Y17.9578
G01 Z-2.0000
G01 Z0
G00 Z2.0000
G00 X3.4417 Y20.4978
G01 Z-2.0000
G01 Z0
G00 Z2.0000
M05
G00 Z2.00

