(G-CODE GENERATED BY FLATCAM v8.993 - www.flatcam.org - Version Date: 2020/06/05)

(Name: limitswitchbuffer_drill.txt_mill_cnc)
(Type: G-code from Geometry)
(Units: MM)

(Created on Sunday, 25 July 2021 at 11:43)

(This preprocessor is the default preprocessor used by FlatCAM.)
(It is made to work with MACH3 compatible motion controllers.)

(TOOL DIAMETER: 1.1 mm)
(Feedrate_XY: 120.0 mm/min)
(Feedrate_Z: 60.0 mm/min)
(Feedrate rapids 1500.0 mm/min)

(Z_Cut: -2.0999999999999996 mm)
(Z_Move: 2.0 mm)
(Z Start: None mm)
(Z End: 15.0 mm)
(Steps per circle: 64)
(Preprocessor Geometry: default)

(X range:    1.3202 ...   35.9365  mm)
(Y range:    1.2211 ...   35.8375  mm)

(Spindle Speed: 1000 RPM)
G21
G90
G94



G01 F120.00
G00 Z2.0000

M03 S1000
G00 X4.4202 Y2.8753
G01 F60.00
G01 Z-2.1000
G01 F120.00
G01 X4.4127 Y2.7234
G01 X4.3904 Y2.5729
G01 X4.3535 Y2.4253
G01 X4.3022 Y2.2821
G01 X4.2372 Y2.1446
G01 X4.1590 Y2.0141
G01 X4.0684 Y1.8920
G01 X3.9662 Y1.7793
G01 X3.8535 Y1.6771
G01 X3.7313 Y1.5865
G01 X3.6009 Y1.5083
G01 X3.4634 Y1.4433
G01 X3.3201 Y1.3920
G01 X3.1726 Y1.3551
G01 X3.0221 Y1.3327
G01 X2.8702 Y1.3253
G01 X2.7183 Y1.3327
G01 X2.5678 Y1.3551
G01 X2.4203 Y1.3920
G01 X2.2770 Y1.4433
G01 X2.1395 Y1.5083
G01 X2.0091 Y1.5865
G01 X1.8869 Y1.6771
G01 X1.7742 Y1.7793
G01 X1.6720 Y1.8920
G01 X1.5814 Y2.0141
G01 X1.5032 Y2.1446
G01 X1.4382 Y2.2821
G01 X1.3869 Y2.4253
G01 X1.3500 Y2.5729
G01 X1.3277 Y2.7234
G01 X1.3202 Y2.8753
G01 X1.3277 Y3.0272
G01 X1.3500 Y3.1777
G01 X1.3869 Y3.3252
G01 X1.4382 Y3.4684
G01 X1.5032 Y3.6059
G01 X1.5814 Y3.7364
G01 X1.6720 Y3.8586
G01 X1.7742 Y3.9713
G01 X1.8869 Y4.0734
G01 X2.0091 Y4.1641
G01 X2.1395 Y4.2423
G01 X2.2770 Y4.3073
G01 X2.4203 Y4.3585
G01 X2.5678 Y4.3955
G01 X2.7183 Y4.4178
G01 X2.8702 Y4.4253
G01 X3.0221 Y4.4178
G01 X3.1726 Y4.3955
G01 X3.3201 Y4.3585
G01 X3.4634 Y4.3073
G01 X3.6009 Y4.2423
G01 X3.7313 Y4.1641
G01 X3.8535 Y4.0734
G01 X3.9662 Y3.9713
G01 X4.0684 Y3.8586
G01 X4.1590 Y3.7364
G01 X4.2372 Y3.6059
G01 X4.3022 Y3.4684
G01 X4.3535 Y3.3252
G01 X4.3904 Y3.1777
G01 X4.4127 Y3.0272
G01 X4.4202 Y2.8753
G00 Z2.0000
G00 X4.4202 Y34.1325
G01 F60.00
G01 Z-2.1000
G01 F120.00
G01 X4.4127 Y33.9806
G01 X4.3904 Y33.8301
G01 X4.3535 Y33.6826
G01 X4.3022 Y33.5394
G01 X4.2372 Y33.4019
G01 X4.1590 Y33.2714
G01 X4.0684 Y33.1492
G01 X3.9662 Y33.0365
G01 X3.8535 Y32.9344
G01 X3.7313 Y32.8437
G01 X3.6009 Y32.7655
G01 X3.4634 Y32.7005
G01 X3.3201 Y32.6493
G01 X3.1726 Y32.6123
G01 X3.0221 Y32.5900
G01 X2.8702 Y32.5825
G01 X2.7183 Y32.5900
G01 X2.5678 Y32.6123
G01 X2.4203 Y32.6493
G01 X2.2770 Y32.7005
G01 X2.1395 Y32.7655
G01 X2.0091 Y32.8437
G01 X1.8869 Y32.9344
G01 X1.7742 Y33.0365
G01 X1.6720 Y33.1492
G01 X1.5814 Y33.2714
G01 X1.5032 Y33.4019
G01 X1.4382 Y33.5394
G01 X1.3869 Y33.6826
G01 X1.3500 Y33.8301
G01 X1.3277 Y33.9806
G01 X1.3202 Y34.1325
G01 X1.3277 Y34.2844
G01 X1.3500 Y34.4349
G01 X1.3869 Y34.5825
G01 X1.4382 Y34.7257
G01 X1.5032 Y34.8632
G01 X1.5814 Y34.9937
G01 X1.6720 Y35.1158
G01 X1.7742 Y35.2285
G01 X1.8869 Y35.3307
G01 X2.0091 Y35.4213
G01 X2.1395 Y35.4995
G01 X2.2770 Y35.5645
G01 X2.4203 Y35.6158
G01 X2.5678 Y35.6527
G01 X2.7183 Y35.6751
G01 X2.8702 Y35.6825
G01 X3.0221 Y35.6751
G01 X3.1726 Y35.6527
G01 X3.3201 Y35.6158
G01 X3.4634 Y35.5645
G01 X3.6009 Y35.4995
G01 X3.7313 Y35.4213
G01 X3.8535 Y35.3307
G01 X3.9662 Y35.2285
G01 X4.0684 Y35.1158
G01 X4.1590 Y34.9937
G01 X4.2372 Y34.8632
G01 X4.3022 Y34.7257
G01 X4.3535 Y34.5825
G01 X4.3904 Y34.4349
G01 X4.4127 Y34.2844
G01 X4.4202 Y34.1325
G00 Z2.0000
G00 X35.9365 Y34.2875
G01 F60.00
G01 Z-2.1000
G01 F120.00
G01 X35.9291 Y34.1355
G01 X35.9067 Y33.9851
G01 X35.8698 Y33.8375
G01 X35.8185 Y33.6943
G01 X35.7535 Y33.5568
G01 X35.6753 Y33.4263
G01 X35.5847 Y33.3042
G01 X35.4825 Y33.1914
G01 X35.3698 Y33.0893
G01 X35.2477 Y32.9987
G01 X35.1172 Y32.9205
G01 X34.9797 Y32.8555
G01 X34.8365 Y32.8042
G01 X34.6889 Y32.7672
G01 X34.5384 Y32.7449
G01 X34.3865 Y32.7375
G01 X34.2346 Y32.7449
G01 X34.0841 Y32.7672
G01 X33.9366 Y32.8042
G01 X33.7934 Y32.8555
G01 X33.6559 Y32.9205
G01 X33.5254 Y32.9987
G01 X33.4032 Y33.0893
G01 X33.2905 Y33.1914
G01 X33.1884 Y33.3042
G01 X33.0977 Y33.4263
G01 X33.0195 Y33.5568
G01 X32.9545 Y33.6943
G01 X32.9033 Y33.8375
G01 X32.8663 Y33.9851
G01 X32.8440 Y34.1355
G01 X32.8365 Y34.2875
G01 X32.8440 Y34.4394
G01 X32.8663 Y34.5898
G01 X32.9033 Y34.7374
G01 X32.9545 Y34.8806
G01 X33.0195 Y35.0181
G01 X33.0977 Y35.1486
G01 X33.1884 Y35.2708
G01 X33.2905 Y35.3835
G01 X33.4032 Y35.4856
G01 X33.5254 Y35.5762
G01 X33.6559 Y35.6544
G01 X33.7934 Y35.7195
G01 X33.9366 Y35.7707
G01 X34.0841 Y35.8077
G01 X34.2346 Y35.8300
G01 X34.3865 Y35.8375
G01 X34.5384 Y35.8300
G01 X34.6889 Y35.8077
G01 X34.8365 Y35.7707
G01 X34.9797 Y35.7195
G01 X35.1172 Y35.6544
G01 X35.2477 Y35.5762
G01 X35.3698 Y35.4856
G01 X35.4825 Y35.3835
G01 X35.5847 Y35.2708
G01 X35.6753 Y35.1486
G01 X35.7535 Y35.0181
G01 X35.8185 Y34.8806
G01 X35.8698 Y34.7374
G01 X35.9067 Y34.5898
G01 X35.9291 Y34.4394
G01 X35.9365 Y34.2875
G00 Z2.0000
G00 X35.9365 Y2.7711
G01 F60.00
G01 Z-2.1000
G01 F120.00
G01 X35.9291 Y2.6192
G01 X35.9067 Y2.4688
G01 X35.8698 Y2.3212
G01 X35.8185 Y2.1780
G01 X35.7535 Y2.0405
G01 X35.6753 Y1.9100
G01 X35.5847 Y1.7878
G01 X35.4825 Y1.6751
G01 X35.3698 Y1.5730
G01 X35.2477 Y1.4824
G01 X35.1172 Y1.4042
G01 X34.9797 Y1.3391
G01 X34.8365 Y1.2879
G01 X34.6889 Y1.2509
G01 X34.5384 Y1.2286
G01 X34.3865 Y1.2211
G01 X34.2346 Y1.2286
G01 X34.0841 Y1.2509
G01 X33.9366 Y1.2879
G01 X33.7934 Y1.3391
G01 X33.6559 Y1.4042
G01 X33.5254 Y1.4824
G01 X33.4032 Y1.5730
G01 X33.2905 Y1.6751
G01 X33.1884 Y1.7878
G01 X33.0977 Y1.9100
G01 X33.0195 Y2.0405
G01 X32.9545 Y2.1780
G01 X32.9033 Y2.3212
G01 X32.8663 Y2.4688
G01 X32.8440 Y2.6192
G01 X32.8365 Y2.7711
G01 X32.8440 Y2.9231
G01 X32.8663 Y3.0735
G01 X32.9033 Y3.2211
G01 X32.9545 Y3.3643
G01 X33.0195 Y3.5018
G01 X33.0977 Y3.6323
G01 X33.1884 Y3.7544
G01 X33.2905 Y3.8672
G01 X33.4032 Y3.9693
G01 X33.5254 Y4.0599
G01 X33.6559 Y4.1381
G01 X33.7934 Y4.2031
G01 X33.9366 Y4.2544
G01 X34.0841 Y4.2914
G01 X34.2346 Y4.3137
G01 X34.3865 Y4.3211
G01 X34.5384 Y4.3137
G01 X34.6889 Y4.2914
G01 X34.8365 Y4.2544
G01 X34.9797 Y4.2031
G01 X35.1172 Y4.1381
G01 X35.2477 Y4.0599
G01 X35.3698 Y3.9693
G01 X35.4825 Y3.8672
G01 X35.5847 Y3.7544
G01 X35.6753 Y3.6323
G01 X35.7535 Y3.5018
G01 X35.8185 Y3.3643
G01 X35.8698 Y3.2211
G01 X35.9067 Y3.0735
G01 X35.9291 Y2.9231
G01 X35.9365 Y2.7711
G00 Z2.0000
M05
G00 Z2.0000
G00 Z15.00

