(G-CODE GENERATED BY FLATCAM v8.993 - www.flatcam.org - Version Date: 2020/06/05)

(Name: limitswitchbuffer_copperTop.gtl_0.1000_iso_cnc)
(Type: G-code from Geometry)
(Units: MM)

(Created on Sunday, 25 July 2021 at 10:36)

(This preprocessor is the default preprocessor used by FlatCAM.)
(It is made to work with MACH3 compatible motion controllers.)

(TOOL DIAMETER: 0.08 mm)
(Feedrate_XY: 150.0 mm/min)
(Feedrate_Z: 90.0 mm/min)
(Feedrate rapids 1500.0 mm/min)

(Z_Cut: -0.2 mm)
(DepthPerCut: 0.1 mm <=>2 passes)
(Z_Move: 1.0 mm)
(Z Start: None mm)
(Z End: 15.0 mm)
(Steps per circle: 64)
(Preprocessor Geometry: default)

(X range:    0.5341 ...   34.2893  mm)
(Y range:    2.3629 ...   36.0927  mm)

(Spindle Speed: 1000 RPM)
G21
G90
G94



G01 F150.00
G00 Z1.0000

M03 S1000
G00 X3.0595 Y7.7976
G01 F90.00
G01 Z-0.1000
G01 F150.00
G01 X3.0594 Y11.8727
G01 X3.0429 Y11.8786
G01 X3.0371 Y11.8811
G01 X2.9487 Y11.9229
G01 X2.9414 Y11.9268
G01 X2.8541 Y11.9793
G01 X2.7689 Y12.0425
G01 X2.6903 Y12.1137
G01 X2.6218 Y12.1891
G01 X2.6165 Y12.1956
G01 X2.5583 Y12.2740
G01 X2.5537 Y12.2810
G01 X2.5014 Y12.3684
G01 X2.4561 Y12.4643
G01 X2.4203 Y12.5641
G01 X2.3955 Y12.6629
G01 X2.3938 Y12.6711
G01 X2.3795 Y12.7677
G01 X2.3787 Y12.7760
G01 X2.3738 Y12.8778
G01 X2.3788 Y12.9815
G01 X2.3946 Y13.0886
G01 X2.4203 Y13.1915
G01 X2.4561 Y13.2913
G01 X2.5014 Y13.3872
G01 X2.5559 Y13.4781
G01 X2.6191 Y13.5633
G01 X2.6903 Y13.6419
G01 X2.7689 Y13.7131
G01 X2.8541 Y13.7763
G01 X2.9450 Y13.8308
G01 X3.0409 Y13.8761
G01 X3.1407 Y13.9119
G01 X3.2436 Y13.9376
G01 X3.3485 Y13.9532
G01 X3.4544 Y13.9584
G01 X3.5581 Y13.9534
G01 X3.6652 Y13.9376
G01 X3.7681 Y13.9119
G01 X3.8679 Y13.8761
G01 X3.9601 Y13.8327
G01 X3.9674 Y13.8288
G01 X4.0547 Y13.7763
G01 X4.1366 Y13.7157
G01 X4.1431 Y13.7104
G01 X4.2155 Y13.6448
G01 X4.2214 Y13.6389
G01 X4.2897 Y13.5633
G01 X4.3529 Y13.4781
G01 X4.4074 Y13.3872
G01 X4.4527 Y13.2913
G01 X4.4885 Y13.1915
G01 X4.5142 Y13.0886
G01 X4.5298 Y12.9837
G01 X4.5349 Y12.8820
G01 X4.5349 Y12.8736
G01 X4.5301 Y12.7760
G01 X4.5293 Y12.7677
G01 X4.5142 Y12.6670
G01 X4.4885 Y12.5641
G01 X4.4542 Y12.4682
G01 X4.4511 Y12.4605
G01 X4.4074 Y12.3684
G01 X4.3529 Y12.2775
G01 X4.2923 Y12.1956
G01 X4.2870 Y12.1891
G01 X4.2185 Y12.1137
G01 X4.1399 Y12.0425
G01 X4.0547 Y11.9793
G01 X3.9674 Y11.9268
G01 X3.9601 Y11.9229
G01 X3.8717 Y11.8811
G01 X3.8659 Y11.8786
G01 X3.8493 Y11.8727
G01 X3.8494 Y7.9614
G01 X8.6980 Y3.1127
G01 X13.2181 Y3.1128
G01 X13.1941 Y10.3630
G01 X13.1941 Y25.6087
G01 X13.1959 Y25.6419
G01 X13.1968 Y25.6496
G01 X13.2012 Y25.6781
G01 X13.2032 Y25.6878
G01 X13.2099 Y25.7138
G01 X13.2140 Y25.7270
G01 X13.2233 Y25.7523
G01 X13.2262 Y25.7594
G01 X13.2397 Y25.7874
G01 X13.2433 Y25.7942
G01 X13.2606 Y25.8226
G01 X13.2650 Y25.8290
G01 X13.2823 Y25.8520
G01 X13.2900 Y25.8611
G01 X13.3082 Y25.8809
G01 X13.3152 Y25.8878
G01 X13.3368 Y25.9071
G01 X13.3427 Y25.9120
G01 X13.3696 Y25.9316
G01 X13.3760 Y25.9358
G01 X13.4009 Y25.9505
G01 X13.4114 Y25.9559
G01 X13.4358 Y25.9672
G01 X13.4429 Y25.9702
G01 X13.4722 Y25.9805
G01 X13.4796 Y25.9827
G01 X13.5098 Y25.9901
G01 X13.5215 Y25.9923
G01 X13.5481 Y25.9960
G01 X13.5558 Y25.9968
G01 X13.5890 Y25.9982
G01 X15.1909 Y25.9759
G01 X15.2331 Y26.0655
G01 X15.2371 Y26.0729
G01 X15.2876 Y26.1570
G01 X15.3485 Y26.2392
G01 X15.4172 Y26.3150
G01 X15.4899 Y26.3809
G01 X15.4963 Y26.3862
G01 X15.5718 Y26.4422
G01 X15.5787 Y26.4468
G01 X15.6630 Y26.4972
G01 X15.7555 Y26.5409
G01 X15.8518 Y26.5754
G01 X15.9469 Y26.5994
G01 X15.9551 Y26.6010
G01 X16.0481 Y26.6148
G01 X16.0564 Y26.6156
G01 X16.1544 Y26.6203
G01 X16.2566 Y26.6153
G01 X16.3578 Y26.6003
G01 X16.4570 Y26.5754
G01 X16.5533 Y26.5409
G01 X16.6421 Y26.4991
G01 X16.6495 Y26.4951
G01 X16.7301 Y26.4468
G01 X16.7370 Y26.4422
G01 X16.8158 Y26.3837
G01 X16.8885 Y26.3178
G01 X16.8944 Y26.3119
G01 X16.9603 Y26.2392
G01 X17.0212 Y26.1570
G01 X17.0738 Y26.0692
G01 X17.1175 Y25.9767
G01 X17.1520 Y25.8804
G01 X17.1769 Y25.7812
G01 X17.1919 Y25.6800
G01 X17.1969 Y25.5800
G01 X17.1919 Y25.4756
G01 X17.1769 Y25.3744
G01 X17.1520 Y25.2752
G01 X17.1190 Y25.1827
G01 X17.1159 Y25.1750
G01 X17.0738 Y25.0864
G01 X17.0234 Y25.0021
G01 X17.0188 Y24.9952
G01 X16.9628 Y24.9197
G01 X16.9575 Y24.9133
G01 X16.8916 Y24.8406
G01 X16.8158 Y24.7719
G01 X16.7336 Y24.7110
G01 X16.6458 Y24.6584
G01 X16.5533 Y24.6147
G01 X16.4570 Y24.5802
G01 X16.3578 Y24.5553
G01 X16.2588 Y24.5406
G01 X16.1544 Y24.5353
G01 X16.0564 Y24.5400
G01 X16.0481 Y24.5408
G01 X15.9551 Y24.5546
G01 X15.9469 Y24.5562
G01 X15.8518 Y24.5802
G01 X15.7555 Y24.6147
G01 X15.6630 Y24.6584
G01 X15.5787 Y24.7088
G01 X15.5718 Y24.7134
G01 X15.4963 Y24.7694
G01 X15.4899 Y24.7747
G01 X15.4172 Y24.8406
G01 X15.3485 Y24.9164
G01 X15.2876 Y24.9986
G01 X15.2371 Y25.0827
G01 X15.2331 Y25.0901
G01 X15.1929 Y25.1750
G01 X15.1886 Y25.1860
G01 X13.9839 Y25.2027
G01 X13.9840 Y18.3727
G01 X15.1909 Y18.3559
G01 X15.2350 Y18.4492
G01 X15.2854 Y18.5335
G01 X15.2900 Y18.5404
G01 X15.3460 Y18.6159
G01 X15.3513 Y18.6223
G01 X15.4172 Y18.6950
G01 X15.4930 Y18.7637
G01 X15.5752 Y18.8246
G01 X15.6593 Y18.8751
G01 X15.6667 Y18.8791
G01 X15.7516 Y18.9193
G01 X15.7593 Y18.9224
G01 X15.8518 Y18.9554
G01 X15.9510 Y18.9803
G01 X16.0522 Y18.9953
G01 X16.1502 Y19.0002
G01 X16.1586 Y19.0002
G01 X16.2588 Y18.9950
G01 X16.3578 Y18.9803
G01 X16.4570 Y18.9554
G01 X16.5533 Y18.9209
G01 X16.6458 Y18.8772
G01 X16.7336 Y18.8246
G01 X16.8158 Y18.7637
G01 X16.8916 Y18.6950
G01 X16.9575 Y18.6223
G01 X16.9628 Y18.6159
G01 X17.0212 Y18.5370
G01 X17.0717 Y18.4529
G01 X17.0757 Y18.4455
G01 X17.1159 Y18.3606
G01 X17.1190 Y18.3529
G01 X17.1520 Y18.2604
G01 X17.1769 Y18.1612
G01 X17.1919 Y18.0600
G01 X17.1969 Y17.9578
G01 X17.1919 Y17.8556
G01 X17.1769 Y17.7544
G01 X17.1520 Y17.6552
G01 X17.1190 Y17.5627
G01 X17.1159 Y17.5550
G01 X17.0757 Y17.4701
G01 X17.0717 Y17.4627
G01 X17.0212 Y17.3786
G01 X16.9628 Y17.2997
G01 X16.9575 Y17.2933
G01 X16.8916 Y17.2206
G01 X16.8158 Y17.1519
G01 X16.7336 Y17.0910
G01 X16.6458 Y17.0384
G01 X16.5533 Y16.9947
G01 X16.4570 Y16.9602
G01 X16.3578 Y16.9353
G01 X16.2588 Y16.9206
G01 X16.1544 Y16.9153
G01 X16.0564 Y16.9200
G01 X16.0481 Y16.9208
G01 X15.9551 Y16.9346
G01 X15.9469 Y16.9362
G01 X15.8518 Y16.9602
G01 X15.7555 Y16.9947
G01 X15.6630 Y17.0384
G01 X15.5787 Y17.0888
G01 X15.5718 Y17.0934
G01 X15.4963 Y17.1494
G01 X15.4899 Y17.1547
G01 X15.4172 Y17.2206
G01 X15.3485 Y17.2964
G01 X15.2876 Y17.3786
G01 X15.2371 Y17.4627
G01 X15.2331 Y17.4701
G01 X15.1929 Y17.5550
G01 X15.1886 Y17.5660
G01 X13.9839 Y17.5827
G01 X13.9840 Y10.7527
G01 X15.1909 Y10.7359
G01 X15.2350 Y10.8292
G01 X15.2854 Y10.9135
G01 X15.2900 Y10.9204
G01 X15.3460 Y10.9959
G01 X15.3513 Y11.0023
G01 X15.4172 Y11.0750
G01 X15.4930 Y11.1437
G01 X15.5752 Y11.2046
G01 X15.6593 Y11.2551
G01 X15.6667 Y11.2591
G01 X15.7516 Y11.2993
G01 X15.7593 Y11.3024
G01 X15.8518 Y11.3354
G01 X15.9510 Y11.3603
G01 X16.0522 Y11.3753
G01 X16.1502 Y11.3802
G01 X16.1586 Y11.3802
G01 X16.2588 Y11.3750
G01 X16.3578 Y11.3603
G01 X16.4570 Y11.3354
G01 X16.5533 Y11.3009
G01 X16.6458 Y11.2572
G01 X16.7336 Y11.2046
G01 X16.8158 Y11.1437
G01 X16.8916 Y11.0750
G01 X16.9575 Y11.0023
G01 X16.9628 Y10.9959
G01 X17.0212 Y10.9170
G01 X17.0717 Y10.8329
G01 X17.0757 Y10.8255
G01 X17.1159 Y10.7406
G01 X17.1190 Y10.7329
G01 X17.1520 Y10.6404
G01 X17.1769 Y10.5412
G01 X17.1919 Y10.4400
G01 X17.1969 Y10.3378
G01 X17.1919 Y10.2356
G01 X17.1769 Y10.1344
G01 X17.1520 Y10.0352
G01 X17.1190 Y9.9427
G01 X17.1159 Y9.9350
G01 X17.0757 Y9.8501
G01 X17.0717 Y9.8427
G01 X17.0212 Y9.7586
G01 X16.9628 Y9.6797
G01 X16.9575 Y9.6733
G01 X16.8916 Y9.6006
G01 X16.8158 Y9.5319
G01 X16.7336 Y9.4710
G01 X16.6458 Y9.4184
G01 X16.5533 Y9.3747
G01 X16.4570 Y9.3402
G01 X16.3578 Y9.3153
G01 X16.2588 Y9.3006
G01 X16.1544 Y9.2953
G01 X16.0564 Y9.3000
G01 X16.0481 Y9.3008
G01 X15.9551 Y9.3146
G01 X15.9469 Y9.3162
G01 X15.8518 Y9.3402
G01 X15.7555 Y9.3747
G01 X15.6630 Y9.4184
G01 X15.5787 Y9.4688
G01 X15.5718 Y9.4734
G01 X15.4963 Y9.5294
G01 X15.4899 Y9.5347
G01 X15.4172 Y9.6006
G01 X15.3485 Y9.6764
G01 X15.2876 Y9.7586
G01 X15.2371 Y9.8427
G01 X15.2331 Y9.8501
G01 X15.1929 Y9.9350
G01 X15.1886 Y9.9460
G01 X13.9853 Y9.9627
G01 X14.0080 Y3.1135
G01 X26.1274 Y3.1378
G01 X28.4595 Y5.4237
G01 X28.4594 Y14.5659
G01 X28.4094 Y14.5899
G01 X28.3303 Y14.6375
G01 X28.2581 Y14.6912
G01 X28.1882 Y14.7547
G01 X28.1278 Y14.8215
G01 X28.0728 Y14.8956
G01 X28.0254 Y14.9747
G01 X27.9868 Y15.0560
G01 X27.9549 Y15.1449
G01 X27.9334 Y15.2303
G01 X27.9317 Y15.2385
G01 X27.9194 Y15.3215
G01 X27.9186 Y15.3298
G01 X27.9144 Y15.4178
G01 X27.9189 Y15.5099
G01 X27.9325 Y15.6012
G01 X27.9543 Y15.6885
G01 X27.9845 Y15.7736
G01 X27.9876 Y15.7813
G01 X28.0254 Y15.8609
G01 X28.0728 Y15.9400
G01 X28.1278 Y16.0141
G01 X28.1868 Y16.0795
G01 X28.1927 Y16.0854
G01 X28.2549 Y16.1417
G01 X28.2614 Y16.1470
G01 X28.3322 Y16.1994
G01 X28.4113 Y16.2468
G01 X28.4947 Y16.2862
G01 X28.5776 Y16.3160
G01 X28.5856 Y16.3184
G01 X28.6669 Y16.3388
G01 X28.6751 Y16.3405
G01 X28.7623 Y16.3533
G01 X28.8544 Y16.3578
G01 X28.9424 Y16.3536
G01 X28.9507 Y16.3528
G01 X29.0378 Y16.3397
G01 X29.1273 Y16.3173
G01 X29.2141 Y16.2862
G01 X29.2938 Y16.2487
G01 X29.3011 Y16.2448
G01 X29.3731 Y16.2016
G01 X29.3800 Y16.1970
G01 X29.4507 Y16.1444
G01 X29.5191 Y16.0825
G01 X29.5810 Y16.0141
G01 X29.6336 Y15.9434
G01 X29.6382 Y15.9365
G01 X29.6814 Y15.8645
G01 X29.6853 Y15.8572
G01 X29.7228 Y15.7775
G01 X29.7539 Y15.6907
G01 X29.7763 Y15.6012
G01 X29.7899 Y15.5099
G01 X29.7944 Y15.4178
G01 X29.7902 Y15.3298
G01 X29.7894 Y15.3215
G01 X29.7771 Y15.2385
G01 X29.7754 Y15.2303
G01 X29.7539 Y15.1449
G01 X29.7220 Y15.0560
G01 X29.6834 Y14.9747
G01 X29.6360 Y14.8956
G01 X29.5810 Y14.8215
G01 X29.5206 Y14.7547
G01 X29.4507 Y14.6912
G01 X29.3785 Y14.6375
G01 X29.2994 Y14.5899
G01 X29.2493 Y14.5659
G01 X29.2493 Y5.2576
G01 X29.2478 Y5.2232
G01 X29.2470 Y5.2152
G01 X29.2422 Y5.1829
G01 X29.2400 Y5.1728
G01 X29.2312 Y5.1394
G01 X29.2201 Y5.1087
G01 X29.2160 Y5.0992
G01 X29.2008 Y5.0681
G01 X29.1828 Y5.0384
G01 X29.1623 Y5.0105
G01 X29.1544 Y5.0011
G01 X29.1310 Y4.9759
G01 X26.5639 Y2.4596
G01 X26.5419 Y2.4398
G01 X26.5332 Y2.4329
G01 X26.5051 Y2.4126
G01 X26.4778 Y2.3963
G01 X26.4697 Y2.3920
G01 X26.4409 Y2.3786
G01 X26.4326 Y2.3754
G01 X26.3999 Y2.3641
G01 X26.3690 Y2.3565
G01 X26.3581 Y2.3544
G01 X26.3238 Y2.3498
G01 X26.2900 Y2.3483
G01 X13.6152 Y2.3229
G01 X8.5342 Y2.3229
G01 X8.4957 Y2.3247
G01 X8.4552 Y2.3309
G01 X8.4198 Y2.3399
G01 X8.3871 Y2.3514
G01 X8.3794 Y2.3546
G01 X8.3482 Y2.3695
G01 X8.3185 Y2.3872
G01 X8.3116 Y2.3918
G01 X8.2838 Y2.4125
G01 X8.2553 Y2.4384
G01 X3.1750 Y7.5187
G01 X3.1491 Y7.5472
G01 X3.1260 Y7.5784
G01 X3.1061 Y7.6116
G01 X3.0895 Y7.6467
G01 X3.0765 Y7.6832
G01 X3.0670 Y7.7207
G01 X3.0613 Y7.7591
G01 X3.0595 Y7.7976
G00 X3.0595 Y7.7976
G01 F90.00
G01 Z-0.2000
G01 F150.00
G01 X3.0594 Y11.8727
G01 X3.0429 Y11.8786
G01 X3.0371 Y11.8811
G01 X2.9487 Y11.9229
G01 X2.9414 Y11.9268
G01 X2.8541 Y11.9793
G01 X2.7689 Y12.0425
G01 X2.6903 Y12.1137
G01 X2.6218 Y12.1891
G01 X2.6165 Y12.1956
G01 X2.5583 Y12.2740
G01 X2.5537 Y12.2810
G01 X2.5014 Y12.3684
G01 X2.4561 Y12.4643
G01 X2.4203 Y12.5641
G01 X2.3955 Y12.6629
G01 X2.3938 Y12.6711
G01 X2.3795 Y12.7677
G01 X2.3787 Y12.7760
G01 X2.3738 Y12.8778
G01 X2.3788 Y12.9815
G01 X2.3946 Y13.0886
G01 X2.4203 Y13.1915
G01 X2.4561 Y13.2913
G01 X2.5014 Y13.3872
G01 X2.5559 Y13.4781
G01 X2.6191 Y13.5633
G01 X2.6903 Y13.6419
G01 X2.7689 Y13.7131
G01 X2.8541 Y13.7763
G01 X2.9450 Y13.8308
G01 X3.0409 Y13.8761
G01 X3.1407 Y13.9119
G01 X3.2436 Y13.9376
G01 X3.3485 Y13.9532
G01 X3.4544 Y13.9584
G01 X3.5581 Y13.9534
G01 X3.6652 Y13.9376
G01 X3.7681 Y13.9119
G01 X3.8679 Y13.8761
G01 X3.9601 Y13.8327
G01 X3.9674 Y13.8288
G01 X4.0547 Y13.7763
G01 X4.1366 Y13.7157
G01 X4.1431 Y13.7104
G01 X4.2155 Y13.6448
G01 X4.2214 Y13.6389
G01 X4.2897 Y13.5633
G01 X4.3529 Y13.4781
G01 X4.4074 Y13.3872
G01 X4.4527 Y13.2913
G01 X4.4885 Y13.1915
G01 X4.5142 Y13.0886
G01 X4.5298 Y12.9837
G01 X4.5349 Y12.8820
G01 X4.5349 Y12.8736
G01 X4.5301 Y12.7760
G01 X4.5293 Y12.7677
G01 X4.5142 Y12.6670
G01 X4.4885 Y12.5641
G01 X4.4542 Y12.4682
G01 X4.4511 Y12.4605
G01 X4.4074 Y12.3684
G01 X4.3529 Y12.2775
G01 X4.2923 Y12.1956
G01 X4.2870 Y12.1891
G01 X4.2185 Y12.1137
G01 X4.1399 Y12.0425
G01 X4.0547 Y11.9793
G01 X3.9674 Y11.9268
G01 X3.9601 Y11.9229
G01 X3.8717 Y11.8811
G01 X3.8659 Y11.8786
G01 X3.8493 Y11.8727
G01 X3.8494 Y7.9614
G01 X8.6980 Y3.1127
G01 X13.2181 Y3.1128
G01 X13.1941 Y10.3630
G01 X13.1941 Y25.6087
G01 X13.1959 Y25.6419
G01 X13.1968 Y25.6496
G01 X13.2012 Y25.6781
G01 X13.2032 Y25.6878
G01 X13.2099 Y25.7138
G01 X13.2140 Y25.7270
G01 X13.2233 Y25.7523
G01 X13.2262 Y25.7594
G01 X13.2397 Y25.7874
G01 X13.2433 Y25.7942
G01 X13.2606 Y25.8226
G01 X13.2650 Y25.8290
G01 X13.2823 Y25.8520
G01 X13.2900 Y25.8611
G01 X13.3082 Y25.8809
G01 X13.3152 Y25.8878
G01 X13.3368 Y25.9071
G01 X13.3427 Y25.9120
G01 X13.3696 Y25.9316
G01 X13.3760 Y25.9358
G01 X13.4009 Y25.9505
G01 X13.4114 Y25.9559
G01 X13.4358 Y25.9672
G01 X13.4429 Y25.9702
G01 X13.4722 Y25.9805
G01 X13.4796 Y25.9827
G01 X13.5098 Y25.9901
G01 X13.5215 Y25.9923
G01 X13.5481 Y25.9960
G01 X13.5558 Y25.9968
G01 X13.5890 Y25.9982
G01 X15.1909 Y25.9759
G01 X15.2331 Y26.0655
G01 X15.2371 Y26.0729
G01 X15.2876 Y26.1570
G01 X15.3485 Y26.2392
G01 X15.4172 Y26.3150
G01 X15.4899 Y26.3809
G01 X15.4963 Y26.3862
G01 X15.5718 Y26.4422
G01 X15.5787 Y26.4468
G01 X15.6630 Y26.4972
G01 X15.7555 Y26.5409
G01 X15.8518 Y26.5754
G01 X15.9469 Y26.5994
G01 X15.9551 Y26.6010
G01 X16.0481 Y26.6148
G01 X16.0564 Y26.6156
G01 X16.1544 Y26.6203
G01 X16.2566 Y26.6153
G01 X16.3578 Y26.6003
G01 X16.4570 Y26.5754
G01 X16.5533 Y26.5409
G01 X16.6421 Y26.4991
G01 X16.6495 Y26.4951
G01 X16.7301 Y26.4468
G01 X16.7370 Y26.4422
G01 X16.8158 Y26.3837
G01 X16.8885 Y26.3178
G01 X16.8944 Y26.3119
G01 X16.9603 Y26.2392
G01 X17.0212 Y26.1570
G01 X17.0738 Y26.0692
G01 X17.1175 Y25.9767
G01 X17.1520 Y25.8804
G01 X17.1769 Y25.7812
G01 X17.1919 Y25.6800
G01 X17.1969 Y25.5800
G01 X17.1919 Y25.4756
G01 X17.1769 Y25.3744
G01 X17.1520 Y25.2752
G01 X17.1190 Y25.1827
G01 X17.1159 Y25.1750
G01 X17.0738 Y25.0864
G01 X17.0234 Y25.0021
G01 X17.0188 Y24.9952
G01 X16.9628 Y24.9197
G01 X16.9575 Y24.9133
G01 X16.8916 Y24.8406
G01 X16.8158 Y24.7719
G01 X16.7336 Y24.7110
G01 X16.6458 Y24.6584
G01 X16.5533 Y24.6147
G01 X16.4570 Y24.5802
G01 X16.3578 Y24.5553
G01 X16.2588 Y24.5406
G01 X16.1544 Y24.5353
G01 X16.0564 Y24.5400
G01 X16.0481 Y24.5408
G01 X15.9551 Y24.5546
G01 X15.9469 Y24.5562
G01 X15.8518 Y24.5802
G01 X15.7555 Y24.6147
G01 X15.6630 Y24.6584
G01 X15.5787 Y24.7088
G01 X15.5718 Y24.7134
G01 X15.4963 Y24.7694
G01 X15.4899 Y24.7747
G01 X15.4172 Y24.8406
G01 X15.3485 Y24.9164
G01 X15.2876 Y24.9986
G01 X15.2371 Y25.0827
G01 X15.2331 Y25.0901
G01 X15.1929 Y25.1750
G01 X15.1886 Y25.1860
G01 X13.9839 Y25.2027
G01 X13.9840 Y18.3727
G01 X15.1909 Y18.3559
G01 X15.2350 Y18.4492
G01 X15.2854 Y18.5335
G01 X15.2900 Y18.5404
G01 X15.3460 Y18.6159
G01 X15.3513 Y18.6223
G01 X15.4172 Y18.6950
G01 X15.4930 Y18.7637
G01 X15.5752 Y18.8246
G01 X15.6593 Y18.8751
G01 X15.6667 Y18.8791
G01 X15.7516 Y18.9193
G01 X15.7593 Y18.9224
G01 X15.8518 Y18.9554
G01 X15.9510 Y18.9803
G01 X16.0522 Y18.9953
G01 X16.1502 Y19.0002
G01 X16.1586 Y19.0002
G01 X16.2588 Y18.9950
G01 X16.3578 Y18.9803
G01 X16.4570 Y18.9554
G01 X16.5533 Y18.9209
G01 X16.6458 Y18.8772
G01 X16.7336 Y18.8246
G01 X16.8158 Y18.7637
G01 X16.8916 Y18.6950
G01 X16.9575 Y18.6223
G01 X16.9628 Y18.6159
G01 X17.0212 Y18.5370
G01 X17.0717 Y18.4529
G01 X17.0757 Y18.4455
G01 X17.1159 Y18.3606
G01 X17.1190 Y18.3529
G01 X17.1520 Y18.2604
G01 X17.1769 Y18.1612
G01 X17.1919 Y18.0600
G01 X17.1969 Y17.9578
G01 X17.1919 Y17.8556
G01 X17.1769 Y17.7544
G01 X17.1520 Y17.6552
G01 X17.1190 Y17.5627
G01 X17.1159 Y17.5550
G01 X17.0757 Y17.4701
G01 X17.0717 Y17.4627
G01 X17.0212 Y17.3786
G01 X16.9628 Y17.2997
G01 X16.9575 Y17.2933
G01 X16.8916 Y17.2206
G01 X16.8158 Y17.1519
G01 X16.7336 Y17.0910
G01 X16.6458 Y17.0384
G01 X16.5533 Y16.9947
G01 X16.4570 Y16.9602
G01 X16.3578 Y16.9353
G01 X16.2588 Y16.9206
G01 X16.1544 Y16.9153
G01 X16.0564 Y16.9200
G01 X16.0481 Y16.9208
G01 X15.9551 Y16.9346
G01 X15.9469 Y16.9362
G01 X15.8518 Y16.9602
G01 X15.7555 Y16.9947
G01 X15.6630 Y17.0384
G01 X15.5787 Y17.0888
G01 X15.5718 Y17.0934
G01 X15.4963 Y17.1494
G01 X15.4899 Y17.1547
G01 X15.4172 Y17.2206
G01 X15.3485 Y17.2964
G01 X15.2876 Y17.3786
G01 X15.2371 Y17.4627
G01 X15.2331 Y17.4701
G01 X15.1929 Y17.5550
G01 X15.1886 Y17.5660
G01 X13.9839 Y17.5827
G01 X13.9840 Y10.7527
G01 X15.1909 Y10.7359
G01 X15.2350 Y10.8292
G01 X15.2854 Y10.9135
G01 X15.2900 Y10.9204
G01 X15.3460 Y10.9959
G01 X15.3513 Y11.0023
G01 X15.4172 Y11.0750
G01 X15.4930 Y11.1437
G01 X15.5752 Y11.2046
G01 X15.6593 Y11.2551
G01 X15.6667 Y11.2591
G01 X15.7516 Y11.2993
G01 X15.7593 Y11.3024
G01 X15.8518 Y11.3354
G01 X15.9510 Y11.3603
G01 X16.0522 Y11.3753
G01 X16.1502 Y11.3802
G01 X16.1586 Y11.3802
G01 X16.2588 Y11.3750
G01 X16.3578 Y11.3603
G01 X16.4570 Y11.3354
G01 X16.5533 Y11.3009
G01 X16.6458 Y11.2572
G01 X16.7336 Y11.2046
G01 X16.8158 Y11.1437
G01 X16.8916 Y11.0750
G01 X16.9575 Y11.0023
G01 X16.9628 Y10.9959
G01 X17.0212 Y10.9170
G01 X17.0717 Y10.8329
G01 X17.0757 Y10.8255
G01 X17.1159 Y10.7406
G01 X17.1190 Y10.7329
G01 X17.1520 Y10.6404
G01 X17.1769 Y10.5412
G01 X17.1919 Y10.4400
G01 X17.1969 Y10.3378
G01 X17.1919 Y10.2356
G01 X17.1769 Y10.1344
G01 X17.1520 Y10.0352
G01 X17.1190 Y9.9427
G01 X17.1159 Y9.9350
G01 X17.0757 Y9.8501
G01 X17.0717 Y9.8427
G01 X17.0212 Y9.7586
G01 X16.9628 Y9.6797
G01 X16.9575 Y9.6733
G01 X16.8916 Y9.6006
G01 X16.8158 Y9.5319
G01 X16.7336 Y9.4710
G01 X16.6458 Y9.4184
G01 X16.5533 Y9.3747
G01 X16.4570 Y9.3402
G01 X16.3578 Y9.3153
G01 X16.2588 Y9.3006
G01 X16.1544 Y9.2953
G01 X16.0564 Y9.3000
G01 X16.0481 Y9.3008
G01 X15.9551 Y9.3146
G01 X15.9469 Y9.3162
G01 X15.8518 Y9.3402
G01 X15.7555 Y9.3747
G01 X15.6630 Y9.4184
G01 X15.5787 Y9.4688
G01 X15.5718 Y9.4734
G01 X15.4963 Y9.5294
G01 X15.4899 Y9.5347
G01 X15.4172 Y9.6006
G01 X15.3485 Y9.6764
G01 X15.2876 Y9.7586
G01 X15.2371 Y9.8427
G01 X15.2331 Y9.8501
G01 X15.1929 Y9.9350
G01 X15.1886 Y9.9460
G01 X13.9853 Y9.9627
G01 X14.0080 Y3.1135
G01 X26.1274 Y3.1378
G01 X28.4595 Y5.4237
G01 X28.4594 Y14.5659
G01 X28.4094 Y14.5899
G01 X28.3303 Y14.6375
G01 X28.2581 Y14.6912
G01 X28.1882 Y14.7547
G01 X28.1278 Y14.8215
G01 X28.0728 Y14.8956
G01 X28.0254 Y14.9747
G01 X27.9868 Y15.0560
G01 X27.9549 Y15.1449
G01 X27.9334 Y15.2303
G01 X27.9317 Y15.2385
G01 X27.9194 Y15.3215
G01 X27.9186 Y15.3298
G01 X27.9144 Y15.4178
G01 X27.9189 Y15.5099
G01 X27.9325 Y15.6012
G01 X27.9543 Y15.6885
G01 X27.9845 Y15.7736
G01 X27.9876 Y15.7813
G01 X28.0254 Y15.8609
G01 X28.0728 Y15.9400
G01 X28.1278 Y16.0141
G01 X28.1868 Y16.0795
G01 X28.1927 Y16.0854
G01 X28.2549 Y16.1417
G01 X28.2614 Y16.1470
G01 X28.3322 Y16.1994
G01 X28.4113 Y16.2468
G01 X28.4947 Y16.2862
G01 X28.5776 Y16.3160
G01 X28.5856 Y16.3184
G01 X28.6669 Y16.3388
G01 X28.6751 Y16.3405
G01 X28.7623 Y16.3533
G01 X28.8544 Y16.3578
G01 X28.9424 Y16.3536
G01 X28.9507 Y16.3528
G01 X29.0378 Y16.3397
G01 X29.1273 Y16.3173
G01 X29.2141 Y16.2862
G01 X29.2938 Y16.2487
G01 X29.3011 Y16.2448
G01 X29.3731 Y16.2016
G01 X29.3800 Y16.1970
G01 X29.4507 Y16.1444
G01 X29.5191 Y16.0825
G01 X29.5810 Y16.0141
G01 X29.6336 Y15.9434
G01 X29.6382 Y15.9365
G01 X29.6814 Y15.8645
G01 X29.6853 Y15.8572
G01 X29.7228 Y15.7775
G01 X29.7539 Y15.6907
G01 X29.7763 Y15.6012
G01 X29.7899 Y15.5099
G01 X29.7944 Y15.4178
G01 X29.7902 Y15.3298
G01 X29.7894 Y15.3215
G01 X29.7771 Y15.2385
G01 X29.7754 Y15.2303
G01 X29.7539 Y15.1449
G01 X29.7220 Y15.0560
G01 X29.6834 Y14.9747
G01 X29.6360 Y14.8956
G01 X29.5810 Y14.8215
G01 X29.5206 Y14.7547
G01 X29.4507 Y14.6912
G01 X29.3785 Y14.6375
G01 X29.2994 Y14.5899
G01 X29.2493 Y14.5659
G01 X29.2493 Y5.2576
G01 X29.2478 Y5.2232
G01 X29.2470 Y5.2152
G01 X29.2422 Y5.1829
G01 X29.2400 Y5.1728
G01 X29.2312 Y5.1394
G01 X29.2201 Y5.1087
G01 X29.2160 Y5.0992
G01 X29.2008 Y5.0681
G01 X29.1828 Y5.0384
G01 X29.1623 Y5.0105
G01 X29.1544 Y5.0011
G01 X29.1310 Y4.9759
G01 X26.5639 Y2.4596
G01 X26.5419 Y2.4398
G01 X26.5332 Y2.4329
G01 X26.5051 Y2.4126
G01 X26.4778 Y2.3963
G01 X26.4697 Y2.3920
G01 X26.4409 Y2.3786
G01 X26.4326 Y2.3754
G01 X26.3999 Y2.3641
G01 X26.3690 Y2.3565
G01 X26.3581 Y2.3544
G01 X26.3238 Y2.3498
G01 X26.2900 Y2.3483
G01 X13.6152 Y2.3229
G01 X8.5342 Y2.3229
G01 X8.4957 Y2.3247
G01 X8.4552 Y2.3309
G01 X8.4198 Y2.3399
G01 X8.3871 Y2.3514
G01 X8.3794 Y2.3546
G01 X8.3482 Y2.3695
G01 X8.3185 Y2.3872
G01 X8.3116 Y2.3918
G01 X8.2838 Y2.4125
G01 X8.2553 Y2.4384
G01 X3.1750 Y7.5187
G01 X3.1491 Y7.5472
G01 X3.1260 Y7.5784
G01 X3.1061 Y7.6116
G01 X3.0895 Y7.6467
G01 X3.0765 Y7.6832
G01 X3.0670 Y7.7207
G01 X3.0613 Y7.7591
G01 X3.0595 Y7.7976
G00 Z1.0000
G00 X7.5817 Y8.8403
G01 F90.00
G01 Z-0.1000
G01 F150.00
G01 X9.4891 Y8.8403
G01 X9.5023 Y8.8390
G01 X9.5088 Y8.8376
G01 X9.5172 Y8.8350
G01 X9.5293 Y8.8297
G01 X9.5350 Y8.8263
G01 X9.5423 Y8.8213
G01 X9.5521 Y8.8124
G01 X9.5565 Y8.8074
G01 X9.5617 Y8.8003
G01 X9.5683 Y8.7888
G01 X9.5716 Y8.7806
G01 X9.5736 Y8.7743
G01 X9.5759 Y8.7635
G01 X9.5769 Y8.7505
G01 X9.5769 Y6.8451
G01 X9.5765 Y6.8365
G01 X9.5756 Y6.8299
G01 X9.5724 Y6.8171
G01 X9.5673 Y6.8048
G01 X9.5605 Y6.7935
G01 X9.5521 Y6.7832
G01 X9.5423 Y6.7743
G01 X9.5313 Y6.7670
G01 X9.5213 Y6.7622
G01 X9.5088 Y6.7580
G01 X9.4957 Y6.7557
G01 X9.4871 Y6.7553
G01 X8.9294 Y6.7553
G01 X8.9294 Y6.2225
G01 X8.9372 Y6.2193
G01 X9.0221 Y6.1791
G01 X9.0295 Y6.1751
G01 X9.1136 Y6.1246
G01 X9.1925 Y6.0662
G01 X9.1989 Y6.0609
G01 X9.2716 Y5.9950
G01 X9.3403 Y5.9192
G01 X9.4012 Y5.8370
G01 X9.4538 Y5.7492
G01 X9.4975 Y5.6567
G01 X9.5307 Y5.5644
G01 X9.5331 Y5.5564
G01 X9.5560 Y5.4653
G01 X9.5576 Y5.4571
G01 X9.5719 Y5.3600
G01 X9.5769 Y5.2578
G01 X9.5719 Y5.1556
G01 X9.5573 Y5.0566
G01 X9.5331 Y4.9592
G01 X9.5307 Y4.9512
G01 X9.4975 Y4.8589
G01 X9.4538 Y4.7664
G01 X9.4034 Y4.6821
G01 X9.3988 Y4.6752
G01 X9.3403 Y4.5964
G01 X9.2744 Y4.5237
G01 X9.2685 Y4.5178
G01 X9.1958 Y4.4519
G01 X9.1170 Y4.3934
G01 X9.1101 Y4.3888
G01 X9.0258 Y4.3384
G01 X8.9372 Y4.2963
G01 X8.9295 Y4.2932
G01 X8.8349 Y4.2596
G01 X8.7378 Y4.2353
G01 X8.6366 Y4.2203
G01 X8.5344 Y4.2153
G01 X8.4322 Y4.2203
G01 X8.3310 Y4.2353
G01 X8.2318 Y4.2602
G01 X8.1355 Y4.2947
G01 X8.0430 Y4.3384
G01 X7.9552 Y4.3910
G01 X7.8730 Y4.4519
G01 X7.7972 Y4.5206
G01 X7.7285 Y4.5964
G01 X7.6676 Y4.6786
G01 X7.6150 Y4.7664
G01 X7.5713 Y4.8589
G01 X7.5362 Y4.9573
G01 X7.5119 Y5.0544
G01 X7.4969 Y5.1556
G01 X7.4919 Y5.2578
G01 X7.4969 Y5.3600
G01 X7.5119 Y5.4612
G01 X7.5368 Y5.5604
G01 X7.5713 Y5.6567
G01 X7.6131 Y5.7455
G01 X7.6171 Y5.7529
G01 X7.6676 Y5.8370
G01 X7.7285 Y5.9192
G01 X7.7972 Y5.9950
G01 X7.8699 Y6.0609
G01 X7.8763 Y6.0662
G01 X7.9552 Y6.1246
G01 X8.0393 Y6.1751
G01 X8.0467 Y6.1791
G01 X8.1316 Y6.2193
G01 X8.1394 Y6.2225
G01 X8.1394 Y6.7553
G01 X7.5817 Y6.7553
G01 X7.5731 Y6.7557
G01 X7.5643 Y6.7570
G01 X7.5579 Y6.7586
G01 X7.5454 Y6.7630
G01 X7.5338 Y6.7693
G01 X7.5283 Y6.7730
G01 X7.5215 Y6.7786
G01 X7.5123 Y6.7882
G01 X7.5083 Y6.7935
G01 X7.5036 Y6.8009
G01 X7.4979 Y6.8129
G01 X7.4941 Y6.8256
G01 X7.4926 Y6.8343
G01 X7.4919 Y6.8451
G01 X7.4920 Y8.7547
G01 X7.4926 Y8.7613
G01 X7.4941 Y8.7700
G01 X7.4964 Y8.7785
G01 X7.4996 Y8.7868
G01 X7.5036 Y8.7947
G01 X7.5083 Y8.8021
G01 X7.5138 Y8.8091
G01 X7.5198 Y8.8155
G01 X7.5248 Y8.8199
G01 X7.5319 Y8.8251
G01 X7.5395 Y8.8297
G01 X7.5475 Y8.8334
G01 X7.5558 Y8.8364
G01 X7.5643 Y8.8386
G01 X7.5731 Y8.8399
G01 X7.5817 Y8.8403
G00 X7.5817 Y8.8403
G01 F90.00
G01 Z-0.2000
G01 F150.00
G01 X9.4891 Y8.8403
G01 X9.5023 Y8.8390
G01 X9.5088 Y8.8376
G01 X9.5172 Y8.8350
G01 X9.5293 Y8.8297
G01 X9.5350 Y8.8263
G01 X9.5423 Y8.8213
G01 X9.5521 Y8.8124
G01 X9.5565 Y8.8074
G01 X9.5617 Y8.8003
G01 X9.5683 Y8.7888
G01 X9.5716 Y8.7806
G01 X9.5736 Y8.7743
G01 X9.5759 Y8.7635
G01 X9.5769 Y8.7505
G01 X9.5769 Y6.8451
G01 X9.5765 Y6.8365
G01 X9.5756 Y6.8299
G01 X9.5724 Y6.8171
G01 X9.5673 Y6.8048
G01 X9.5605 Y6.7935
G01 X9.5521 Y6.7832
G01 X9.5423 Y6.7743
G01 X9.5313 Y6.7670
G01 X9.5213 Y6.7622
G01 X9.5088 Y6.7580
G01 X9.4957 Y6.7557
G01 X9.4871 Y6.7553
G01 X8.9294 Y6.7553
G01 X8.9294 Y6.2225
G01 X8.9372 Y6.2193
G01 X9.0221 Y6.1791
G01 X9.0295 Y6.1751
G01 X9.1136 Y6.1246
G01 X9.1925 Y6.0662
G01 X9.1989 Y6.0609
G01 X9.2716 Y5.9950
G01 X9.3403 Y5.9192
G01 X9.4012 Y5.8370
G01 X9.4538 Y5.7492
G01 X9.4975 Y5.6567
G01 X9.5307 Y5.5644
G01 X9.5331 Y5.5564
G01 X9.5560 Y5.4653
G01 X9.5576 Y5.4571
G01 X9.5719 Y5.3600
G01 X9.5769 Y5.2578
G01 X9.5719 Y5.1556
G01 X9.5573 Y5.0566
G01 X9.5331 Y4.9592
G01 X9.5307 Y4.9512
G01 X9.4975 Y4.8589
G01 X9.4538 Y4.7664
G01 X9.4034 Y4.6821
G01 X9.3988 Y4.6752
G01 X9.3403 Y4.5964
G01 X9.2744 Y4.5237
G01 X9.2685 Y4.5178
G01 X9.1958 Y4.4519
G01 X9.1170 Y4.3934
G01 X9.1101 Y4.3888
G01 X9.0258 Y4.3384
G01 X8.9372 Y4.2963
G01 X8.9295 Y4.2932
G01 X8.8349 Y4.2596
G01 X8.7378 Y4.2353
G01 X8.6366 Y4.2203
G01 X8.5344 Y4.2153
G01 X8.4322 Y4.2203
G01 X8.3310 Y4.2353
G01 X8.2318 Y4.2602
G01 X8.1355 Y4.2947
G01 X8.0430 Y4.3384
G01 X7.9552 Y4.3910
G01 X7.8730 Y4.4519
G01 X7.7972 Y4.5206
G01 X7.7285 Y4.5964
G01 X7.6676 Y4.6786
G01 X7.6150 Y4.7664
G01 X7.5713 Y4.8589
G01 X7.5362 Y4.9573
G01 X7.5119 Y5.0544
G01 X7.4969 Y5.1556
G01 X7.4919 Y5.2578
G01 X7.4969 Y5.3600
G01 X7.5119 Y5.4612
G01 X7.5368 Y5.5604
G01 X7.5713 Y5.6567
G01 X7.6131 Y5.7455
G01 X7.6171 Y5.7529
G01 X7.6676 Y5.8370
G01 X7.7285 Y5.9192
G01 X7.7972 Y5.9950
G01 X7.8699 Y6.0609
G01 X7.8763 Y6.0662
G01 X7.9552 Y6.1246
G01 X8.0393 Y6.1751
G01 X8.0467 Y6.1791
G01 X8.1316 Y6.2193
G01 X8.1394 Y6.2225
G01 X8.1394 Y6.7553
G01 X7.5817 Y6.7553
G01 X7.5731 Y6.7557
G01 X7.5643 Y6.7570
G01 X7.5579 Y6.7586
G01 X7.5454 Y6.7630
G01 X7.5338 Y6.7693
G01 X7.5283 Y6.7730
G01 X7.5215 Y6.7786
G01 X7.5123 Y6.7882
G01 X7.5083 Y6.7935
G01 X7.5036 Y6.8009
G01 X7.4979 Y6.8129
G01 X7.4941 Y6.8256
G01 X7.4926 Y6.8343
G01 X7.4919 Y6.8451
G01 X7.4920 Y8.7547
G01 X7.4926 Y8.7613
G01 X7.4941 Y8.7700
G01 X7.4964 Y8.7785
G01 X7.4996 Y8.7868
G01 X7.5036 Y8.7947
G01 X7.5083 Y8.8021
G01 X7.5138 Y8.8091
G01 X7.5198 Y8.8155
G01 X7.5248 Y8.8199
G01 X7.5319 Y8.8251
G01 X7.5395 Y8.8297
G01 X7.5475 Y8.8334
G01 X7.5558 Y8.8364
G01 X7.5643 Y8.8386
G01 X7.5731 Y8.8399
G01 X7.5817 Y8.8403
G00 Z1.0000
G00 X7.5817 Y16.4603
G01 F90.00
G01 Z-0.1000
G01 F150.00
G01 X9.4891 Y16.4603
G01 X9.4979 Y16.4596
G01 X9.5045 Y16.4586
G01 X9.5172 Y16.4550
G01 X9.5254 Y16.4517
G01 X9.5313 Y16.4486
G01 X9.5423 Y16.4413
G01 X9.5521 Y16.4324
G01 X9.5565 Y16.4274
G01 X9.5617 Y16.4203
G01 X9.5683 Y16.4088
G01 X9.5709 Y16.4027
G01 X9.5736 Y16.3943
G01 X9.5759 Y16.3835
G01 X9.5769 Y16.3705
G01 X9.5769 Y14.4651
G01 X9.5765 Y14.4565
G01 X9.5756 Y14.4499
G01 X9.5724 Y14.4371
G01 X9.5673 Y14.4248
G01 X9.5617 Y14.4153
G01 X9.5536 Y14.4049
G01 X9.5440 Y14.3957
G01 X9.5332 Y14.3881
G01 X9.5213 Y14.3822
G01 X9.5088 Y14.3780
G01 X9.4957 Y14.3757
G01 X9.4871 Y14.3753
G01 X8.9294 Y14.3753
G01 X8.9294 Y13.8425
G01 X8.9372 Y13.8393
G01 X9.0221 Y13.7991
G01 X9.0295 Y13.7951
G01 X9.1136 Y13.7446
G01 X9.1925 Y13.6862
G01 X9.1989 Y13.6809
G01 X9.2716 Y13.6150
G01 X9.3403 Y13.5392
G01 X9.4012 Y13.4570
G01 X9.4538 Y13.3692
G01 X9.4975 Y13.2767
G01 X9.5307 Y13.1844
G01 X9.5331 Y13.1764
G01 X9.5560 Y13.0853
G01 X9.5576 Y13.0771
G01 X9.5719 Y12.9800
G01 X9.5769 Y12.8778
G01 X9.5719 Y12.7756
G01 X9.5573 Y12.6766
G01 X9.5331 Y12.5792
G01 X9.5307 Y12.5712
G01 X9.4975 Y12.4789
G01 X9.4557 Y12.3901
G01 X9.4517 Y12.3827
G01 X9.4012 Y12.2986
G01 X9.3428 Y12.2197
G01 X9.3375 Y12.2133
G01 X9.2716 Y12.1406
G01 X9.1989 Y12.0747
G01 X9.1925 Y12.0694
G01 X9.1136 Y12.0110
G01 X9.0258 Y11.9584
G01 X8.9372 Y11.9163
G01 X8.9295 Y11.9132
G01 X8.8349 Y11.8796
G01 X8.7378 Y11.8553
G01 X8.6366 Y11.8403
G01 X8.5344 Y11.8353
G01 X8.4322 Y11.8403
G01 X8.3310 Y11.8553
G01 X8.2318 Y11.8802
G01 X8.1355 Y11.9147
G01 X8.0430 Y11.9584
G01 X7.9552 Y12.0110
G01 X7.8730 Y12.0719
G01 X7.7972 Y12.1406
G01 X7.7285 Y12.2164
G01 X7.6676 Y12.2986
G01 X7.6150 Y12.3864
G01 X7.5713 Y12.4789
G01 X7.5362 Y12.5773
G01 X7.5119 Y12.6744
G01 X7.4969 Y12.7756
G01 X7.4919 Y12.8778
G01 X7.4969 Y12.9800
G01 X7.5119 Y13.0812
G01 X7.5368 Y13.1804
G01 X7.5713 Y13.2767
G01 X7.6131 Y13.3655
G01 X7.6171 Y13.3729
G01 X7.6676 Y13.4570
G01 X7.7285 Y13.5392
G01 X7.7972 Y13.6150
G01 X7.8699 Y13.6809
G01 X7.8763 Y13.6862
G01 X7.9552 Y13.7446
G01 X8.0393 Y13.7951
G01 X8.0467 Y13.7991
G01 X8.1316 Y13.8393
G01 X8.1394 Y13.8425
G01 X8.1394 Y14.3753
G01 X7.5817 Y14.3753
G01 X7.5731 Y14.3757
G01 X7.5600 Y14.3780
G01 X7.5537 Y14.3798
G01 X7.5454 Y14.3830
G01 X7.5338 Y14.3893
G01 X7.5231 Y14.3972
G01 X7.5138 Y14.4065
G01 X7.5083 Y14.4135
G01 X7.5047 Y14.4190
G01 X7.4988 Y14.4309
G01 X7.4964 Y14.4371
G01 X7.4941 Y14.4456
G01 X7.4926 Y14.4543
G01 X7.4919 Y14.4651
G01 X7.4920 Y16.3747
G01 X7.4926 Y16.3813
G01 X7.4941 Y16.3900
G01 X7.4964 Y16.3985
G01 X7.4996 Y16.4068
G01 X7.5036 Y16.4147
G01 X7.5083 Y16.4221
G01 X7.5138 Y16.4291
G01 X7.5198 Y16.4355
G01 X7.5248 Y16.4399
G01 X7.5319 Y16.4451
G01 X7.5395 Y16.4497
G01 X7.5475 Y16.4534
G01 X7.5558 Y16.4564
G01 X7.5643 Y16.4586
G01 X7.5731 Y16.4599
G01 X7.5817 Y16.4603
G00 X7.5817 Y16.4603
G01 F90.00
G01 Z-0.2000
G01 F150.00
G01 X9.4891 Y16.4603
G01 X9.4979 Y16.4596
G01 X9.5045 Y16.4586
G01 X9.5172 Y16.4550
G01 X9.5254 Y16.4517
G01 X9.5313 Y16.4486
G01 X9.5423 Y16.4413
G01 X9.5521 Y16.4324
G01 X9.5565 Y16.4274
G01 X9.5617 Y16.4203
G01 X9.5683 Y16.4088
G01 X9.5709 Y16.4027
G01 X9.5736 Y16.3943
G01 X9.5759 Y16.3835
G01 X9.5769 Y16.3705
G01 X9.5769 Y14.4651
G01 X9.5765 Y14.4565
G01 X9.5756 Y14.4499
G01 X9.5724 Y14.4371
G01 X9.5673 Y14.4248
G01 X9.5617 Y14.4153
G01 X9.5536 Y14.4049
G01 X9.5440 Y14.3957
G01 X9.5332 Y14.3881
G01 X9.5213 Y14.3822
G01 X9.5088 Y14.3780
G01 X9.4957 Y14.3757
G01 X9.4871 Y14.3753
G01 X8.9294 Y14.3753
G01 X8.9294 Y13.8425
G01 X8.9372 Y13.8393
G01 X9.0221 Y13.7991
G01 X9.0295 Y13.7951
G01 X9.1136 Y13.7446
G01 X9.1925 Y13.6862
G01 X9.1989 Y13.6809
G01 X9.2716 Y13.6150
G01 X9.3403 Y13.5392
G01 X9.4012 Y13.4570
G01 X9.4538 Y13.3692
G01 X9.4975 Y13.2767
G01 X9.5307 Y13.1844
G01 X9.5331 Y13.1764
G01 X9.5560 Y13.0853
G01 X9.5576 Y13.0771
G01 X9.5719 Y12.9800
G01 X9.5769 Y12.8778
G01 X9.5719 Y12.7756
G01 X9.5573 Y12.6766
G01 X9.5331 Y12.5792
G01 X9.5307 Y12.5712
G01 X9.4975 Y12.4789
G01 X9.4557 Y12.3901
G01 X9.4517 Y12.3827
G01 X9.4012 Y12.2986
G01 X9.3428 Y12.2197
G01 X9.3375 Y12.2133
G01 X9.2716 Y12.1406
G01 X9.1989 Y12.0747
G01 X9.1925 Y12.0694
G01 X9.1136 Y12.0110
G01 X9.0258 Y11.9584
G01 X8.9372 Y11.9163
G01 X8.9295 Y11.9132
G01 X8.8349 Y11.8796
G01 X8.7378 Y11.8553
G01 X8.6366 Y11.8403
G01 X8.5344 Y11.8353
G01 X8.4322 Y11.8403
G01 X8.3310 Y11.8553
G01 X8.2318 Y11.8802
G01 X8.1355 Y11.9147
G01 X8.0430 Y11.9584
G01 X7.9552 Y12.0110
G01 X7.8730 Y12.0719
G01 X7.7972 Y12.1406
G01 X7.7285 Y12.2164
G01 X7.6676 Y12.2986
G01 X7.6150 Y12.3864
G01 X7.5713 Y12.4789
G01 X7.5362 Y12.5773
G01 X7.5119 Y12.6744
G01 X7.4969 Y12.7756
G01 X7.4919 Y12.8778
G01 X7.4969 Y12.9800
G01 X7.5119 Y13.0812
G01 X7.5368 Y13.1804
G01 X7.5713 Y13.2767
G01 X7.6131 Y13.3655
G01 X7.6171 Y13.3729
G01 X7.6676 Y13.4570
G01 X7.7285 Y13.5392
G01 X7.7972 Y13.6150
G01 X7.8699 Y13.6809
G01 X7.8763 Y13.6862
G01 X7.9552 Y13.7446
G01 X8.0393 Y13.7951
G01 X8.0467 Y13.7991
G01 X8.1316 Y13.8393
G01 X8.1394 Y13.8425
G01 X8.1394 Y14.3753
G01 X7.5817 Y14.3753
G01 X7.5731 Y14.3757
G01 X7.5600 Y14.3780
G01 X7.5537 Y14.3798
G01 X7.5454 Y14.3830
G01 X7.5338 Y14.3893
G01 X7.5231 Y14.3972
G01 X7.5138 Y14.4065
G01 X7.5083 Y14.4135
G01 X7.5047 Y14.4190
G01 X7.4988 Y14.4309
G01 X7.4964 Y14.4371
G01 X7.4941 Y14.4456
G01 X7.4926 Y14.4543
G01 X7.4919 Y14.4651
G01 X7.4920 Y16.3747
G01 X7.4926 Y16.3813
G01 X7.4941 Y16.3900
G01 X7.4964 Y16.3985
G01 X7.4996 Y16.4068
G01 X7.5036 Y16.4147
G01 X7.5083 Y16.4221
G01 X7.5138 Y16.4291
G01 X7.5198 Y16.4355
G01 X7.5248 Y16.4399
G01 X7.5319 Y16.4451
G01 X7.5395 Y16.4497
G01 X7.5475 Y16.4534
G01 X7.5558 Y16.4564
G01 X7.5643 Y16.4586
G01 X7.5731 Y16.4599
G01 X7.5817 Y16.4603
G00 Z1.0000
G00 X3.8858 Y16.9678
G01 F90.00
G01 Z-0.1000
G01 F150.00
G01 X3.8659 Y16.9586
G01 X3.7681 Y16.9237
G01 X3.6652 Y16.8980
G01 X3.5603 Y16.8824
G01 X3.4544 Y16.8772
G01 X3.3485 Y16.8824
G01 X3.2436 Y16.8980
G01 X3.1407 Y16.9237
G01 X3.0409 Y16.9595
G01 X2.9450 Y17.0048
G01 X2.8541 Y17.0593
G01 X2.7689 Y17.1225
G01 X2.6903 Y17.1937
G01 X2.6191 Y17.2723
G01 X2.5559 Y17.3575
G01 X2.5014 Y17.4484
G01 X2.4561 Y17.5443
G01 X2.4203 Y17.6441
G01 X2.3946 Y17.7470
G01 X2.3790 Y17.8519
G01 X2.3738 Y17.9578
G01 X2.3790 Y18.0637
G01 X2.3946 Y18.1686
G01 X2.4203 Y18.2715
G01 X2.4561 Y18.3713
G01 X2.5014 Y18.4672
G01 X2.5559 Y18.5581
G01 X2.6191 Y18.6433
G01 X2.6903 Y18.7219
G01 X2.7689 Y18.7931
G01 X2.8541 Y18.8563
G01 X2.9450 Y18.9108
G01 X3.0409 Y18.9561
G01 X3.1407 Y18.9919
G01 X3.2395 Y19.0167
G01 X3.2477 Y19.0184
G01 X3.3485 Y19.0332
G01 X3.4502 Y19.0383
G01 X3.4586 Y19.0383
G01 X3.5603 Y19.0332
G01 X3.6652 Y19.0176
G01 X3.7641 Y18.9930
G01 X3.7720 Y18.9906
G01 X3.8679 Y18.9561
G01 X3.9638 Y18.9108
G01 X4.0512 Y18.8585
G01 X4.0582 Y18.8539
G01 X4.1399 Y18.7931
G01 X4.2185 Y18.7219
G01 X4.2897 Y18.6433
G01 X4.3505 Y18.5616
G01 X4.3551 Y18.5546
G01 X4.4074 Y18.4672
G01 X4.4527 Y18.3713
G01 X4.4872 Y18.2754
G01 X4.4896 Y18.2675
G01 X4.5142 Y18.1686
G01 X4.5298 Y18.0637
G01 X4.5349 Y17.9620
G01 X4.5349 Y17.9536
G01 X4.5298 Y17.8519
G01 X4.5142 Y17.7470
G01 X4.4896 Y17.6481
G01 X4.4872 Y17.6402
G01 X4.4542 Y17.5482
G01 X4.4519 Y17.5422
G01 X4.4444 Y17.5264
G01 X6.2738 Y15.6969
G01 X6.2970 Y15.6715
G01 X6.3023 Y15.6651
G01 X6.3228 Y15.6372
G01 X6.3417 Y15.6059
G01 X6.3593 Y15.5689
G01 X6.3710 Y15.5364
G01 X6.3735 Y15.5284
G01 X6.3818 Y15.4949
G01 X6.3869 Y15.4607
G01 X6.3878 Y15.4524
G01 X6.3893 Y15.4200
G01 X6.3894 Y13.0399
G01 X8.1157 Y11.2917
G01 X8.1375 Y11.3018
G01 X8.2278 Y11.3341
G01 X8.2358 Y11.3365
G01 X8.3310 Y11.3603
G01 X8.4281 Y11.3748
G01 X8.4364 Y11.3756
G01 X8.5344 Y11.3803
G01 X8.6366 Y11.3753
G01 X8.7378 Y11.3603
G01 X8.8370 Y11.3354
G01 X8.9333 Y11.3009
G01 X9.0258 Y11.2572
G01 X9.1136 Y11.2046
G01 X9.1925 Y11.1462
G01 X9.1989 Y11.1409
G01 X9.2685 Y11.0778
G01 X9.2744 Y11.0719
G01 X9.3403 Y10.9992
G01 X9.4024 Y10.9151
G01 X9.4538 Y10.8292
G01 X9.4975 Y10.7367
G01 X9.5320 Y10.6404
G01 X9.5569 Y10.5412
G01 X9.5719 Y10.4400
G01 X9.5769 Y10.3378
G01 X9.5719 Y10.2356
G01 X9.5569 Y10.1344
G01 X9.5320 Y10.0352
G01 X9.4975 Y9.9389
G01 X9.4538 Y9.8464
G01 X9.4012 Y9.7586
G01 X9.3403 Y9.6764
G01 X9.2716 Y9.6006
G01 X9.1958 Y9.5319
G01 X9.1154 Y9.4722
G01 X9.0258 Y9.4184
G01 X8.9333 Y9.3747
G01 X8.8370 Y9.3402
G01 X8.7378 Y9.3153
G01 X8.6366 Y9.3003
G01 X8.5344 Y9.2953
G01 X8.4322 Y9.3003
G01 X8.3310 Y9.3153
G01 X8.2318 Y9.3402
G01 X8.1355 Y9.3747
G01 X8.0430 Y9.4184
G01 X7.9552 Y9.4710
G01 X7.8730 Y9.5319
G01 X7.7972 Y9.6006
G01 X7.7285 Y9.6764
G01 X7.6688 Y9.7568
G01 X7.6150 Y9.8464
G01 X7.5729 Y9.9350
G01 X7.5698 Y9.9427
G01 X7.5368 Y10.0352
G01 X7.5128 Y10.1303
G01 X7.5112 Y10.1385
G01 X7.4969 Y10.2356
G01 X7.4919 Y10.3378
G01 X7.4966 Y10.4358
G01 X7.4974 Y10.4441
G01 X7.5112 Y10.5371
G01 X7.5128 Y10.5453
G01 X7.5368 Y10.6404
G01 X7.5665 Y10.7237
G01 X5.7132 Y12.6005
G01 X5.6875 Y12.6292
G01 X5.6646 Y12.6604
G01 X5.6449 Y12.6938
G01 X5.6312 Y12.7228
G01 X5.6278 Y12.7310
G01 X5.6157 Y12.7655
G01 X5.6066 Y12.8032
G01 X5.6013 Y12.8391
G01 X5.5995 Y12.8776
G01 X5.5994 Y15.2542
G01 X3.8858 Y16.9678
G00 X3.8858 Y16.9678
G01 F90.00
G01 Z-0.2000
G01 F150.00
G01 X3.8659 Y16.9586
G01 X3.7681 Y16.9237
G01 X3.6652 Y16.8980
G01 X3.5603 Y16.8824
G01 X3.4544 Y16.8772
G01 X3.3485 Y16.8824
G01 X3.2436 Y16.8980
G01 X3.1407 Y16.9237
G01 X3.0409 Y16.9595
G01 X2.9450 Y17.0048
G01 X2.8541 Y17.0593
G01 X2.7689 Y17.1225
G01 X2.6903 Y17.1937
G01 X2.6191 Y17.2723
G01 X2.5559 Y17.3575
G01 X2.5014 Y17.4484
G01 X2.4561 Y17.5443
G01 X2.4203 Y17.6441
G01 X2.3946 Y17.7470
G01 X2.3790 Y17.8519
G01 X2.3738 Y17.9578
G01 X2.3790 Y18.0637
G01 X2.3946 Y18.1686
G01 X2.4203 Y18.2715
G01 X2.4561 Y18.3713
G01 X2.5014 Y18.4672
G01 X2.5559 Y18.5581
G01 X2.6191 Y18.6433
G01 X2.6903 Y18.7219
G01 X2.7689 Y18.7931
G01 X2.8541 Y18.8563
G01 X2.9450 Y18.9108
G01 X3.0409 Y18.9561
G01 X3.1407 Y18.9919
G01 X3.2395 Y19.0167
G01 X3.2477 Y19.0184
G01 X3.3485 Y19.0332
G01 X3.4502 Y19.0383
G01 X3.4586 Y19.0383
G01 X3.5603 Y19.0332
G01 X3.6652 Y19.0176
G01 X3.7641 Y18.9930
G01 X3.7720 Y18.9906
G01 X3.8679 Y18.9561
G01 X3.9638 Y18.9108
G01 X4.0512 Y18.8585
G01 X4.0582 Y18.8539
G01 X4.1399 Y18.7931
G01 X4.2185 Y18.7219
G01 X4.2897 Y18.6433
G01 X4.3505 Y18.5616
G01 X4.3551 Y18.5546
G01 X4.4074 Y18.4672
G01 X4.4527 Y18.3713
G01 X4.4872 Y18.2754
G01 X4.4896 Y18.2675
G01 X4.5142 Y18.1686
G01 X4.5298 Y18.0637
G01 X4.5349 Y17.9620
G01 X4.5349 Y17.9536
G01 X4.5298 Y17.8519
G01 X4.5142 Y17.7470
G01 X4.4896 Y17.6481
G01 X4.4872 Y17.6402
G01 X4.4542 Y17.5482
G01 X4.4519 Y17.5422
G01 X4.4444 Y17.5264
G01 X6.2738 Y15.6969
G01 X6.2970 Y15.6715
G01 X6.3023 Y15.6651
G01 X6.3228 Y15.6372
G01 X6.3417 Y15.6059
G01 X6.3593 Y15.5689
G01 X6.3710 Y15.5364
G01 X6.3735 Y15.5284
G01 X6.3818 Y15.4949
G01 X6.3869 Y15.4607
G01 X6.3878 Y15.4524
G01 X6.3893 Y15.4200
G01 X6.3894 Y13.0399
G01 X8.1157 Y11.2917
G01 X8.1375 Y11.3018
G01 X8.2278 Y11.3341
G01 X8.2358 Y11.3365
G01 X8.3310 Y11.3603
G01 X8.4281 Y11.3748
G01 X8.4364 Y11.3756
G01 X8.5344 Y11.3803
G01 X8.6366 Y11.3753
G01 X8.7378 Y11.3603
G01 X8.8370 Y11.3354
G01 X8.9333 Y11.3009
G01 X9.0258 Y11.2572
G01 X9.1136 Y11.2046
G01 X9.1925 Y11.1462
G01 X9.1989 Y11.1409
G01 X9.2685 Y11.0778
G01 X9.2744 Y11.0719
G01 X9.3403 Y10.9992
G01 X9.4024 Y10.9151
G01 X9.4538 Y10.8292
G01 X9.4975 Y10.7367
G01 X9.5320 Y10.6404
G01 X9.5569 Y10.5412
G01 X9.5719 Y10.4400
G01 X9.5769 Y10.3378
G01 X9.5719 Y10.2356
G01 X9.5569 Y10.1344
G01 X9.5320 Y10.0352
G01 X9.4975 Y9.9389
G01 X9.4538 Y9.8464
G01 X9.4012 Y9.7586
G01 X9.3403 Y9.6764
G01 X9.2716 Y9.6006
G01 X9.1958 Y9.5319
G01 X9.1154 Y9.4722
G01 X9.0258 Y9.4184
G01 X8.9333 Y9.3747
G01 X8.8370 Y9.3402
G01 X8.7378 Y9.3153
G01 X8.6366 Y9.3003
G01 X8.5344 Y9.2953
G01 X8.4322 Y9.3003
G01 X8.3310 Y9.3153
G01 X8.2318 Y9.3402
G01 X8.1355 Y9.3747
G01 X8.0430 Y9.4184
G01 X7.9552 Y9.4710
G01 X7.8730 Y9.5319
G01 X7.7972 Y9.6006
G01 X7.7285 Y9.6764
G01 X7.6688 Y9.7568
G01 X7.6150 Y9.8464
G01 X7.5729 Y9.9350
G01 X7.5698 Y9.9427
G01 X7.5368 Y10.0352
G01 X7.5128 Y10.1303
G01 X7.5112 Y10.1385
G01 X7.4969 Y10.2356
G01 X7.4919 Y10.3378
G01 X7.4966 Y10.4358
G01 X7.4974 Y10.4441
G01 X7.5112 Y10.5371
G01 X7.5128 Y10.5453
G01 X7.5368 Y10.6404
G01 X7.5665 Y10.7237
G01 X5.7132 Y12.6005
G01 X5.6875 Y12.6292
G01 X5.6646 Y12.6604
G01 X5.6449 Y12.6938
G01 X5.6312 Y12.7228
G01 X5.6278 Y12.7310
G01 X5.6157 Y12.7655
G01 X5.6066 Y12.8032
G01 X5.6013 Y12.8391
G01 X5.5995 Y12.8776
G01 X5.5994 Y15.2542
G01 X3.8858 Y16.9678
G00 Z1.0000
G00 X4.1763 Y19.6953
G01 F90.00
G01 Z-0.1000
G01 F150.00
G01 X4.1382 Y19.6611
G01 X4.0566 Y19.6006
G01 X3.9657 Y19.5459
G01 X3.8679 Y19.4995
G01 X3.7702 Y19.4644
G01 X3.6652 Y19.4380
G01 X3.5603 Y19.4224
G01 X3.4544 Y19.4172
G01 X3.3507 Y19.4222
G01 X3.2436 Y19.4380
G01 X3.1407 Y19.4637
G01 X3.0409 Y19.4995
G01 X2.9450 Y19.5448
G01 X2.8541 Y19.5993
G01 X2.7689 Y19.6625
G01 X2.6903 Y19.7337
G01 X2.6205 Y19.8106
G01 X2.5559 Y19.8975
G01 X2.5014 Y19.9884
G01 X2.4561 Y20.0843
G01 X2.4203 Y20.1841
G01 X2.3946 Y20.2870
G01 X2.3790 Y20.3919
G01 X2.3738 Y20.4978
G01 X2.3790 Y20.6037
G01 X2.3946 Y20.7086
G01 X2.4203 Y20.8115
G01 X2.4561 Y20.9113
G01 X2.5014 Y21.0072
G01 X2.5559 Y21.0981
G01 X2.6191 Y21.1833
G01 X2.6903 Y21.2619
G01 X2.7672 Y21.3317
G01 X2.8506 Y21.3939
G01 X2.8576 Y21.3985
G01 X2.9450 Y21.4508
G01 X3.0409 Y21.4961
G01 X3.1407 Y21.5319
G01 X3.2395 Y21.5567
G01 X3.2477 Y21.5584
G01 X3.3485 Y21.5732
G01 X3.4544 Y21.5784
G01 X3.5562 Y21.5735
G01 X3.5645 Y21.5727
G01 X3.6652 Y21.5576
G01 X3.7641 Y21.5330
G01 X3.7720 Y21.5306
G01 X3.8679 Y21.4961
G01 X3.9618 Y21.4518
G01 X4.0512 Y21.3985
G01 X4.0582 Y21.3939
G01 X4.1399 Y21.3331
G01 X4.2185 Y21.2619
G01 X4.2897 Y21.1833
G01 X4.3505 Y21.1016
G01 X4.3551 Y21.0946
G01 X4.4074 Y21.0072
G01 X4.4527 Y20.9113
G01 X4.4872 Y20.8154
G01 X4.4896 Y20.8075
G01 X4.5142 Y20.7086
G01 X4.5293 Y20.6079
G01 X4.5301 Y20.5996
G01 X4.5350 Y20.4978
G01 X4.5304 Y20.4014
G01 X7.8490 Y18.7420
G01 X7.8748 Y18.7650
G01 X7.9571 Y18.8258
G01 X8.0430 Y18.8772
G01 X8.1334 Y18.9201
G01 X8.2278 Y18.9541
G01 X8.2358 Y18.9565
G01 X8.3310 Y18.9803
G01 X8.4300 Y18.9950
G01 X8.5302 Y19.0002
G01 X8.5386 Y19.0002
G01 X8.6366 Y18.9953
G01 X8.7378 Y18.9803
G01 X8.8370 Y18.9554
G01 X8.9295 Y18.9224
G01 X8.9372 Y18.9193
G01 X9.0278 Y18.8761
G01 X9.1136 Y18.8246
G01 X9.1958 Y18.7637
G01 X9.2716 Y18.6950
G01 X9.3403 Y18.6192
G01 X9.4012 Y18.5370
G01 X9.4538 Y18.4492
G01 X9.4975 Y18.3567
G01 X9.5307 Y18.2644
G01 X9.5331 Y18.2564
G01 X9.5560 Y18.1653
G01 X9.5576 Y18.1571
G01 X9.5719 Y18.0600
G01 X9.5768 Y17.9620
G01 X9.5768 Y17.9536
G01 X9.5719 Y17.8556
G01 X9.5569 Y17.7544
G01 X9.5320 Y17.6552
G01 X9.4975 Y17.5589
G01 X9.4538 Y17.4664
G01 X9.4012 Y17.3786
G01 X9.3403 Y17.2964
G01 X9.2716 Y17.2206
G01 X9.1958 Y17.1519
G01 X9.1136 Y17.0910
G01 X9.0258 Y17.0384
G01 X8.9333 Y16.9947
G01 X8.8370 Y16.9602
G01 X8.7378 Y16.9353
G01 X8.6366 Y16.9203
G01 X8.5344 Y16.9153
G01 X8.4322 Y16.9203
G01 X8.3310 Y16.9353
G01 X8.2318 Y16.9602
G01 X8.1355 Y16.9947
G01 X8.0430 Y17.0384
G01 X7.9587 Y17.0888
G01 X7.9518 Y17.0934
G01 X7.8730 Y17.1519
G01 X7.7972 Y17.2206
G01 X7.7313 Y17.2933
G01 X7.7260 Y17.2997
G01 X7.6700 Y17.3752
G01 X7.6654 Y17.3821
G01 X7.6150 Y17.4664
G01 X7.5729 Y17.5550
G01 X7.5698 Y17.5627
G01 X7.5381 Y17.6512
G01 X7.5357 Y17.6592
G01 X7.5119 Y17.7544
G01 X7.4969 Y17.8556
G01 X7.4919 Y17.9578
G01 X7.4956 Y18.0356
G01 X4.1763 Y19.6953
G00 X4.1763 Y19.6953
G01 F90.00
G01 Z-0.2000
G01 F150.00
G01 X4.1382 Y19.6611
G01 X4.0566 Y19.6006
G01 X3.9657 Y19.5459
G01 X3.8679 Y19.4995
G01 X3.7702 Y19.4644
G01 X3.6652 Y19.4380
G01 X3.5603 Y19.4224
G01 X3.4544 Y19.4172
G01 X3.3507 Y19.4222
G01 X3.2436 Y19.4380
G01 X3.1407 Y19.4637
G01 X3.0409 Y19.4995
G01 X2.9450 Y19.5448
G01 X2.8541 Y19.5993
G01 X2.7689 Y19.6625
G01 X2.6903 Y19.7337
G01 X2.6205 Y19.8106
G01 X2.5559 Y19.8975
G01 X2.5014 Y19.9884
G01 X2.4561 Y20.0843
G01 X2.4203 Y20.1841
G01 X2.3946 Y20.2870
G01 X2.3790 Y20.3919
G01 X2.3738 Y20.4978
G01 X2.3790 Y20.6037
G01 X2.3946 Y20.7086
G01 X2.4203 Y20.8115
G01 X2.4561 Y20.9113
G01 X2.5014 Y21.0072
G01 X2.5559 Y21.0981
G01 X2.6191 Y21.1833
G01 X2.6903 Y21.2619
G01 X2.7672 Y21.3317
G01 X2.8506 Y21.3939
G01 X2.8576 Y21.3985
G01 X2.9450 Y21.4508
G01 X3.0409 Y21.4961
G01 X3.1407 Y21.5319
G01 X3.2395 Y21.5567
G01 X3.2477 Y21.5584
G01 X3.3485 Y21.5732
G01 X3.4544 Y21.5784
G01 X3.5562 Y21.5735
G01 X3.5645 Y21.5727
G01 X3.6652 Y21.5576
G01 X3.7641 Y21.5330
G01 X3.7720 Y21.5306
G01 X3.8679 Y21.4961
G01 X3.9618 Y21.4518
G01 X4.0512 Y21.3985
G01 X4.0582 Y21.3939
G01 X4.1399 Y21.3331
G01 X4.2185 Y21.2619
G01 X4.2897 Y21.1833
G01 X4.3505 Y21.1016
G01 X4.3551 Y21.0946
G01 X4.4074 Y21.0072
G01 X4.4527 Y20.9113
G01 X4.4872 Y20.8154
G01 X4.4896 Y20.8075
G01 X4.5142 Y20.7086
G01 X4.5293 Y20.6079
G01 X4.5301 Y20.5996
G01 X4.5350 Y20.4978
G01 X4.5304 Y20.4014
G01 X7.8490 Y18.7420
G01 X7.8748 Y18.7650
G01 X7.9571 Y18.8258
G01 X8.0430 Y18.8772
G01 X8.1334 Y18.9201
G01 X8.2278 Y18.9541
G01 X8.2358 Y18.9565
G01 X8.3310 Y18.9803
G01 X8.4300 Y18.9950
G01 X8.5302 Y19.0002
G01 X8.5386 Y19.0002
G01 X8.6366 Y18.9953
G01 X8.7378 Y18.9803
G01 X8.8370 Y18.9554
G01 X8.9295 Y18.9224
G01 X8.9372 Y18.9193
G01 X9.0278 Y18.8761
G01 X9.1136 Y18.8246
G01 X9.1958 Y18.7637
G01 X9.2716 Y18.6950
G01 X9.3403 Y18.6192
G01 X9.4012 Y18.5370
G01 X9.4538 Y18.4492
G01 X9.4975 Y18.3567
G01 X9.5307 Y18.2644
G01 X9.5331 Y18.2564
G01 X9.5560 Y18.1653
G01 X9.5576 Y18.1571
G01 X9.5719 Y18.0600
G01 X9.5768 Y17.9620
G01 X9.5768 Y17.9536
G01 X9.5719 Y17.8556
G01 X9.5569 Y17.7544
G01 X9.5320 Y17.6552
G01 X9.4975 Y17.5589
G01 X9.4538 Y17.4664
G01 X9.4012 Y17.3786
G01 X9.3403 Y17.2964
G01 X9.2716 Y17.2206
G01 X9.1958 Y17.1519
G01 X9.1136 Y17.0910
G01 X9.0258 Y17.0384
G01 X8.9333 Y16.9947
G01 X8.8370 Y16.9602
G01 X8.7378 Y16.9353
G01 X8.6366 Y16.9203
G01 X8.5344 Y16.9153
G01 X8.4322 Y16.9203
G01 X8.3310 Y16.9353
G01 X8.2318 Y16.9602
G01 X8.1355 Y16.9947
G01 X8.0430 Y17.0384
G01 X7.9587 Y17.0888
G01 X7.9518 Y17.0934
G01 X7.8730 Y17.1519
G01 X7.7972 Y17.2206
G01 X7.7313 Y17.2933
G01 X7.7260 Y17.2997
G01 X7.6700 Y17.3752
G01 X7.6654 Y17.3821
G01 X7.6150 Y17.4664
G01 X7.5729 Y17.5550
G01 X7.5698 Y17.5627
G01 X7.5381 Y17.6512
G01 X7.5357 Y17.6592
G01 X7.5119 Y17.7544
G01 X7.4969 Y17.8556
G01 X7.4919 Y17.9578
G01 X7.4956 Y18.0356
G01 X4.1763 Y19.6953
G00 Z1.0000
G00 X0.4941 Y17.9379
G01 F90.00
G01 Z-0.1000
G01 F150.00
G01 X0.6719 Y30.2573
G01 X0.6733 Y30.2854
G01 X0.6746 Y30.2980
G01 X0.6778 Y30.3195
G01 X0.6811 Y30.3362
G01 X0.6863 Y30.3573
G01 X0.6905 Y30.3715
G01 X0.7002 Y30.3982
G01 X0.7050 Y30.4098
G01 X0.7143 Y30.4295
G01 X0.7223 Y30.4445
G01 X0.7346 Y30.4650
G01 X0.7429 Y30.4773
G01 X0.7572 Y30.4966
G01 X0.7666 Y30.5080
G01 X0.7842 Y30.5273
G01 X0.7932 Y30.5362
G01 X0.8093 Y30.5508
G01 X0.8224 Y30.5616
G01 X0.8417 Y30.5759
G01 X0.8540 Y30.5841
G01 X0.8765 Y30.5975
G01 X0.8876 Y30.6034
G01 X0.9073 Y30.6127
G01 X0.9209 Y30.6184
G01 X0.9435 Y30.6266
G01 X0.9597 Y30.6315
G01 X0.9851 Y30.6378
G01 X0.9975 Y30.6402
G01 X1.0190 Y30.6434
G01 X1.0338 Y30.6450
G01 X1.0577 Y30.6462
G01 X9.5740 Y30.7952
G01 X13.2950 Y35.9701
G01 X13.3077 Y35.9866
G01 X13.3179 Y35.9987
G01 X13.3336 Y36.0155
G01 X13.3449 Y36.0265
G01 X13.3622 Y36.0417
G01 X13.3727 Y36.0502
G01 X13.3968 Y36.0674
G01 X13.4083 Y36.0747
G01 X13.4282 Y36.0861
G01 X13.4423 Y36.0933
G01 X13.4633 Y36.1027
G01 X13.4780 Y36.1084
G01 X13.4998 Y36.1157
G01 X13.5149 Y36.1200
G01 X13.5352 Y36.1247
G01 X13.5507 Y36.1276
G01 X13.5757 Y36.1309
G01 X13.5914 Y36.1321
G01 X13.6142 Y36.1327
G01 X28.8546 Y36.1327
G01 X28.8802 Y36.1319
G01 X28.8953 Y36.1306
G01 X28.9231 Y36.1267
G01 X28.9336 Y36.1247
G01 X28.9566 Y36.1193
G01 X28.9712 Y36.1151
G01 X28.9956 Y36.1067
G01 X29.0076 Y36.1018
G01 X29.0310 Y36.0911
G01 X29.0425 Y36.0851
G01 X29.0648 Y36.0720
G01 X29.0756 Y36.0649
G01 X29.0966 Y36.0498
G01 X29.1066 Y36.0417
G01 X29.1260 Y36.0246
G01 X29.1352 Y36.0155
G01 X29.1528 Y35.9966
G01 X29.1611 Y35.9866
G01 X29.1767 Y35.9661
G01 X29.1840 Y35.9554
G01 X29.1975 Y35.9334
G01 X29.2037 Y35.9220
G01 X29.2150 Y35.8988
G01 X29.2201 Y35.8869
G01 X29.2284 Y35.8648
G01 X31.7396 Y28.3311
G01 X34.2152 Y25.8555
G01 X34.2397 Y25.8284
G01 X34.2604 Y25.8006
G01 X34.2650 Y25.7937
G01 X34.2827 Y25.7640
G01 X34.2976 Y25.7328
G01 X34.3008 Y25.7251
G01 X34.3123 Y25.6924
G01 X34.3213 Y25.6570
G01 X34.3275 Y25.6165
G01 X34.3293 Y25.5780
G01 X34.3293 Y17.9576
G01 X34.3275 Y17.9191
G01 X34.3225 Y17.8849
G01 X34.3209 Y17.8767
G01 X34.3123 Y17.8432
G01 X34.3008 Y17.8105
G01 X34.2976 Y17.8028
G01 X34.2827 Y17.7716
G01 X34.2650 Y17.7419
G01 X34.2604 Y17.7350
G01 X34.2397 Y17.7072
G01 X34.2166 Y17.6815
G01 X34.2107 Y17.6756
G01 X34.1850 Y17.6525
G01 X34.1572 Y17.6318
G01 X34.1503 Y17.6272
G01 X34.1206 Y17.6095
G01 X34.0855 Y17.5929
G01 X34.0530 Y17.5812
G01 X34.0450 Y17.5787
G01 X34.0115 Y17.5704
G01 X33.9773 Y17.5653
G01 X33.9690 Y17.5644
G01 X33.9386 Y17.5629
G01 X29.7063 Y17.5628
G01 X29.6823 Y17.5128
G01 X29.6347 Y17.4337
G01 X29.5810 Y17.3615
G01 X29.5175 Y17.2916
G01 X29.4507 Y17.2312
G01 X29.3766 Y17.1762
G01 X29.2975 Y17.1288
G01 X29.2141 Y17.0894
G01 X29.1273 Y17.0583
G01 X29.0378 Y17.0359
G01 X28.9465 Y17.0223
G01 X28.8544 Y17.0178
G01 X28.7623 Y17.0223
G01 X28.6710 Y17.0359
G01 X28.5815 Y17.0583
G01 X28.5120 Y17.0830
G01 X26.6338 Y15.2286
G01 X24.1236 Y7.6981
G01 X24.1157 Y7.6766
G01 X24.1096 Y7.6622
G01 X24.1040 Y7.6501
G01 X24.0910 Y7.6257
G01 X24.0801 Y7.6079
G01 X24.0713 Y7.5949
G01 X24.0560 Y7.5748
G01 X24.0474 Y7.5644
G01 X24.0319 Y7.5476
G01 X22.1944 Y5.6636
G01 X22.1990 Y5.6529
G01 X22.2320 Y5.5604
G01 X22.2569 Y5.4612
G01 X22.2719 Y5.3600
G01 X22.2768 Y5.2620
G01 X22.2768 Y5.2536
G01 X22.2722 Y5.1598
G01 X22.2714 Y5.1515
G01 X22.2569 Y5.0544
G01 X22.2331 Y4.9592
G01 X22.2307 Y4.9512
G01 X22.1975 Y4.8589
G01 X22.1538 Y4.7664
G01 X22.1012 Y4.6786
G01 X22.0403 Y4.5964
G01 X21.9716 Y4.5206
G01 X21.8989 Y4.4547
G01 X21.8925 Y4.4494
G01 X21.8170 Y4.3934
G01 X21.8101 Y4.3888
G01 X21.7258 Y4.3384
G01 X21.6372 Y4.2963
G01 X21.6295 Y4.2932
G01 X21.5370 Y4.2602
G01 X21.4399 Y4.2358
G01 X21.3407 Y4.2208
G01 X21.3324 Y4.2200
G01 X21.2344 Y4.2153
G01 X21.1364 Y4.2200
G01 X21.1281 Y4.2208
G01 X21.0310 Y4.2353
G01 X20.9358 Y4.2591
G01 X20.9278 Y4.2615
G01 X20.8355 Y4.2947
G01 X20.7467 Y4.3365
G01 X20.7393 Y4.3405
G01 X20.6552 Y4.3910
G01 X20.5763 Y4.4494
G01 X20.5699 Y4.4547
G01 X20.4972 Y4.5206
G01 X20.4313 Y4.5933
G01 X20.4260 Y4.5997
G01 X20.3676 Y4.6786
G01 X20.3171 Y4.7627
G01 X20.3131 Y4.7701
G01 X20.2713 Y4.8589
G01 X20.2381 Y4.9512
G01 X20.2357 Y4.9592
G01 X20.2119 Y5.0544
G01 X20.1974 Y5.1515
G01 X20.1966 Y5.1598
G01 X20.1919 Y5.2578
G01 X20.1966 Y5.3558
G01 X20.1974 Y5.3641
G01 X20.2119 Y5.4612
G01 X20.2375 Y5.5625
G01 X20.2713 Y5.6567
G01 X20.3150 Y5.7492
G01 X20.3676 Y5.8370
G01 X20.4260 Y5.9159
G01 X20.4313 Y5.9223
G01 X20.4944 Y5.9919
G01 X20.5003 Y5.9978
G01 X20.5730 Y6.0637
G01 X20.6552 Y6.1246
G01 X20.7430 Y6.1772
G01 X20.8316 Y6.2193
G01 X20.8393 Y6.2224
G01 X20.9318 Y6.2554
G01 X21.0269 Y6.2794
G01 X21.0351 Y6.2810
G01 X21.1322 Y6.2953
G01 X21.2302 Y6.3002
G01 X21.2386 Y6.3002
G01 X21.3366 Y6.2953
G01 X21.4337 Y6.2810
G01 X21.4419 Y6.2794
G01 X21.5370 Y6.2554
G01 X21.6342 Y6.2206
G01 X22.3189 Y6.9226
G01 X17.1936 Y5.1890
G01 X17.1916 Y5.1534
G01 X17.1764 Y5.0523
G01 X17.1520 Y4.9552
G01 X17.1184 Y4.8609
G01 X17.0738 Y4.7664
G01 X17.0234 Y4.6821
G01 X17.0188 Y4.6752
G01 X16.9588 Y4.5948
G01 X16.8916 Y4.5206
G01 X16.8158 Y4.4519
G01 X16.7336 Y4.3910
G01 X16.6495 Y4.3405
G01 X16.6421 Y4.3365
G01 X16.5572 Y4.2963
G01 X16.5495 Y4.2932
G01 X16.4570 Y4.2602
G01 X16.3578 Y4.2353
G01 X16.2566 Y4.2203
G01 X16.1586 Y4.2154
G01 X16.1502 Y4.2154
G01 X16.0522 Y4.2203
G01 X15.9551 Y4.2346
G01 X15.9469 Y4.2362
G01 X15.8518 Y4.2602
G01 X15.7593 Y4.2932
G01 X15.7516 Y4.2963
G01 X15.6630 Y4.3384
G01 X15.5787 Y4.3888
G01 X15.5718 Y4.3934
G01 X15.4930 Y4.4519
G01 X15.4172 Y4.5206
G01 X15.3485 Y4.5964
G01 X15.2900 Y4.6752
G01 X15.2854 Y4.6821
G01 X15.2350 Y4.7664
G01 X15.1929 Y4.8550
G01 X15.1898 Y4.8627
G01 X15.1568 Y4.9552
G01 X15.1319 Y5.0544
G01 X15.1174 Y5.1515
G01 X15.1166 Y5.1598
G01 X15.1119 Y5.2578
G01 X15.1166 Y5.3558
G01 X15.1174 Y5.3641
G01 X15.1319 Y5.4612
G01 X15.1557 Y5.5564
G01 X15.1581 Y5.5644
G01 X15.1913 Y5.6567
G01 X15.2331 Y5.7455
G01 X15.2371 Y5.7529
G01 X15.2876 Y5.8370
G01 X15.3460 Y5.9159
G01 X15.3513 Y5.9223
G01 X15.4172 Y5.9950
G01 X15.4899 Y6.0609
G01 X15.4963 Y6.0662
G01 X15.5752 Y6.1246
G01 X15.6593 Y6.1751
G01 X15.6667 Y6.1791
G01 X15.7555 Y6.2209
G01 X15.8497 Y6.2547
G01 X15.9469 Y6.2794
G01 X15.9551 Y6.2810
G01 X16.0522 Y6.2953
G01 X16.1544 Y6.3003
G01 X16.2524 Y6.2956
G01 X16.2607 Y6.2948
G01 X16.3578 Y6.2803
G01 X16.4549 Y6.2560
G01 X16.5495 Y6.2224
G01 X16.5572 Y6.2193
G01 X16.6458 Y6.1772
G01 X16.7336 Y6.1246
G01 X16.8125 Y6.0662
G01 X16.8189 Y6.0609
G01 X16.8916 Y5.9950
G01 X16.9432 Y5.9382
G01 X23.4364 Y8.1344
G01 X25.9144 Y15.5683
G01 X25.9242 Y15.5946
G01 X25.9284 Y15.6042
G01 X25.9419 Y15.6316
G01 X25.9470 Y15.6407
G01 X25.9608 Y15.6629
G01 X25.9680 Y15.6733
G01 X25.9839 Y15.6940
G01 X25.9906 Y15.7020
G01 X26.0113 Y15.7241
G01 X27.9659 Y17.6539
G01 X27.9543 Y17.6871
G01 X27.9321 Y17.7766
G01 X27.9189 Y17.8657
G01 X27.9144 Y17.9556
G01 X27.9186 Y18.0458
G01 X27.9194 Y18.0541
G01 X27.9325 Y18.1412
G01 X27.9543 Y18.2285
G01 X27.9845 Y18.3136
G01 X27.9876 Y18.3213
G01 X28.0254 Y18.4009
G01 X28.0728 Y18.4800
G01 X28.1252 Y18.5508
G01 X28.1305 Y18.5573
G01 X28.1897 Y18.6225
G01 X28.2564 Y18.6830
G01 X28.3288 Y18.7370
G01 X28.3357 Y18.7416
G01 X28.4113 Y18.7868
G01 X28.4947 Y18.8262
G01 X28.5815 Y18.8573
G01 X28.6669 Y18.8788
G01 X28.6751 Y18.8805
G01 X28.7645 Y18.8935
G01 X28.8544 Y18.8978
G01 X28.9424 Y18.8936
G01 X28.9507 Y18.8928
G01 X29.0399 Y18.8793
G01 X29.1273 Y18.8573
G01 X29.2121 Y18.8271
G01 X29.2956 Y18.7878
G01 X29.3224 Y18.7720
G01 X30.6593 Y19.6992
G01 X30.8017 Y21.5713
G01 X27.1112 Y21.5289
G01 X27.0931 Y21.5065
G01 X21.5048 Y15.1815
G01 X21.4835 Y15.1592
G01 X21.4779 Y15.1539
G01 X21.4543 Y15.1337
G01 X21.4449 Y15.1265
G01 X21.4228 Y15.1111
G01 X21.4163 Y15.1070
G01 X21.3875 Y15.0909
G01 X17.1925 Y12.9693
G01 X17.1969 Y12.8778
G01 X17.1922 Y12.7798
G01 X17.1914 Y12.7715
G01 X17.1769 Y12.6744
G01 X17.1531 Y12.5792
G01 X17.1507 Y12.5712
G01 X17.1175 Y12.4789
G01 X17.0738 Y12.3864
G01 X17.0212 Y12.2986
G01 X16.9628 Y12.2197
G01 X16.9575 Y12.2133
G01 X16.8916 Y12.1406
G01 X16.8189 Y12.0747
G01 X16.8125 Y12.0694
G01 X16.7336 Y12.0110
G01 X16.6458 Y11.9584
G01 X16.5572 Y11.9163
G01 X16.5495 Y11.9132
G01 X16.4570 Y11.8802
G01 X16.3578 Y11.8553
G01 X16.2566 Y11.8403
G01 X16.1586 Y11.8354
G01 X16.1502 Y11.8354
G01 X16.0564 Y11.8400
G01 X16.0481 Y11.8408
G01 X15.9510 Y11.8553
G01 X15.8518 Y11.8802
G01 X15.7555 Y11.9147
G01 X15.6667 Y11.9565
G01 X15.6593 Y11.9605
G01 X15.5787 Y12.0088
G01 X15.5718 Y12.0134
G01 X15.4930 Y12.0719
G01 X15.4203 Y12.1378
G01 X15.4144 Y12.1437
G01 X15.3513 Y12.2133
G01 X15.3460 Y12.2197
G01 X15.2876 Y12.2986
G01 X15.2350 Y12.3864
G01 X15.1929 Y12.4750
G01 X15.1898 Y12.4827
G01 X15.1568 Y12.5752
G01 X15.1319 Y12.6744
G01 X15.1174 Y12.7715
G01 X15.1166 Y12.7798
G01 X15.1119 Y12.8778
G01 X15.1169 Y12.9800
G01 X15.1319 Y13.0812
G01 X15.1557 Y13.1764
G01 X15.1581 Y13.1844
G01 X15.1898 Y13.2729
G01 X15.1929 Y13.2806
G01 X15.2350 Y13.3692
G01 X15.2876 Y13.4570
G01 X15.3485 Y13.5392
G01 X15.4172 Y13.6150
G01 X15.4930 Y13.6837
G01 X15.5752 Y13.7446
G01 X15.6630 Y13.7972
G01 X15.7534 Y13.8401
G01 X15.8478 Y13.8741
G01 X15.8558 Y13.8765
G01 X15.9510 Y13.9003
G01 X16.0522 Y13.9153
G01 X16.1502 Y13.9202
G01 X16.1586 Y13.9202
G01 X16.2566 Y13.9153
G01 X16.3537 Y13.9010
G01 X16.3619 Y13.8994
G01 X16.4530 Y13.8765
G01 X16.4610 Y13.8741
G01 X16.5533 Y13.8409
G01 X16.6421 Y13.7991
G01 X16.6495 Y13.7951
G01 X16.7336 Y13.7446
G01 X16.8140 Y13.6850
G01 X16.8298 Y13.6710
G01 X20.9632 Y15.7615
G01 X26.5012 Y22.0295
G01 X26.5281 Y22.0571
G01 X26.5545 Y22.0794
G01 X26.5611 Y22.0845
G01 X26.5862 Y22.1017
G01 X26.5933 Y22.1061
G01 X26.6236 Y22.1227
G01 X26.6592 Y22.1380
G01 X26.6962 Y22.1497
G01 X26.7300 Y22.1570
G01 X26.7382 Y22.1583
G01 X26.7685 Y22.1616
G01 X26.7768 Y22.1622
G01 X26.8114 Y22.1625
G01 X26.8459 Y22.1596
G01 X26.8541 Y22.1585
G01 X26.8881 Y22.1521
G01 X26.9253 Y22.1413
G01 X26.9613 Y22.1269
G01 X26.9957 Y22.1091
G01 X27.0282 Y22.0880
G01 X27.0585 Y22.0638
G01 X27.0863 Y22.0367
G01 X27.1057 Y22.0138
G01 X30.8090 Y22.0564
G01 X30.7064 Y24.0675
G01 X26.8277 Y24.0890
G01 X26.8096 Y24.0672
G01 X26.7851 Y24.0428
G01 X26.7789 Y24.0372
G01 X26.7554 Y24.0179
G01 X26.7487 Y24.0130
G01 X26.7198 Y23.9939
G01 X26.6875 Y23.9767
G01 X24.8141 Y23.0964
G01 X24.8169 Y23.0356
G01 X24.8116 Y22.9334
G01 X24.7969 Y22.8344
G01 X24.7726 Y22.7373
G01 X24.7390 Y22.6427
G01 X24.7359 Y22.6350
G01 X24.6938 Y22.5464
G01 X24.6424 Y22.4605
G01 X24.5828 Y22.3797
G01 X24.5775 Y22.3733
G01 X24.5116 Y22.3006
G01 X24.4358 Y22.2319
G01 X24.3570 Y22.1734
G01 X24.3501 Y22.1688
G01 X24.2658 Y22.1184
G01 X24.1754 Y22.0755
G01 X24.0810 Y22.0415
G01 X24.0730 Y22.0391
G01 X23.9778 Y22.0153
G01 X23.8766 Y22.0003
G01 X23.7786 Y21.9954
G01 X23.7702 Y21.9954
G01 X23.6722 Y22.0003
G01 X23.5732 Y22.0149
G01 X23.4758 Y22.0391
G01 X23.4678 Y22.0415
G01 X23.3755 Y22.0747
G01 X23.2849 Y22.1174
G01 X23.1934 Y22.1722
G01 X23.1148 Y22.2306
G01 X23.0878 Y22.2547
G01 X18.8430 Y20.1686
G01 X18.8232 Y20.1596
G01 X18.8076 Y20.1534
G01 X18.7890 Y20.1469
G01 X18.7707 Y20.1416
G01 X18.7515 Y20.1370
G01 X18.7328 Y20.1334
G01 X18.7132 Y20.1307
G01 X18.6943 Y20.1291
G01 X18.6770 Y20.1283
G01 X17.1204 Y20.1064
G01 X17.1159 Y20.0950
G01 X17.0738 Y20.0064
G01 X17.0234 Y19.9221
G01 X17.0188 Y19.9152
G01 X16.9603 Y19.8364
G01 X16.8944 Y19.7637
G01 X16.8885 Y19.7578
G01 X16.8158 Y19.6919
G01 X16.7336 Y19.6310
G01 X16.6495 Y19.5805
G01 X16.6421 Y19.5765
G01 X16.5533 Y19.5347
G01 X16.4610 Y19.5015
G01 X16.4530 Y19.4991
G01 X16.3599 Y19.4758
G01 X16.2566 Y19.4603
G01 X16.1586 Y19.4554
G01 X16.1502 Y19.4554
G01 X16.0522 Y19.4603
G01 X15.9551 Y19.4746
G01 X15.9469 Y19.4762
G01 X15.8518 Y19.5002
G01 X15.7555 Y19.5347
G01 X15.6667 Y19.5765
G01 X15.6593 Y19.5805
G01 X15.5752 Y19.6310
G01 X15.4963 Y19.6894
G01 X15.4899 Y19.6947
G01 X15.4172 Y19.7606
G01 X15.3513 Y19.8333
G01 X15.3460 Y19.8397
G01 X15.2876 Y19.9186
G01 X15.2371 Y20.0027
G01 X15.2331 Y20.0101
G01 X15.1913 Y20.0989
G01 X15.1568 Y20.1952
G01 X15.1328 Y20.2903
G01 X15.1312 Y20.2985
G01 X15.1169 Y20.3956
G01 X15.1120 Y20.4936
G01 X15.1120 Y20.5020
G01 X15.1169 Y20.6000
G01 X15.1324 Y20.7033
G01 X15.1568 Y20.8004
G01 X15.1898 Y20.8929
G01 X15.1929 Y20.9006
G01 X15.2331 Y20.9855
G01 X15.2371 Y20.9929
G01 X15.2876 Y21.0770
G01 X15.3485 Y21.1592
G01 X15.4172 Y21.2350
G01 X15.4899 Y21.3009
G01 X15.4963 Y21.3062
G01 X15.5718 Y21.3622
G01 X15.5787 Y21.3668
G01 X15.6630 Y21.4172
G01 X15.7555 Y21.4609
G01 X15.8518 Y21.4954
G01 X15.9469 Y21.5194
G01 X15.9551 Y21.5210
G01 X16.0544 Y21.5355
G01 X16.1544 Y21.5403
G01 X16.2524 Y21.5356
G01 X16.2607 Y21.5348
G01 X16.3537 Y21.5210
G01 X16.3619 Y21.5194
G01 X16.4570 Y21.4954
G01 X16.5533 Y21.4609
G01 X16.6458 Y21.4172
G01 X16.7301 Y21.3668
G01 X16.7370 Y21.3622
G01 X16.8125 Y21.3062
G01 X16.8189 Y21.3009
G01 X16.8916 Y21.2350
G01 X16.9603 Y21.1592
G01 X17.0212 Y21.0770
G01 X17.0717 Y20.9929
G01 X17.0757 Y20.9855
G01 X17.1177 Y20.8963
G01 X18.4251 Y20.9148
G01 X20.4490 Y24.8937
G01 X20.4272 Y24.9182
G01 X20.3664 Y25.0005
G01 X20.3150 Y25.0864
G01 X20.2721 Y25.1768
G01 X20.2381 Y25.2712
G01 X20.2357 Y25.2792
G01 X20.2119 Y25.3744
G01 X20.1972 Y25.4734
G01 X20.1920 Y25.5736
G01 X20.1920 Y25.5820
G01 X20.1969 Y25.6800
G01 X20.2119 Y25.7812
G01 X20.2357 Y25.8764
G01 X20.2381 Y25.8844
G01 X20.2713 Y25.9767
G01 X20.3140 Y26.0673
G01 X20.3654 Y26.1535
G01 X20.3700 Y26.1604
G01 X20.4285 Y26.2392
G01 X20.4972 Y26.3150
G01 X20.5730 Y26.3837
G01 X20.6518 Y26.4422
G01 X20.6587 Y26.4468
G01 X20.7430 Y26.4972
G01 X20.8355 Y26.5409
G01 X20.9278 Y26.5741
G01 X20.9358 Y26.5765
G01 X21.0310 Y26.6003
G01 X21.1322 Y26.6153
G01 X21.2302 Y26.6202
G01 X21.2386 Y26.6202
G01 X21.3388 Y26.6150
G01 X21.4378 Y26.6003
G01 X21.5330 Y26.5765
G01 X21.5410 Y26.5741
G01 X21.6333 Y26.5409
G01 X21.7221 Y26.4991
G01 X21.7295 Y26.4951
G01 X21.8101 Y26.4468
G01 X21.8170 Y26.4422
G01 X21.8958 Y26.3837
G01 X21.9716 Y26.3150
G01 X22.0403 Y26.2392
G01 X22.1012 Y26.1570
G01 X22.1538 Y26.0692
G01 X22.1959 Y25.9806
G01 X22.1990 Y25.9729
G01 X22.2320 Y25.8804
G01 X22.2560 Y25.7853
G01 X22.2576 Y25.7771
G01 X22.2714 Y25.6841
G01 X22.2722 Y25.6758
G01 X22.2769 Y25.5778
G01 X22.2719 Y25.4756
G01 X22.2569 Y25.3744
G01 X22.2313 Y25.2731
G01 X22.1975 Y25.1789
G01 X22.1538 Y25.0864
G01 X22.1012 Y24.9986
G01 X22.0428 Y24.9197
G01 X22.0375 Y24.9133
G01 X21.9744 Y24.8437
G01 X21.9685 Y24.8378
G01 X21.8958 Y24.7719
G01 X21.8136 Y24.7110
G01 X21.7258 Y24.6584
G01 X21.6372 Y24.6163
G01 X21.6295 Y24.6132
G01 X21.5410 Y24.5815
G01 X21.5330 Y24.5791
G01 X21.4378 Y24.5553
G01 X21.3366 Y24.5403
G01 X21.2344 Y24.5353
G01 X21.1549 Y24.5391
G01 X19.5583 Y21.4003
G01 X22.7355 Y22.9617
G01 X22.7319 Y23.0378
G01 X22.7369 Y23.1400
G01 X22.7519 Y23.2412
G01 X22.7762 Y23.3383
G01 X22.8113 Y23.4367
G01 X22.8531 Y23.5255
G01 X22.8571 Y23.5329
G01 X22.9088 Y23.6188
G01 X22.9685 Y23.6992
G01 X23.0372 Y23.7750
G01 X23.1130 Y23.8437
G01 X23.1918 Y23.9022
G01 X23.1987 Y23.9068
G01 X23.2793 Y23.9551
G01 X23.2867 Y23.9591
G01 X23.3755 Y24.0009
G01 X23.4739 Y24.0360
G01 X23.5669 Y24.0594
G01 X23.5751 Y24.0610
G01 X23.6722 Y24.0753
G01 X23.7702 Y24.0802
G01 X23.7786 Y24.0802
G01 X23.8766 Y24.0753
G01 X23.9799 Y24.0598
G01 X24.0770 Y24.0354
G01 X24.1695 Y24.0024
G01 X24.1772 Y23.9993
G01 X24.2639 Y23.9582
G01 X24.3554 Y23.9034
G01 X24.4340 Y23.8450
G01 X24.4739 Y23.8093
G01 X26.3516 Y24.6916
G01 X26.3855 Y24.7054
G01 X26.4226 Y24.7166
G01 X26.4606 Y24.7240
G01 X26.4951 Y24.7274
G01 X26.5034 Y24.7278
G01 X26.5380 Y24.7276
G01 X26.5724 Y24.7243
G01 X26.5806 Y24.7230
G01 X26.6145 Y24.7161
G01 X26.6476 Y24.7061
G01 X26.6555 Y24.7032
G01 X26.6854 Y24.6907
G01 X26.7215 Y24.6714
G01 X26.7503 Y24.6522
G01 X26.7570 Y24.6473
G01 X26.7804 Y24.6279
G01 X26.7866 Y24.6223
G01 X26.8109 Y24.5977
G01 X26.8304 Y24.5739
G01 X30.7796 Y24.5520
G01 X30.7965 Y24.5725
G01 X30.8222 Y24.5984
G01 X30.8555 Y24.6259
G01 X30.8859 Y24.6462
G01 X30.9163 Y24.6626
G01 X30.9239 Y24.6662
G01 X30.9558 Y24.6794
G01 X30.9889 Y24.6896
G01 X30.9970 Y24.6917
G01 X31.0309 Y24.6984
G01 X31.0695 Y24.7022
G01 X31.1041 Y24.7024
G01 X31.1124 Y24.7020
G01 X31.1468 Y24.6986
G01 X31.1827 Y24.6916
G01 X31.2180 Y24.6812
G01 X31.2258 Y24.6784
G01 X31.2578 Y24.6652
G01 X31.2920 Y24.6469
G01 X31.3243 Y24.6255
G01 X31.3511 Y24.6037
G01 X31.3573 Y24.5981
G01 X31.3817 Y24.5736
G01 X31.4038 Y24.5470
G01 X31.4088 Y24.5403
G01 X31.4280 Y24.5115
G01 X31.4463 Y24.4773
G01 X31.4597 Y24.4454
G01 X31.4625 Y24.4376
G01 X31.4725 Y24.4045
G01 X31.4802 Y24.3665
G01 X31.4840 Y24.3282
G01 X31.6110 Y21.8385
G01 X31.6115 Y21.8252
G01 X31.6112 Y21.8022
G01 X31.6104 Y21.7889
G01 X31.4326 Y19.4516
G01 X31.4278 Y19.4134
G01 X31.4192 Y19.3756
G01 X31.4070 Y19.3388
G01 X31.3912 Y19.3034
G01 X31.3741 Y19.2733
G01 X31.3686 Y19.2646
G01 X31.3509 Y19.2398
G01 X31.3457 Y19.2334
G01 X31.3229 Y19.2074
G01 X31.2992 Y19.1849
G01 X31.2929 Y19.1795
G01 X31.2655 Y19.1584
G01 X30.1039 Y18.3528
G01 X33.5395 Y18.3528
G01 X33.5394 Y25.4142
G01 X31.1150 Y27.8387
G01 X31.0960 Y27.8590
G01 X31.0877 Y27.8690
G01 X31.0734 Y27.8877
G01 X31.0648 Y27.9002
G01 X31.0524 Y27.9203
G01 X31.0451 Y27.9336
G01 X31.0347 Y27.9548
G01 X31.0295 Y27.9667
G01 X31.0198 Y27.9927
G01 X28.5697 Y35.3429
G01 X13.8169 Y35.3428
G01 X10.0995 Y30.1730
G01 X10.0886 Y30.1586
G01 X10.0770 Y30.1446
G01 X10.0631 Y30.1295
G01 X10.0469 Y30.1136
G01 X10.0349 Y30.1029
G01 X10.0207 Y30.0914
G01 X10.0041 Y30.0793
G01 X9.9851 Y30.0669
G01 X9.9712 Y30.0588
G01 X9.9551 Y30.0503
G01 X9.9365 Y30.0416
G01 X9.9175 Y30.0339
G01 X9.9002 Y30.0279
G01 X9.8806 Y30.0221
G01 X9.8628 Y30.0178
G01 X9.8427 Y30.0140
G01 X9.8246 Y30.0115
G01 X9.8042 Y30.0097
G01 X9.7862 Y30.0089
G01 X1.4562 Y29.8632
G01 X1.2863 Y18.0951
G01 X3.0043 Y16.3989
G01 X3.0429 Y16.4170
G01 X3.1428 Y16.4525
G01 X3.2436 Y16.4776
G01 X3.3463 Y16.4930
G01 X3.4502 Y16.4983
G01 X3.4586 Y16.4983
G01 X3.5603 Y16.4932
G01 X3.6674 Y16.4772
G01 X3.7681 Y16.4519
G01 X3.8640 Y16.4176
G01 X3.8717 Y16.4145
G01 X3.9601 Y16.3727
G01 X3.9674 Y16.3688
G01 X4.0547 Y16.3163
G01 X4.1399 Y16.2531
G01 X4.2185 Y16.1819
G01 X4.2870 Y16.1065
G01 X4.2923 Y16.1000
G01 X4.3529 Y16.0181
G01 X4.4054 Y15.9308
G01 X4.4093 Y15.9235
G01 X4.4511 Y15.8351
G01 X4.4542 Y15.8274
G01 X4.4885 Y15.7315
G01 X4.5142 Y15.6286
G01 X4.5298 Y15.5237
G01 X4.5350 Y15.4178
G01 X4.5298 Y15.3119
G01 X4.5142 Y15.2070
G01 X4.4885 Y15.1041
G01 X4.4542 Y15.0082
G01 X4.4511 Y15.0005
G01 X4.4093 Y14.9121
G01 X4.4054 Y14.9048
G01 X4.3529 Y14.8175
G01 X4.2883 Y14.7306
G01 X4.2185 Y14.6537
G01 X4.1399 Y14.5825
G01 X4.0547 Y14.5193
G01 X3.9638 Y14.4648
G01 X3.8679 Y14.4195
G01 X3.7681 Y14.3837
G01 X3.6652 Y14.3580
G01 X3.5603 Y14.3424
G01 X3.4544 Y14.3372
G01 X3.3485 Y14.3424
G01 X3.2436 Y14.3580
G01 X3.1407 Y14.3837
G01 X3.0409 Y14.4195
G01 X2.9450 Y14.4648
G01 X2.8541 Y14.5193
G01 X2.7672 Y14.5839
G01 X2.6903 Y14.6537
G01 X2.6218 Y14.7291
G01 X2.6165 Y14.7356
G01 X2.5583 Y14.8140
G01 X2.5537 Y14.8210
G01 X2.5014 Y14.9084
G01 X2.4561 Y15.0043
G01 X2.4203 Y15.1041
G01 X2.3955 Y15.2029
G01 X2.3938 Y15.2111
G01 X2.3795 Y15.3077
G01 X2.3787 Y15.3160
G01 X2.3738 Y15.4178
G01 X2.3790 Y15.5237
G01 X2.3938 Y15.6245
G01 X2.3955 Y15.6327
G01 X2.4203 Y15.7315
G01 X2.4557 Y15.8305
G01 X0.6042 Y17.6588
G01 X0.5867 Y17.6782
G01 X0.5801 Y17.6863
G01 X0.5633 Y17.7091
G01 X0.5575 Y17.7177
G01 X0.5430 Y17.7421
G01 X0.5380 Y17.7513
G01 X0.5260 Y17.7769
G01 X0.5220 Y17.7865
G01 X0.5125 Y17.8132
G01 X0.5094 Y17.8232
G01 X0.5026 Y17.8507
G01 X0.5006 Y17.8609
G01 X0.4965 Y17.8890
G01 X0.4954 Y17.8994
G01 X0.4941 Y17.9277
G01 X0.4941 Y17.9379
G00 X0.4941 Y17.9379
G01 F90.00
G01 Z-0.2000
G01 F150.00
G01 X0.6719 Y30.2573
G01 X0.6733 Y30.2854
G01 X0.6746 Y30.2980
G01 X0.6778 Y30.3195
G01 X0.6811 Y30.3362
G01 X0.6863 Y30.3573
G01 X0.6905 Y30.3715
G01 X0.7002 Y30.3982
G01 X0.7050 Y30.4098
G01 X0.7143 Y30.4295
G01 X0.7223 Y30.4445
G01 X0.7346 Y30.4650
G01 X0.7429 Y30.4773
G01 X0.7572 Y30.4966
G01 X0.7666 Y30.5080
G01 X0.7842 Y30.5273
G01 X0.7932 Y30.5362
G01 X0.8093 Y30.5508
G01 X0.8224 Y30.5616
G01 X0.8417 Y30.5759
G01 X0.8540 Y30.5841
G01 X0.8765 Y30.5975
G01 X0.8876 Y30.6034
G01 X0.9073 Y30.6127
G01 X0.9209 Y30.6184
G01 X0.9435 Y30.6266
G01 X0.9597 Y30.6315
G01 X0.9851 Y30.6378
G01 X0.9975 Y30.6402
G01 X1.0190 Y30.6434
G01 X1.0338 Y30.6450
G01 X1.0577 Y30.6462
G01 X9.5740 Y30.7952
G01 X13.2950 Y35.9701
G01 X13.3077 Y35.9866
G01 X13.3179 Y35.9987
G01 X13.3336 Y36.0155
G01 X13.3449 Y36.0265
G01 X13.3622 Y36.0417
G01 X13.3727 Y36.0502
G01 X13.3968 Y36.0674
G01 X13.4083 Y36.0747
G01 X13.4282 Y36.0861
G01 X13.4423 Y36.0933
G01 X13.4633 Y36.1027
G01 X13.4780 Y36.1084
G01 X13.4998 Y36.1157
G01 X13.5149 Y36.1200
G01 X13.5352 Y36.1247
G01 X13.5507 Y36.1276
G01 X13.5757 Y36.1309
G01 X13.5914 Y36.1321
G01 X13.6142 Y36.1327
G01 X28.8546 Y36.1327
G01 X28.8802 Y36.1319
G01 X28.8953 Y36.1306
G01 X28.9231 Y36.1267
G01 X28.9336 Y36.1247
G01 X28.9566 Y36.1193
G01 X28.9712 Y36.1151
G01 X28.9956 Y36.1067
G01 X29.0076 Y36.1018
G01 X29.0310 Y36.0911
G01 X29.0425 Y36.0851
G01 X29.0648 Y36.0720
G01 X29.0756 Y36.0649
G01 X29.0966 Y36.0498
G01 X29.1066 Y36.0417
G01 X29.1260 Y36.0246
G01 X29.1352 Y36.0155
G01 X29.1528 Y35.9966
G01 X29.1611 Y35.9866
G01 X29.1767 Y35.9661
G01 X29.1840 Y35.9554
G01 X29.1975 Y35.9334
G01 X29.2037 Y35.9220
G01 X29.2150 Y35.8988
G01 X29.2201 Y35.8869
G01 X29.2284 Y35.8648
G01 X31.7396 Y28.3311
G01 X34.2152 Y25.8555
G01 X34.2397 Y25.8284
G01 X34.2604 Y25.8006
G01 X34.2650 Y25.7937
G01 X34.2827 Y25.7640
G01 X34.2976 Y25.7328
G01 X34.3008 Y25.7251
G01 X34.3123 Y25.6924
G01 X34.3213 Y25.6570
G01 X34.3275 Y25.6165
G01 X34.3293 Y25.5780
G01 X34.3293 Y17.9576
G01 X34.3275 Y17.9191
G01 X34.3225 Y17.8849
G01 X34.3209 Y17.8767
G01 X34.3123 Y17.8432
G01 X34.3008 Y17.8105
G01 X34.2976 Y17.8028
G01 X34.2827 Y17.7716
G01 X34.2650 Y17.7419
G01 X34.2604 Y17.7350
G01 X34.2397 Y17.7072
G01 X34.2166 Y17.6815
G01 X34.2107 Y17.6756
G01 X34.1850 Y17.6525
G01 X34.1572 Y17.6318
G01 X34.1503 Y17.6272
G01 X34.1206 Y17.6095
G01 X34.0855 Y17.5929
G01 X34.0530 Y17.5812
G01 X34.0450 Y17.5787
G01 X34.0115 Y17.5704
G01 X33.9773 Y17.5653
G01 X33.9690 Y17.5644
G01 X33.9386 Y17.5629
G01 X29.7063 Y17.5628
G01 X29.6823 Y17.5128
G01 X29.6347 Y17.4337
G01 X29.5810 Y17.3615
G01 X29.5175 Y17.2916
G01 X29.4507 Y17.2312
G01 X29.3766 Y17.1762
G01 X29.2975 Y17.1288
G01 X29.2141 Y17.0894
G01 X29.1273 Y17.0583
G01 X29.0378 Y17.0359
G01 X28.9465 Y17.0223
G01 X28.8544 Y17.0178
G01 X28.7623 Y17.0223
G01 X28.6710 Y17.0359
G01 X28.5815 Y17.0583
G01 X28.5120 Y17.0830
G01 X26.6338 Y15.2286
G01 X24.1236 Y7.6981
G01 X24.1157 Y7.6766
G01 X24.1096 Y7.6622
G01 X24.1040 Y7.6501
G01 X24.0910 Y7.6257
G01 X24.0801 Y7.6079
G01 X24.0713 Y7.5949
G01 X24.0560 Y7.5748
G01 X24.0474 Y7.5644
G01 X24.0319 Y7.5476
G01 X22.1944 Y5.6636
G01 X22.1990 Y5.6529
G01 X22.2320 Y5.5604
G01 X22.2569 Y5.4612
G01 X22.2719 Y5.3600
G01 X22.2768 Y5.2620
G01 X22.2768 Y5.2536
G01 X22.2722 Y5.1598
G01 X22.2714 Y5.1515
G01 X22.2569 Y5.0544
G01 X22.2331 Y4.9592
G01 X22.2307 Y4.9512
G01 X22.1975 Y4.8589
G01 X22.1538 Y4.7664
G01 X22.1012 Y4.6786
G01 X22.0403 Y4.5964
G01 X21.9716 Y4.5206
G01 X21.8989 Y4.4547
G01 X21.8925 Y4.4494
G01 X21.8170 Y4.3934
G01 X21.8101 Y4.3888
G01 X21.7258 Y4.3384
G01 X21.6372 Y4.2963
G01 X21.6295 Y4.2932
G01 X21.5370 Y4.2602
G01 X21.4399 Y4.2358
G01 X21.3407 Y4.2208
G01 X21.3324 Y4.2200
G01 X21.2344 Y4.2153
G01 X21.1364 Y4.2200
G01 X21.1281 Y4.2208
G01 X21.0310 Y4.2353
G01 X20.9358 Y4.2591
G01 X20.9278 Y4.2615
G01 X20.8355 Y4.2947
G01 X20.7467 Y4.3365
G01 X20.7393 Y4.3405
G01 X20.6552 Y4.3910
G01 X20.5763 Y4.4494
G01 X20.5699 Y4.4547
G01 X20.4972 Y4.5206
G01 X20.4313 Y4.5933
G01 X20.4260 Y4.5997
G01 X20.3676 Y4.6786
G01 X20.3171 Y4.7627
G01 X20.3131 Y4.7701
G01 X20.2713 Y4.8589
G01 X20.2381 Y4.9512
G01 X20.2357 Y4.9592
G01 X20.2119 Y5.0544
G01 X20.1974 Y5.1515
G01 X20.1966 Y5.1598
G01 X20.1919 Y5.2578
G01 X20.1966 Y5.3558
G01 X20.1974 Y5.3641
G01 X20.2119 Y5.4612
G01 X20.2375 Y5.5625
G01 X20.2713 Y5.6567
G01 X20.3150 Y5.7492
G01 X20.3676 Y5.8370
G01 X20.4260 Y5.9159
G01 X20.4313 Y5.9223
G01 X20.4944 Y5.9919
G01 X20.5003 Y5.9978
G01 X20.5730 Y6.0637
G01 X20.6552 Y6.1246
G01 X20.7430 Y6.1772
G01 X20.8316 Y6.2193
G01 X20.8393 Y6.2224
G01 X20.9318 Y6.2554
G01 X21.0269 Y6.2794
G01 X21.0351 Y6.2810
G01 X21.1322 Y6.2953
G01 X21.2302 Y6.3002
G01 X21.2386 Y6.3002
G01 X21.3366 Y6.2953
G01 X21.4337 Y6.2810
G01 X21.4419 Y6.2794
G01 X21.5370 Y6.2554
G01 X21.6342 Y6.2206
G01 X22.3189 Y6.9226
G01 X17.1936 Y5.1890
G01 X17.1916 Y5.1534
G01 X17.1764 Y5.0523
G01 X17.1520 Y4.9552
G01 X17.1184 Y4.8609
G01 X17.0738 Y4.7664
G01 X17.0234 Y4.6821
G01 X17.0188 Y4.6752
G01 X16.9588 Y4.5948
G01 X16.8916 Y4.5206
G01 X16.8158 Y4.4519
G01 X16.7336 Y4.3910
G01 X16.6495 Y4.3405
G01 X16.6421 Y4.3365
G01 X16.5572 Y4.2963
G01 X16.5495 Y4.2932
G01 X16.4570 Y4.2602
G01 X16.3578 Y4.2353
G01 X16.2566 Y4.2203
G01 X16.1586 Y4.2154
G01 X16.1502 Y4.2154
G01 X16.0522 Y4.2203
G01 X15.9551 Y4.2346
G01 X15.9469 Y4.2362
G01 X15.8518 Y4.2602
G01 X15.7593 Y4.2932
G01 X15.7516 Y4.2963
G01 X15.6630 Y4.3384
G01 X15.5787 Y4.3888
G01 X15.5718 Y4.3934
G01 X15.4930 Y4.4519
G01 X15.4172 Y4.5206
G01 X15.3485 Y4.5964
G01 X15.2900 Y4.6752
G01 X15.2854 Y4.6821
G01 X15.2350 Y4.7664
G01 X15.1929 Y4.8550
G01 X15.1898 Y4.8627
G01 X15.1568 Y4.9552
G01 X15.1319 Y5.0544
G01 X15.1174 Y5.1515
G01 X15.1166 Y5.1598
G01 X15.1119 Y5.2578
G01 X15.1166 Y5.3558
G01 X15.1174 Y5.3641
G01 X15.1319 Y5.4612
G01 X15.1557 Y5.5564
G01 X15.1581 Y5.5644
G01 X15.1913 Y5.6567
G01 X15.2331 Y5.7455
G01 X15.2371 Y5.7529
G01 X15.2876 Y5.8370
G01 X15.3460 Y5.9159
G01 X15.3513 Y5.9223
G01 X15.4172 Y5.9950
G01 X15.4899 Y6.0609
G01 X15.4963 Y6.0662
G01 X15.5752 Y6.1246
G01 X15.6593 Y6.1751
G01 X15.6667 Y6.1791
G01 X15.7555 Y6.2209
G01 X15.8497 Y6.2547
G01 X15.9469 Y6.2794
G01 X15.9551 Y6.2810
G01 X16.0522 Y6.2953
G01 X16.1544 Y6.3003
G01 X16.2524 Y6.2956
G01 X16.2607 Y6.2948
G01 X16.3578 Y6.2803
G01 X16.4549 Y6.2560
G01 X16.5495 Y6.2224
G01 X16.5572 Y6.2193
G01 X16.6458 Y6.1772
G01 X16.7336 Y6.1246
G01 X16.8125 Y6.0662
G01 X16.8189 Y6.0609
G01 X16.8916 Y5.9950
G01 X16.9432 Y5.9382
G01 X23.4364 Y8.1344
G01 X25.9144 Y15.5683
G01 X25.9242 Y15.5946
G01 X25.9284 Y15.6042
G01 X25.9419 Y15.6316
G01 X25.9470 Y15.6407
G01 X25.9608 Y15.6629
G01 X25.9680 Y15.6733
G01 X25.9839 Y15.6940
G01 X25.9906 Y15.7020
G01 X26.0113 Y15.7241
G01 X27.9659 Y17.6539
G01 X27.9543 Y17.6871
G01 X27.9321 Y17.7766
G01 X27.9189 Y17.8657
G01 X27.9144 Y17.9556
G01 X27.9186 Y18.0458
G01 X27.9194 Y18.0541
G01 X27.9325 Y18.1412
G01 X27.9543 Y18.2285
G01 X27.9845 Y18.3136
G01 X27.9876 Y18.3213
G01 X28.0254 Y18.4009
G01 X28.0728 Y18.4800
G01 X28.1252 Y18.5508
G01 X28.1305 Y18.5573
G01 X28.1897 Y18.6225
G01 X28.2564 Y18.6830
G01 X28.3288 Y18.7370
G01 X28.3357 Y18.7416
G01 X28.4113 Y18.7868
G01 X28.4947 Y18.8262
G01 X28.5815 Y18.8573
G01 X28.6669 Y18.8788
G01 X28.6751 Y18.8805
G01 X28.7645 Y18.8935
G01 X28.8544 Y18.8978
G01 X28.9424 Y18.8936
G01 X28.9507 Y18.8928
G01 X29.0399 Y18.8793
G01 X29.1273 Y18.8573
G01 X29.2121 Y18.8271
G01 X29.2956 Y18.7878
G01 X29.3224 Y18.7720
G01 X30.6593 Y19.6992
G01 X30.8017 Y21.5713
G01 X27.1112 Y21.5289
G01 X27.0931 Y21.5065
G01 X21.5048 Y15.1815
G01 X21.4835 Y15.1592
G01 X21.4779 Y15.1539
G01 X21.4543 Y15.1337
G01 X21.4449 Y15.1265
G01 X21.4228 Y15.1111
G01 X21.4163 Y15.1070
G01 X21.3875 Y15.0909
G01 X17.1925 Y12.9693
G01 X17.1969 Y12.8778
G01 X17.1922 Y12.7798
G01 X17.1914 Y12.7715
G01 X17.1769 Y12.6744
G01 X17.1531 Y12.5792
G01 X17.1507 Y12.5712
G01 X17.1175 Y12.4789
G01 X17.0738 Y12.3864
G01 X17.0212 Y12.2986
G01 X16.9628 Y12.2197
G01 X16.9575 Y12.2133
G01 X16.8916 Y12.1406
G01 X16.8189 Y12.0747
G01 X16.8125 Y12.0694
G01 X16.7336 Y12.0110
G01 X16.6458 Y11.9584
G01 X16.5572 Y11.9163
G01 X16.5495 Y11.9132
G01 X16.4570 Y11.8802
G01 X16.3578 Y11.8553
G01 X16.2566 Y11.8403
G01 X16.1586 Y11.8354
G01 X16.1502 Y11.8354
G01 X16.0564 Y11.8400
G01 X16.0481 Y11.8408
G01 X15.9510 Y11.8553
G01 X15.8518 Y11.8802
G01 X15.7555 Y11.9147
G01 X15.6667 Y11.9565
G01 X15.6593 Y11.9605
G01 X15.5787 Y12.0088
G01 X15.5718 Y12.0134
G01 X15.4930 Y12.0719
G01 X15.4203 Y12.1378
G01 X15.4144 Y12.1437
G01 X15.3513 Y12.2133
G01 X15.3460 Y12.2197
G01 X15.2876 Y12.2986
G01 X15.2350 Y12.3864
G01 X15.1929 Y12.4750
G01 X15.1898 Y12.4827
G01 X15.1568 Y12.5752
G01 X15.1319 Y12.6744
G01 X15.1174 Y12.7715
G01 X15.1166 Y12.7798
G01 X15.1119 Y12.8778
G01 X15.1169 Y12.9800
G01 X15.1319 Y13.0812
G01 X15.1557 Y13.1764
G01 X15.1581 Y13.1844
G01 X15.1898 Y13.2729
G01 X15.1929 Y13.2806
G01 X15.2350 Y13.3692
G01 X15.2876 Y13.4570
G01 X15.3485 Y13.5392
G01 X15.4172 Y13.6150
G01 X15.4930 Y13.6837
G01 X15.5752 Y13.7446
G01 X15.6630 Y13.7972
G01 X15.7534 Y13.8401
G01 X15.8478 Y13.8741
G01 X15.8558 Y13.8765
G01 X15.9510 Y13.9003
G01 X16.0522 Y13.9153
G01 X16.1502 Y13.9202
G01 X16.1586 Y13.9202
G01 X16.2566 Y13.9153
G01 X16.3537 Y13.9010
G01 X16.3619 Y13.8994
G01 X16.4530 Y13.8765
G01 X16.4610 Y13.8741
G01 X16.5533 Y13.8409
G01 X16.6421 Y13.7991
G01 X16.6495 Y13.7951
G01 X16.7336 Y13.7446
G01 X16.8140 Y13.6850
G01 X16.8298 Y13.6710
G01 X20.9632 Y15.7615
G01 X26.5012 Y22.0295
G01 X26.5281 Y22.0571
G01 X26.5545 Y22.0794
G01 X26.5611 Y22.0845
G01 X26.5862 Y22.1017
G01 X26.5933 Y22.1061
G01 X26.6236 Y22.1227
G01 X26.6592 Y22.1380
G01 X26.6962 Y22.1497
G01 X26.7300 Y22.1570
G01 X26.7382 Y22.1583
G01 X26.7685 Y22.1616
G01 X26.7768 Y22.1622
G01 X26.8114 Y22.1625
G01 X26.8459 Y22.1596
G01 X26.8541 Y22.1585
G01 X26.8881 Y22.1521
G01 X26.9253 Y22.1413
G01 X26.9613 Y22.1269
G01 X26.9957 Y22.1091
G01 X27.0282 Y22.0880
G01 X27.0585 Y22.0638
G01 X27.0863 Y22.0367
G01 X27.1057 Y22.0138
G01 X30.8090 Y22.0564
G01 X30.7064 Y24.0675
G01 X26.8277 Y24.0890
G01 X26.8096 Y24.0672
G01 X26.7851 Y24.0428
G01 X26.7789 Y24.0372
G01 X26.7554 Y24.0179
G01 X26.7487 Y24.0130
G01 X26.7198 Y23.9939
G01 X26.6875 Y23.9767
G01 X24.8141 Y23.0964
G01 X24.8169 Y23.0356
G01 X24.8116 Y22.9334
G01 X24.7969 Y22.8344
G01 X24.7726 Y22.7373
G01 X24.7390 Y22.6427
G01 X24.7359 Y22.6350
G01 X24.6938 Y22.5464
G01 X24.6424 Y22.4605
G01 X24.5828 Y22.3797
G01 X24.5775 Y22.3733
G01 X24.5116 Y22.3006
G01 X24.4358 Y22.2319
G01 X24.3570 Y22.1734
G01 X24.3501 Y22.1688
G01 X24.2658 Y22.1184
G01 X24.1754 Y22.0755
G01 X24.0810 Y22.0415
G01 X24.0730 Y22.0391
G01 X23.9778 Y22.0153
G01 X23.8766 Y22.0003
G01 X23.7786 Y21.9954
G01 X23.7702 Y21.9954
G01 X23.6722 Y22.0003
G01 X23.5732 Y22.0149
G01 X23.4758 Y22.0391
G01 X23.4678 Y22.0415
G01 X23.3755 Y22.0747
G01 X23.2849 Y22.1174
G01 X23.1934 Y22.1722
G01 X23.1148 Y22.2306
G01 X23.0878 Y22.2547
G01 X18.8430 Y20.1686
G01 X18.8232 Y20.1596
G01 X18.8076 Y20.1534
G01 X18.7890 Y20.1469
G01 X18.7707 Y20.1416
G01 X18.7515 Y20.1370
G01 X18.7328 Y20.1334
G01 X18.7132 Y20.1307
G01 X18.6943 Y20.1291
G01 X18.6770 Y20.1283
G01 X17.1204 Y20.1064
G01 X17.1159 Y20.0950
G01 X17.0738 Y20.0064
G01 X17.0234 Y19.9221
G01 X17.0188 Y19.9152
G01 X16.9603 Y19.8364
G01 X16.8944 Y19.7637
G01 X16.8885 Y19.7578
G01 X16.8158 Y19.6919
G01 X16.7336 Y19.6310
G01 X16.6495 Y19.5805
G01 X16.6421 Y19.5765
G01 X16.5533 Y19.5347
G01 X16.4610 Y19.5015
G01 X16.4530 Y19.4991
G01 X16.3599 Y19.4758
G01 X16.2566 Y19.4603
G01 X16.1586 Y19.4554
G01 X16.1502 Y19.4554
G01 X16.0522 Y19.4603
G01 X15.9551 Y19.4746
G01 X15.9469 Y19.4762
G01 X15.8518 Y19.5002
G01 X15.7555 Y19.5347
G01 X15.6667 Y19.5765
G01 X15.6593 Y19.5805
G01 X15.5752 Y19.6310
G01 X15.4963 Y19.6894
G01 X15.4899 Y19.6947
G01 X15.4172 Y19.7606
G01 X15.3513 Y19.8333
G01 X15.3460 Y19.8397
G01 X15.2876 Y19.9186
G01 X15.2371 Y20.0027
G01 X15.2331 Y20.0101
G01 X15.1913 Y20.0989
G01 X15.1568 Y20.1952
G01 X15.1328 Y20.2903
G01 X15.1312 Y20.2985
G01 X15.1169 Y20.3956
G01 X15.1120 Y20.4936
G01 X15.1120 Y20.5020
G01 X15.1169 Y20.6000
G01 X15.1324 Y20.7033
G01 X15.1568 Y20.8004
G01 X15.1898 Y20.8929
G01 X15.1929 Y20.9006
G01 X15.2331 Y20.9855
G01 X15.2371 Y20.9929
G01 X15.2876 Y21.0770
G01 X15.3485 Y21.1592
G01 X15.4172 Y21.2350
G01 X15.4899 Y21.3009
G01 X15.4963 Y21.3062
G01 X15.5718 Y21.3622
G01 X15.5787 Y21.3668
G01 X15.6630 Y21.4172
G01 X15.7555 Y21.4609
G01 X15.8518 Y21.4954
G01 X15.9469 Y21.5194
G01 X15.9551 Y21.5210
G01 X16.0544 Y21.5355
G01 X16.1544 Y21.5403
G01 X16.2524 Y21.5356
G01 X16.2607 Y21.5348
G01 X16.3537 Y21.5210
G01 X16.3619 Y21.5194
G01 X16.4570 Y21.4954
G01 X16.5533 Y21.4609
G01 X16.6458 Y21.4172
G01 X16.7301 Y21.3668
G01 X16.7370 Y21.3622
G01 X16.8125 Y21.3062
G01 X16.8189 Y21.3009
G01 X16.8916 Y21.2350
G01 X16.9603 Y21.1592
G01 X17.0212 Y21.0770
G01 X17.0717 Y20.9929
G01 X17.0757 Y20.9855
G01 X17.1177 Y20.8963
G01 X18.4251 Y20.9148
G01 X20.4490 Y24.8937
G01 X20.4272 Y24.9182
G01 X20.3664 Y25.0005
G01 X20.3150 Y25.0864
G01 X20.2721 Y25.1768
G01 X20.2381 Y25.2712
G01 X20.2357 Y25.2792
G01 X20.2119 Y25.3744
G01 X20.1972 Y25.4734
G01 X20.1920 Y25.5736
G01 X20.1920 Y25.5820
G01 X20.1969 Y25.6800
G01 X20.2119 Y25.7812
G01 X20.2357 Y25.8764
G01 X20.2381 Y25.8844
G01 X20.2713 Y25.9767
G01 X20.3140 Y26.0673
G01 X20.3654 Y26.1535
G01 X20.3700 Y26.1604
G01 X20.4285 Y26.2392
G01 X20.4972 Y26.3150
G01 X20.5730 Y26.3837
G01 X20.6518 Y26.4422
G01 X20.6587 Y26.4468
G01 X20.7430 Y26.4972
G01 X20.8355 Y26.5409
G01 X20.9278 Y26.5741
G01 X20.9358 Y26.5765
G01 X21.0310 Y26.6003
G01 X21.1322 Y26.6153
G01 X21.2302 Y26.6202
G01 X21.2386 Y26.6202
G01 X21.3388 Y26.6150
G01 X21.4378 Y26.6003
G01 X21.5330 Y26.5765
G01 X21.5410 Y26.5741
G01 X21.6333 Y26.5409
G01 X21.7221 Y26.4991
G01 X21.7295 Y26.4951
G01 X21.8101 Y26.4468
G01 X21.8170 Y26.4422
G01 X21.8958 Y26.3837
G01 X21.9716 Y26.3150
G01 X22.0403 Y26.2392
G01 X22.1012 Y26.1570
G01 X22.1538 Y26.0692
G01 X22.1959 Y25.9806
G01 X22.1990 Y25.9729
G01 X22.2320 Y25.8804
G01 X22.2560 Y25.7853
G01 X22.2576 Y25.7771
G01 X22.2714 Y25.6841
G01 X22.2722 Y25.6758
G01 X22.2769 Y25.5778
G01 X22.2719 Y25.4756
G01 X22.2569 Y25.3744
G01 X22.2313 Y25.2731
G01 X22.1975 Y25.1789
G01 X22.1538 Y25.0864
G01 X22.1012 Y24.9986
G01 X22.0428 Y24.9197
G01 X22.0375 Y24.9133
G01 X21.9744 Y24.8437
G01 X21.9685 Y24.8378
G01 X21.8958 Y24.7719
G01 X21.8136 Y24.7110
G01 X21.7258 Y24.6584
G01 X21.6372 Y24.6163
G01 X21.6295 Y24.6132
G01 X21.5410 Y24.5815
G01 X21.5330 Y24.5791
G01 X21.4378 Y24.5553
G01 X21.3366 Y24.5403
G01 X21.2344 Y24.5353
G01 X21.1549 Y24.5391
G01 X19.5583 Y21.4003
G01 X22.7355 Y22.9617
G01 X22.7319 Y23.0378
G01 X22.7369 Y23.1400
G01 X22.7519 Y23.2412
G01 X22.7762 Y23.3383
G01 X22.8113 Y23.4367
G01 X22.8531 Y23.5255
G01 X22.8571 Y23.5329
G01 X22.9088 Y23.6188
G01 X22.9685 Y23.6992
G01 X23.0372 Y23.7750
G01 X23.1130 Y23.8437
G01 X23.1918 Y23.9022
G01 X23.1987 Y23.9068
G01 X23.2793 Y23.9551
G01 X23.2867 Y23.9591
G01 X23.3755 Y24.0009
G01 X23.4739 Y24.0360
G01 X23.5669 Y24.0594
G01 X23.5751 Y24.0610
G01 X23.6722 Y24.0753
G01 X23.7702 Y24.0802
G01 X23.7786 Y24.0802
G01 X23.8766 Y24.0753
G01 X23.9799 Y24.0598
G01 X24.0770 Y24.0354
G01 X24.1695 Y24.0024
G01 X24.1772 Y23.9993
G01 X24.2639 Y23.9582
G01 X24.3554 Y23.9034
G01 X24.4340 Y23.8450
G01 X24.4739 Y23.8093
G01 X26.3516 Y24.6916
G01 X26.3855 Y24.7054
G01 X26.4226 Y24.7166
G01 X26.4606 Y24.7240
G01 X26.4951 Y24.7274
G01 X26.5034 Y24.7278
G01 X26.5380 Y24.7276
G01 X26.5724 Y24.7243
G01 X26.5806 Y24.7230
G01 X26.6145 Y24.7161
G01 X26.6476 Y24.7061
G01 X26.6555 Y24.7032
G01 X26.6854 Y24.6907
G01 X26.7215 Y24.6714
G01 X26.7503 Y24.6522
G01 X26.7570 Y24.6473
G01 X26.7804 Y24.6279
G01 X26.7866 Y24.6223
G01 X26.8109 Y24.5977
G01 X26.8304 Y24.5739
G01 X30.7796 Y24.5520
G01 X30.7965 Y24.5725
G01 X30.8222 Y24.5984
G01 X30.8555 Y24.6259
G01 X30.8859 Y24.6462
G01 X30.9163 Y24.6626
G01 X30.9239 Y24.6662
G01 X30.9558 Y24.6794
G01 X30.9889 Y24.6896
G01 X30.9970 Y24.6917
G01 X31.0309 Y24.6984
G01 X31.0695 Y24.7022
G01 X31.1041 Y24.7024
G01 X31.1124 Y24.7020
G01 X31.1468 Y24.6986
G01 X31.1827 Y24.6916
G01 X31.2180 Y24.6812
G01 X31.2258 Y24.6784
G01 X31.2578 Y24.6652
G01 X31.2920 Y24.6469
G01 X31.3243 Y24.6255
G01 X31.3511 Y24.6037
G01 X31.3573 Y24.5981
G01 X31.3817 Y24.5736
G01 X31.4038 Y24.5470
G01 X31.4088 Y24.5403
G01 X31.4280 Y24.5115
G01 X31.4463 Y24.4773
G01 X31.4597 Y24.4454
G01 X31.4625 Y24.4376
G01 X31.4725 Y24.4045
G01 X31.4802 Y24.3665
G01 X31.4840 Y24.3282
G01 X31.6110 Y21.8385
G01 X31.6115 Y21.8252
G01 X31.6112 Y21.8022
G01 X31.6104 Y21.7889
G01 X31.4326 Y19.4516
G01 X31.4278 Y19.4134
G01 X31.4192 Y19.3756
G01 X31.4070 Y19.3388
G01 X31.3912 Y19.3034
G01 X31.3741 Y19.2733
G01 X31.3686 Y19.2646
G01 X31.3509 Y19.2398
G01 X31.3457 Y19.2334
G01 X31.3229 Y19.2074
G01 X31.2992 Y19.1849
G01 X31.2929 Y19.1795
G01 X31.2655 Y19.1584
G01 X30.1039 Y18.3528
G01 X33.5395 Y18.3528
G01 X33.5394 Y25.4142
G01 X31.1150 Y27.8387
G01 X31.0960 Y27.8590
G01 X31.0877 Y27.8690
G01 X31.0734 Y27.8877
G01 X31.0648 Y27.9002
G01 X31.0524 Y27.9203
G01 X31.0451 Y27.9336
G01 X31.0347 Y27.9548
G01 X31.0295 Y27.9667
G01 X31.0198 Y27.9927
G01 X28.5697 Y35.3429
G01 X13.8169 Y35.3428
G01 X10.0995 Y30.1730
G01 X10.0886 Y30.1586
G01 X10.0770 Y30.1446
G01 X10.0631 Y30.1295
G01 X10.0469 Y30.1136
G01 X10.0349 Y30.1029
G01 X10.0207 Y30.0914
G01 X10.0041 Y30.0793
G01 X9.9851 Y30.0669
G01 X9.9712 Y30.0588
G01 X9.9551 Y30.0503
G01 X9.9365 Y30.0416
G01 X9.9175 Y30.0339
G01 X9.9002 Y30.0279
G01 X9.8806 Y30.0221
G01 X9.8628 Y30.0178
G01 X9.8427 Y30.0140
G01 X9.8246 Y30.0115
G01 X9.8042 Y30.0097
G01 X9.7862 Y30.0089
G01 X1.4562 Y29.8632
G01 X1.2863 Y18.0951
G01 X3.0043 Y16.3989
G01 X3.0429 Y16.4170
G01 X3.1428 Y16.4525
G01 X3.2436 Y16.4776
G01 X3.3463 Y16.4930
G01 X3.4502 Y16.4983
G01 X3.4586 Y16.4983
G01 X3.5603 Y16.4932
G01 X3.6674 Y16.4772
G01 X3.7681 Y16.4519
G01 X3.8640 Y16.4176
G01 X3.8717 Y16.4145
G01 X3.9601 Y16.3727
G01 X3.9674 Y16.3688
G01 X4.0547 Y16.3163
G01 X4.1399 Y16.2531
G01 X4.2185 Y16.1819
G01 X4.2870 Y16.1065
G01 X4.2923 Y16.1000
G01 X4.3529 Y16.0181
G01 X4.4054 Y15.9308
G01 X4.4093 Y15.9235
G01 X4.4511 Y15.8351
G01 X4.4542 Y15.8274
G01 X4.4885 Y15.7315
G01 X4.5142 Y15.6286
G01 X4.5298 Y15.5237
G01 X4.5350 Y15.4178
G01 X4.5298 Y15.3119
G01 X4.5142 Y15.2070
G01 X4.4885 Y15.1041
G01 X4.4542 Y15.0082
G01 X4.4511 Y15.0005
G01 X4.4093 Y14.9121
G01 X4.4054 Y14.9048
G01 X4.3529 Y14.8175
G01 X4.2883 Y14.7306
G01 X4.2185 Y14.6537
G01 X4.1399 Y14.5825
G01 X4.0547 Y14.5193
G01 X3.9638 Y14.4648
G01 X3.8679 Y14.4195
G01 X3.7681 Y14.3837
G01 X3.6652 Y14.3580
G01 X3.5603 Y14.3424
G01 X3.4544 Y14.3372
G01 X3.3485 Y14.3424
G01 X3.2436 Y14.3580
G01 X3.1407 Y14.3837
G01 X3.0409 Y14.4195
G01 X2.9450 Y14.4648
G01 X2.8541 Y14.5193
G01 X2.7672 Y14.5839
G01 X2.6903 Y14.6537
G01 X2.6218 Y14.7291
G01 X2.6165 Y14.7356
G01 X2.5583 Y14.8140
G01 X2.5537 Y14.8210
G01 X2.5014 Y14.9084
G01 X2.4561 Y15.0043
G01 X2.4203 Y15.1041
G01 X2.3955 Y15.2029
G01 X2.3938 Y15.2111
G01 X2.3795 Y15.3077
G01 X2.3787 Y15.3160
G01 X2.3738 Y15.4178
G01 X2.3790 Y15.5237
G01 X2.3938 Y15.6245
G01 X2.3955 Y15.6327
G01 X2.4203 Y15.7315
G01 X2.4557 Y15.8305
G01 X0.6042 Y17.6588
G01 X0.5867 Y17.6782
G01 X0.5801 Y17.6863
G01 X0.5633 Y17.7091
G01 X0.5575 Y17.7177
G01 X0.5430 Y17.7421
G01 X0.5380 Y17.7513
G01 X0.5260 Y17.7769
G01 X0.5220 Y17.7865
G01 X0.5125 Y17.8132
G01 X0.5094 Y17.8232
G01 X0.5026 Y17.8507
G01 X0.5006 Y17.8609
G01 X0.4965 Y17.8890
G01 X0.4954 Y17.8994
G01 X0.4941 Y17.9277
G01 X0.4941 Y17.9379
G00 Z1.0000
G00 X4.1763 Y23.8403
G01 F90.00
G01 Z-0.1000
G01 F150.00
G01 X7.4956 Y25.5000
G01 X7.4919 Y25.5778
G01 X7.4969 Y25.6800
G01 X7.5119 Y25.7812
G01 X7.5357 Y25.8764
G01 X7.5381 Y25.8844
G01 X7.5698 Y25.9729
G01 X7.5729 Y25.9806
G01 X7.6150 Y26.0692
G01 X7.6654 Y26.1535
G01 X7.6700 Y26.1604
G01 X7.7260 Y26.2359
G01 X7.7313 Y26.2423
G01 X7.7972 Y26.3150
G01 X7.8730 Y26.3837
G01 X7.9552 Y26.4446
G01 X8.0393 Y26.4951
G01 X8.0467 Y26.4991
G01 X8.1355 Y26.5409
G01 X8.2318 Y26.5754
G01 X8.3310 Y26.6003
G01 X8.4322 Y26.6153
G01 X8.5344 Y26.6203
G01 X8.6366 Y26.6153
G01 X8.7378 Y26.6003
G01 X8.8370 Y26.5754
G01 X8.9333 Y26.5409
G01 X9.0258 Y26.4972
G01 X9.1136 Y26.4446
G01 X9.1958 Y26.3837
G01 X9.2716 Y26.3150
G01 X9.3403 Y26.2392
G01 X9.4012 Y26.1570
G01 X9.4538 Y26.0692
G01 X9.4975 Y25.9767
G01 X9.5320 Y25.8804
G01 X9.5569 Y25.7812
G01 X9.5719 Y25.6800
G01 X9.5768 Y25.5820
G01 X9.5768 Y25.5736
G01 X9.5722 Y25.4798
G01 X9.5714 Y25.4715
G01 X9.5569 Y25.3744
G01 X9.5331 Y25.2792
G01 X9.5307 Y25.2712
G01 X9.4975 Y25.1789
G01 X9.4538 Y25.0864
G01 X9.4012 Y24.9986
G01 X9.3403 Y24.9164
G01 X9.2716 Y24.8406
G01 X9.1958 Y24.7719
G01 X9.1136 Y24.7110
G01 X9.0278 Y24.6595
G01 X8.9372 Y24.6163
G01 X8.9295 Y24.6132
G01 X8.8370 Y24.5802
G01 X8.7378 Y24.5553
G01 X8.6366 Y24.5403
G01 X8.5386 Y24.5354
G01 X8.5302 Y24.5354
G01 X8.4300 Y24.5406
G01 X8.3310 Y24.5553
G01 X8.2358 Y24.5791
G01 X8.2278 Y24.5815
G01 X8.1334 Y24.6155
G01 X8.0430 Y24.6584
G01 X7.9571 Y24.7098
G01 X7.8748 Y24.7706
G01 X7.8490 Y24.7936
G01 X4.5304 Y23.1342
G01 X4.5350 Y23.0378
G01 X4.5301 Y22.9360
G01 X4.5293 Y22.9277
G01 X4.5142 Y22.8270
G01 X4.4896 Y22.7281
G01 X4.4872 Y22.7202
G01 X4.4527 Y22.6243
G01 X4.4074 Y22.5284
G01 X4.3551 Y22.4410
G01 X4.3505 Y22.4340
G01 X4.2897 Y22.3523
G01 X4.2185 Y22.2737
G01 X4.1399 Y22.2025
G01 X4.0582 Y22.1417
G01 X4.0512 Y22.1371
G01 X3.9618 Y22.0838
G01 X3.8679 Y22.0395
G01 X3.7720 Y22.0050
G01 X3.7641 Y22.0026
G01 X3.6652 Y21.9780
G01 X3.5603 Y21.9624
G01 X3.4586 Y21.9573
G01 X3.4502 Y21.9573
G01 X3.3485 Y21.9624
G01 X3.2477 Y21.9772
G01 X3.2395 Y21.9789
G01 X3.1407 Y22.0037
G01 X3.0409 Y22.0395
G01 X2.9450 Y22.0848
G01 X2.8576 Y22.1371
G01 X2.8506 Y22.1417
G01 X2.7672 Y22.2039
G01 X2.6903 Y22.2737
G01 X2.6191 Y22.3523
G01 X2.5559 Y22.4375
G01 X2.5014 Y22.5284
G01 X2.4561 Y22.6243
G01 X2.4203 Y22.7241
G01 X2.3946 Y22.8270
G01 X2.3790 Y22.9319
G01 X2.3738 Y23.0378
G01 X2.3790 Y23.1437
G01 X2.3946 Y23.2486
G01 X2.4203 Y23.3515
G01 X2.4561 Y23.4513
G01 X2.5014 Y23.5472
G01 X2.5559 Y23.6381
G01 X2.6205 Y23.7250
G01 X2.6903 Y23.8019
G01 X2.7689 Y23.8731
G01 X2.8541 Y23.9363
G01 X2.9450 Y23.9908
G01 X3.0409 Y24.0361
G01 X3.1407 Y24.0719
G01 X3.2436 Y24.0976
G01 X3.3507 Y24.1134
G01 X3.4544 Y24.1184
G01 X3.5603 Y24.1132
G01 X3.6652 Y24.0976
G01 X3.7702 Y24.0712
G01 X3.8679 Y24.0361
G01 X3.9657 Y23.9897
G01 X4.0566 Y23.9350
G01 X4.1382 Y23.8745
G01 X4.1763 Y23.8403
G00 X4.1763 Y23.8403
G01 F90.00
G01 Z-0.2000
G01 F150.00
G01 X7.4956 Y25.5000
G01 X7.4919 Y25.5778
G01 X7.4969 Y25.6800
G01 X7.5119 Y25.7812
G01 X7.5357 Y25.8764
G01 X7.5381 Y25.8844
G01 X7.5698 Y25.9729
G01 X7.5729 Y25.9806
G01 X7.6150 Y26.0692
G01 X7.6654 Y26.1535
G01 X7.6700 Y26.1604
G01 X7.7260 Y26.2359
G01 X7.7313 Y26.2423
G01 X7.7972 Y26.3150
G01 X7.8730 Y26.3837
G01 X7.9552 Y26.4446
G01 X8.0393 Y26.4951
G01 X8.0467 Y26.4991
G01 X8.1355 Y26.5409
G01 X8.2318 Y26.5754
G01 X8.3310 Y26.6003
G01 X8.4322 Y26.6153
G01 X8.5344 Y26.6203
G01 X8.6366 Y26.6153
G01 X8.7378 Y26.6003
G01 X8.8370 Y26.5754
G01 X8.9333 Y26.5409
G01 X9.0258 Y26.4972
G01 X9.1136 Y26.4446
G01 X9.1958 Y26.3837
G01 X9.2716 Y26.3150
G01 X9.3403 Y26.2392
G01 X9.4012 Y26.1570
G01 X9.4538 Y26.0692
G01 X9.4975 Y25.9767
G01 X9.5320 Y25.8804
G01 X9.5569 Y25.7812
G01 X9.5719 Y25.6800
G01 X9.5768 Y25.5820
G01 X9.5768 Y25.5736
G01 X9.5722 Y25.4798
G01 X9.5714 Y25.4715
G01 X9.5569 Y25.3744
G01 X9.5331 Y25.2792
G01 X9.5307 Y25.2712
G01 X9.4975 Y25.1789
G01 X9.4538 Y25.0864
G01 X9.4012 Y24.9986
G01 X9.3403 Y24.9164
G01 X9.2716 Y24.8406
G01 X9.1958 Y24.7719
G01 X9.1136 Y24.7110
G01 X9.0278 Y24.6595
G01 X8.9372 Y24.6163
G01 X8.9295 Y24.6132
G01 X8.8370 Y24.5802
G01 X8.7378 Y24.5553
G01 X8.6366 Y24.5403
G01 X8.5386 Y24.5354
G01 X8.5302 Y24.5354
G01 X8.4300 Y24.5406
G01 X8.3310 Y24.5553
G01 X8.2358 Y24.5791
G01 X8.2278 Y24.5815
G01 X8.1334 Y24.6155
G01 X8.0430 Y24.6584
G01 X7.9571 Y24.7098
G01 X7.8748 Y24.7706
G01 X7.8490 Y24.7936
G01 X4.5304 Y23.1342
G01 X4.5350 Y23.0378
G01 X4.5301 Y22.9360
G01 X4.5293 Y22.9277
G01 X4.5142 Y22.8270
G01 X4.4896 Y22.7281
G01 X4.4872 Y22.7202
G01 X4.4527 Y22.6243
G01 X4.4074 Y22.5284
G01 X4.3551 Y22.4410
G01 X4.3505 Y22.4340
G01 X4.2897 Y22.3523
G01 X4.2185 Y22.2737
G01 X4.1399 Y22.2025
G01 X4.0582 Y22.1417
G01 X4.0512 Y22.1371
G01 X3.9618 Y22.0838
G01 X3.8679 Y22.0395
G01 X3.7720 Y22.0050
G01 X3.7641 Y22.0026
G01 X3.6652 Y21.9780
G01 X3.5603 Y21.9624
G01 X3.4586 Y21.9573
G01 X3.4502 Y21.9573
G01 X3.3485 Y21.9624
G01 X3.2477 Y21.9772
G01 X3.2395 Y21.9789
G01 X3.1407 Y22.0037
G01 X3.0409 Y22.0395
G01 X2.9450 Y22.0848
G01 X2.8576 Y22.1371
G01 X2.8506 Y22.1417
G01 X2.7672 Y22.2039
G01 X2.6903 Y22.2737
G01 X2.6191 Y22.3523
G01 X2.5559 Y22.4375
G01 X2.5014 Y22.5284
G01 X2.4561 Y22.6243
G01 X2.4203 Y22.7241
G01 X2.3946 Y22.8270
G01 X2.3790 Y22.9319
G01 X2.3738 Y23.0378
G01 X2.3790 Y23.1437
G01 X2.3946 Y23.2486
G01 X2.4203 Y23.3515
G01 X2.4561 Y23.4513
G01 X2.5014 Y23.5472
G01 X2.5559 Y23.6381
G01 X2.6205 Y23.7250
G01 X2.6903 Y23.8019
G01 X2.7689 Y23.8731
G01 X2.8541 Y23.9363
G01 X2.9450 Y23.9908
G01 X3.0409 Y24.0361
G01 X3.1407 Y24.0719
G01 X3.2436 Y24.0976
G01 X3.3507 Y24.1134
G01 X3.4544 Y24.1184
G01 X3.5603 Y24.1132
G01 X3.6652 Y24.0976
G01 X3.7702 Y24.0712
G01 X3.8679 Y24.0361
G01 X3.9657 Y23.9897
G01 X4.0566 Y23.9350
G01 X4.1382 Y23.8745
G01 X4.1763 Y23.8403
G00 Z1.0000
G00 X3.8858 Y26.5678
G01 F90.00
G01 Z-0.1000
G01 F150.00
G01 X5.7167 Y28.3986
G01 X5.7407 Y28.4204
G01 X5.7471 Y28.4257
G01 X5.7750 Y28.4462
G01 X5.8046 Y28.4641
G01 X5.8119 Y28.4680
G01 X5.8433 Y28.4827
G01 X5.8819 Y28.4964
G01 X5.9173 Y28.5052
G01 X5.9515 Y28.5103
G01 X5.9598 Y28.5112
G01 X5.9942 Y28.5127
G01 X10.9108 Y28.5128
G01 X15.8767 Y33.4786
G01 X15.9038 Y33.5031
G01 X15.9350 Y33.5262
G01 X15.9682 Y33.5461
G01 X15.9994 Y33.5610
G01 X16.0071 Y33.5642
G01 X16.0358 Y33.5744
G01 X16.0438 Y33.5769
G01 X16.0773 Y33.5852
G01 X16.1179 Y33.5910
G01 X16.1542 Y33.5927
G01 X26.3146 Y33.5927
G01 X26.3283 Y33.5925
G01 X26.3531 Y33.5909
G01 X26.3669 Y33.5892
G01 X26.3915 Y33.5852
G01 X26.4050 Y33.5822
G01 X26.4290 Y33.5757
G01 X26.4422 Y33.5715
G01 X26.4635 Y33.5635
G01 X26.4783 Y33.5571
G01 X26.4986 Y33.5471
G01 X26.5127 Y33.5393
G01 X26.5320 Y33.5274
G01 X26.5434 Y33.5196
G01 X26.5632 Y33.5045
G01 X26.5755 Y33.4941
G01 X26.5921 Y33.4786
G01 X26.6018 Y33.4687
G01 X26.6183 Y33.4500
G01 X26.6270 Y33.4392
G01 X26.6440 Y33.4154
G01 X26.6503 Y33.4055
G01 X26.6627 Y33.3840
G01 X28.8144 Y29.0559
G01 X28.8566 Y29.0578
G01 X28.9487 Y29.0530
G01 X29.0378 Y29.0397
G01 X29.1294 Y29.0167
G01 X29.2141 Y28.9862
G01 X29.2975 Y28.9468
G01 X29.3766 Y28.8994
G01 X29.4524 Y28.8430
G01 X29.5191 Y28.7825
G01 X29.5810 Y28.7141
G01 X29.6360 Y28.6400
G01 X29.6834 Y28.5609
G01 X29.7228 Y28.4775
G01 X29.7539 Y28.3907
G01 X29.7763 Y28.3012
G01 X29.7901 Y28.2077
G01 X29.7944 Y28.1178
G01 X29.7902 Y28.0298
G01 X29.7894 Y28.0215
G01 X29.7771 Y27.9385
G01 X29.7754 Y27.9303
G01 X29.7539 Y27.8449
G01 X29.7228 Y27.7581
G01 X29.6834 Y27.6747
G01 X29.6382 Y27.5991
G01 X29.6336 Y27.5922
G01 X29.5836 Y27.5248
G01 X29.5783 Y27.5183
G01 X29.5191 Y27.4531
G01 X29.4507 Y27.3912
G01 X29.3800 Y27.3386
G01 X29.3731 Y27.3340
G01 X29.2975 Y27.2888
G01 X29.2141 Y27.2494
G01 X29.1312 Y27.2196
G01 X29.1232 Y27.2172
G01 X29.0378 Y27.1959
G01 X28.9465 Y27.1823
G01 X28.8544 Y27.1778
G01 X28.7664 Y27.1820
G01 X28.7581 Y27.1828
G01 X28.6751 Y27.1951
G01 X28.6669 Y27.1968
G01 X28.5815 Y27.2183
G01 X28.4947 Y27.2494
G01 X28.4113 Y27.2888
G01 X28.3357 Y27.3340
G01 X28.3288 Y27.3386
G01 X28.2614 Y27.3886
G01 X28.2549 Y27.3939
G01 X28.1897 Y27.4531
G01 X28.1278 Y27.5215
G01 X28.0728 Y27.5956
G01 X28.0274 Y27.6711
G01 X28.0235 Y27.6784
G01 X27.9876 Y27.7543
G01 X27.9845 Y27.7620
G01 X27.9549 Y27.8449
G01 X27.9325 Y27.9344
G01 X27.9189 Y28.0257
G01 X27.9144 Y28.1156
G01 X27.9186 Y28.2058
G01 X27.9194 Y28.2141
G01 X27.9325 Y28.3012
G01 X27.9555 Y28.3928
G01 X27.9860 Y28.4775
G01 X28.0254 Y28.5609
G01 X28.0728 Y28.6400
G01 X28.1124 Y28.6936
G01 X26.0697 Y32.8029
G01 X16.3180 Y32.8028
G01 X11.3535 Y27.8384
G01 X11.3250 Y27.8125
G01 X11.2972 Y27.7918
G01 X11.2903 Y27.7872
G01 X11.2586 Y27.7685
G01 X11.2294 Y27.7546
G01 X11.2217 Y27.7514
G01 X11.1890 Y27.7399
G01 X11.1555 Y27.7313
G01 X11.1473 Y27.7297
G01 X11.1131 Y27.7247
G01 X11.0746 Y27.7229
G01 X6.1580 Y27.7228
G01 X4.4444 Y26.0092
G01 X4.4519 Y25.9934
G01 X4.4542 Y25.9874
G01 X4.4872 Y25.8954
G01 X4.4896 Y25.8875
G01 X4.5142 Y25.7886
G01 X4.5298 Y25.6837
G01 X4.5349 Y25.5820
G01 X4.5349 Y25.5736
G01 X4.5298 Y25.4719
G01 X4.5142 Y25.3670
G01 X4.4885 Y25.2641
G01 X4.4542 Y25.1682
G01 X4.4511 Y25.1605
G01 X4.4074 Y25.0684
G01 X4.3529 Y24.9775
G01 X4.2923 Y24.8956
G01 X4.2870 Y24.8891
G01 X4.2185 Y24.8137
G01 X4.1431 Y24.7452
G01 X4.1366 Y24.7399
G01 X4.0547 Y24.6793
G01 X3.9638 Y24.6248
G01 X3.8679 Y24.5795
G01 X3.7720 Y24.5450
G01 X3.7641 Y24.5426
G01 X3.6652 Y24.5180
G01 X3.5603 Y24.5024
G01 X3.4586 Y24.4973
G01 X3.4502 Y24.4973
G01 X3.3485 Y24.5024
G01 X3.2477 Y24.5172
G01 X3.2395 Y24.5189
G01 X3.1407 Y24.5437
G01 X3.0409 Y24.5795
G01 X2.9450 Y24.6248
G01 X2.8541 Y24.6793
G01 X2.7689 Y24.7425
G01 X2.6903 Y24.8137
G01 X2.6191 Y24.8923
G01 X2.5559 Y24.9775
G01 X2.5014 Y25.0684
G01 X2.4561 Y25.1643
G01 X2.4203 Y25.2641
G01 X2.3946 Y25.3670
G01 X2.3790 Y25.4719
G01 X2.3738 Y25.5778
G01 X2.3790 Y25.6837
G01 X2.3946 Y25.7886
G01 X2.4203 Y25.8915
G01 X2.4561 Y25.9913
G01 X2.5014 Y26.0872
G01 X2.5559 Y26.1781
G01 X2.6191 Y26.2633
G01 X2.6903 Y26.3419
G01 X2.7689 Y26.4131
G01 X2.8541 Y26.4763
G01 X2.9450 Y26.5308
G01 X3.0409 Y26.5761
G01 X3.1407 Y26.6119
G01 X3.2436 Y26.6376
G01 X3.3485 Y26.6532
G01 X3.4544 Y26.6584
G01 X3.5603 Y26.6532
G01 X3.6652 Y26.6376
G01 X3.7681 Y26.6119
G01 X3.8659 Y26.5770
G01 X3.8858 Y26.5678
G00 X3.8858 Y26.5678
G01 F90.00
G01 Z-0.2000
G01 F150.00
G01 X5.7167 Y28.3986
G01 X5.7407 Y28.4204
G01 X5.7471 Y28.4257
G01 X5.7750 Y28.4462
G01 X5.8046 Y28.4641
G01 X5.8119 Y28.4680
G01 X5.8433 Y28.4827
G01 X5.8819 Y28.4964
G01 X5.9173 Y28.5052
G01 X5.9515 Y28.5103
G01 X5.9598 Y28.5112
G01 X5.9942 Y28.5127
G01 X10.9108 Y28.5128
G01 X15.8767 Y33.4786
G01 X15.9038 Y33.5031
G01 X15.9350 Y33.5262
G01 X15.9682 Y33.5461
G01 X15.9994 Y33.5610
G01 X16.0071 Y33.5642
G01 X16.0358 Y33.5744
G01 X16.0438 Y33.5769
G01 X16.0773 Y33.5852
G01 X16.1179 Y33.5910
G01 X16.1542 Y33.5927
G01 X26.3146 Y33.5927
G01 X26.3283 Y33.5925
G01 X26.3531 Y33.5909
G01 X26.3669 Y33.5892
G01 X26.3915 Y33.5852
G01 X26.4050 Y33.5822
G01 X26.4290 Y33.5757
G01 X26.4422 Y33.5715
G01 X26.4635 Y33.5635
G01 X26.4783 Y33.5571
G01 X26.4986 Y33.5471
G01 X26.5127 Y33.5393
G01 X26.5320 Y33.5274
G01 X26.5434 Y33.5196
G01 X26.5632 Y33.5045
G01 X26.5755 Y33.4941
G01 X26.5921 Y33.4786
G01 X26.6018 Y33.4687
G01 X26.6183 Y33.4500
G01 X26.6270 Y33.4392
G01 X26.6440 Y33.4154
G01 X26.6503 Y33.4055
G01 X26.6627 Y33.3840
G01 X28.8144 Y29.0559
G01 X28.8566 Y29.0578
G01 X28.9487 Y29.0530
G01 X29.0378 Y29.0397
G01 X29.1294 Y29.0167
G01 X29.2141 Y28.9862
G01 X29.2975 Y28.9468
G01 X29.3766 Y28.8994
G01 X29.4524 Y28.8430
G01 X29.5191 Y28.7825
G01 X29.5810 Y28.7141
G01 X29.6360 Y28.6400
G01 X29.6834 Y28.5609
G01 X29.7228 Y28.4775
G01 X29.7539 Y28.3907
G01 X29.7763 Y28.3012
G01 X29.7901 Y28.2077
G01 X29.7944 Y28.1178
G01 X29.7902 Y28.0298
G01 X29.7894 Y28.0215
G01 X29.7771 Y27.9385
G01 X29.7754 Y27.9303
G01 X29.7539 Y27.8449
G01 X29.7228 Y27.7581
G01 X29.6834 Y27.6747
G01 X29.6382 Y27.5991
G01 X29.6336 Y27.5922
G01 X29.5836 Y27.5248
G01 X29.5783 Y27.5183
G01 X29.5191 Y27.4531
G01 X29.4507 Y27.3912
G01 X29.3800 Y27.3386
G01 X29.3731 Y27.3340
G01 X29.2975 Y27.2888
G01 X29.2141 Y27.2494
G01 X29.1312 Y27.2196
G01 X29.1232 Y27.2172
G01 X29.0378 Y27.1959
G01 X28.9465 Y27.1823
G01 X28.8544 Y27.1778
G01 X28.7664 Y27.1820
G01 X28.7581 Y27.1828
G01 X28.6751 Y27.1951
G01 X28.6669 Y27.1968
G01 X28.5815 Y27.2183
G01 X28.4947 Y27.2494
G01 X28.4113 Y27.2888
G01 X28.3357 Y27.3340
G01 X28.3288 Y27.3386
G01 X28.2614 Y27.3886
G01 X28.2549 Y27.3939
G01 X28.1897 Y27.4531
G01 X28.1278 Y27.5215
G01 X28.0728 Y27.5956
G01 X28.0274 Y27.6711
G01 X28.0235 Y27.6784
G01 X27.9876 Y27.7543
G01 X27.9845 Y27.7620
G01 X27.9549 Y27.8449
G01 X27.9325 Y27.9344
G01 X27.9189 Y28.0257
G01 X27.9144 Y28.1156
G01 X27.9186 Y28.2058
G01 X27.9194 Y28.2141
G01 X27.9325 Y28.3012
G01 X27.9555 Y28.3928
G01 X27.9860 Y28.4775
G01 X28.0254 Y28.5609
G01 X28.0728 Y28.6400
G01 X28.1124 Y28.6936
G01 X26.0697 Y32.8029
G01 X16.3180 Y32.8028
G01 X11.3535 Y27.8384
G01 X11.3250 Y27.8125
G01 X11.2972 Y27.7918
G01 X11.2903 Y27.7872
G01 X11.2586 Y27.7685
G01 X11.2294 Y27.7546
G01 X11.2217 Y27.7514
G01 X11.1890 Y27.7399
G01 X11.1555 Y27.7313
G01 X11.1473 Y27.7297
G01 X11.1131 Y27.7247
G01 X11.0746 Y27.7229
G01 X6.1580 Y27.7228
G01 X4.4444 Y26.0092
G01 X4.4519 Y25.9934
G01 X4.4542 Y25.9874
G01 X4.4872 Y25.8954
G01 X4.4896 Y25.8875
G01 X4.5142 Y25.7886
G01 X4.5298 Y25.6837
G01 X4.5349 Y25.5820
G01 X4.5349 Y25.5736
G01 X4.5298 Y25.4719
G01 X4.5142 Y25.3670
G01 X4.4885 Y25.2641
G01 X4.4542 Y25.1682
G01 X4.4511 Y25.1605
G01 X4.4074 Y25.0684
G01 X4.3529 Y24.9775
G01 X4.2923 Y24.8956
G01 X4.2870 Y24.8891
G01 X4.2185 Y24.8137
G01 X4.1431 Y24.7452
G01 X4.1366 Y24.7399
G01 X4.0547 Y24.6793
G01 X3.9638 Y24.6248
G01 X3.8679 Y24.5795
G01 X3.7720 Y24.5450
G01 X3.7641 Y24.5426
G01 X3.6652 Y24.5180
G01 X3.5603 Y24.5024
G01 X3.4586 Y24.4973
G01 X3.4502 Y24.4973
G01 X3.3485 Y24.5024
G01 X3.2477 Y24.5172
G01 X3.2395 Y24.5189
G01 X3.1407 Y24.5437
G01 X3.0409 Y24.5795
G01 X2.9450 Y24.6248
G01 X2.8541 Y24.6793
G01 X2.7689 Y24.7425
G01 X2.6903 Y24.8137
G01 X2.6191 Y24.8923
G01 X2.5559 Y24.9775
G01 X2.5014 Y25.0684
G01 X2.4561 Y25.1643
G01 X2.4203 Y25.2641
G01 X2.3946 Y25.3670
G01 X2.3790 Y25.4719
G01 X2.3738 Y25.5778
G01 X2.3790 Y25.6837
G01 X2.3946 Y25.7886
G01 X2.4203 Y25.8915
G01 X2.4561 Y25.9913
G01 X2.5014 Y26.0872
G01 X2.5559 Y26.1781
G01 X2.6191 Y26.2633
G01 X2.6903 Y26.3419
G01 X2.7689 Y26.4131
G01 X2.8541 Y26.4763
G01 X2.9450 Y26.5308
G01 X3.0409 Y26.5761
G01 X3.1407 Y26.6119
G01 X3.2436 Y26.6376
G01 X3.3485 Y26.6532
G01 X3.4544 Y26.6584
G01 X3.5603 Y26.6532
G01 X3.6652 Y26.6376
G01 X3.7681 Y26.6119
G01 X3.8659 Y26.5770
G01 X3.8858 Y26.5678
G00 Z1.0000
G00 X7.5817 Y24.0803
G01 F90.00
G01 Z-0.1000
G01 F150.00
G01 X9.4891 Y24.0803
G01 X9.4979 Y24.0796
G01 X9.5045 Y24.0786
G01 X9.5172 Y24.0750
G01 X9.5254 Y24.0717
G01 X9.5313 Y24.0686
G01 X9.5423 Y24.0613
G01 X9.5521 Y24.0524
G01 X9.5565 Y24.0474
G01 X9.5617 Y24.0403
G01 X9.5652 Y24.0347
G01 X9.5692 Y24.0268
G01 X9.5736 Y24.0143
G01 X9.5759 Y24.0035
G01 X9.5769 Y23.9905
G01 X9.5769 Y22.0851
G01 X9.5765 Y22.0765
G01 X9.5756 Y22.0699
G01 X9.5724 Y22.0571
G01 X9.5673 Y22.0448
G01 X9.5605 Y22.0335
G01 X9.5521 Y22.0232
G01 X9.5423 Y22.0143
G01 X9.5313 Y22.0070
G01 X9.5193 Y22.0013
G01 X9.5066 Y21.9975
G01 X9.4957 Y21.9957
G01 X9.4871 Y21.9953
G01 X8.9294 Y21.9953
G01 X8.9294 Y21.4625
G01 X8.9372 Y21.4593
G01 X9.0221 Y21.4191
G01 X9.0295 Y21.4151
G01 X9.1136 Y21.3646
G01 X9.1925 Y21.3062
G01 X9.1989 Y21.3009
G01 X9.2716 Y21.2350
G01 X9.3403 Y21.1592
G01 X9.4012 Y21.0770
G01 X9.4538 Y20.9892
G01 X9.4975 Y20.8967
G01 X9.5307 Y20.8044
G01 X9.5331 Y20.7964
G01 X9.5560 Y20.7053
G01 X9.5576 Y20.6971
G01 X9.5719 Y20.6000
G01 X9.5769 Y20.4978
G01 X9.5719 Y20.3956
G01 X9.5573 Y20.2966
G01 X9.5331 Y20.1992
G01 X9.5307 Y20.1912
G01 X9.4975 Y20.0989
G01 X9.4557 Y20.0101
G01 X9.4517 Y20.0027
G01 X9.4012 Y19.9186
G01 X9.3428 Y19.8397
G01 X9.3375 Y19.8333
G01 X9.2716 Y19.7606
G01 X9.1989 Y19.6947
G01 X9.1925 Y19.6894
G01 X9.1136 Y19.6310
G01 X9.0258 Y19.5784
G01 X8.9372 Y19.5363
G01 X8.9295 Y19.5332
G01 X8.8349 Y19.4996
G01 X8.7378 Y19.4753
G01 X8.6366 Y19.4603
G01 X8.5344 Y19.4553
G01 X8.4322 Y19.4603
G01 X8.3310 Y19.4753
G01 X8.2318 Y19.5002
G01 X8.1355 Y19.5347
G01 X8.0430 Y19.5784
G01 X7.9552 Y19.6310
G01 X7.8730 Y19.6919
G01 X7.7972 Y19.7606
G01 X7.7285 Y19.8364
G01 X7.6676 Y19.9186
G01 X7.6150 Y20.0064
G01 X7.5713 Y20.0989
G01 X7.5362 Y20.1973
G01 X7.5119 Y20.2944
G01 X7.4969 Y20.3956
G01 X7.4919 Y20.4978
G01 X7.4969 Y20.6000
G01 X7.5119 Y20.7012
G01 X7.5368 Y20.8004
G01 X7.5713 Y20.8967
G01 X7.6131 Y20.9855
G01 X7.6171 Y20.9929
G01 X7.6676 Y21.0770
G01 X7.7285 Y21.1592
G01 X7.7972 Y21.2350
G01 X7.8699 Y21.3009
G01 X7.8763 Y21.3062
G01 X7.9552 Y21.3646
G01 X8.0393 Y21.4151
