(G-CODE GENERATED BY FLATCAM v8.993 - www.flatcam.org - Version Date: 2020/06/05)

(Name: limitswitchbuffer_copperTop.gtl_cutout_cnc)
(Type: G-code from Geometry)
(Units: MM)

(Created on Sunday, 25 July 2021 at 11:52)

(This preprocessor is the default preprocessor used by FlatCAM.)
(It is made to work with MACH3 compatible motion controllers.)

(TOOL DIAMETER: 1.1 mm)
(Feedrate_XY: 120.0 mm/min)
(Feedrate_Z: 60.0 mm/min)
(Feedrate rapids 1500.0 mm/min)

(Z_Cut: -2.1 mm)
(DepthPerCut: 0.6 mm <=>4 passes)
(Z_Move: 2.0 mm)
(Z Start: None mm)
(Z End: 15.0 mm)
(Steps per circle: 64)
(Preprocessor Geometry: default)

(X range:   -3.9659 ...   38.7893  mm)
(Y range:   -2.1371 ...   40.5927  mm)

(Spindle Speed: 1000 RPM)
G21
G90
G94



G01 F120.00
G00 Z2.0000

M03 S1000
G00 X34.2393 Y-2.1371
G01 F60.00
G01 Z-0.6000
G01 F120.00
G01 X0.5841 Y-2.1371
G01 X0.1381 Y-2.1152
G01 X-0.3036 Y-2.0497
G01 X-0.7367 Y-1.9412
G01 X-1.1572 Y-1.7908
G01 X-1.5608 Y-1.5999
G01 X-1.9438 Y-1.3703
G01 X-2.3024 Y-1.1043
G01 X-2.6333 Y-0.8045
G01 X-2.9331 Y-0.4736
G01 X-3.1991 Y-0.1150
G01 X-3.4287 Y0.2680
G01 X-3.6196 Y0.6716
G01 X-3.7700 Y1.0921
G01 X-3.8785 Y1.5252
G01 X-3.9440 Y1.9669
G01 X-3.9659 Y2.4129
G01 X-3.9659 Y36.0427
G01 X-3.9440 Y36.4887
G01 X-3.8785 Y36.9304
G01 X-3.7700 Y37.3635
G01 X-3.6196 Y37.7840
G01 X-3.4287 Y38.1876
G01 X-3.1991 Y38.5706
G01 X-2.9331 Y38.9292
G01 X-2.6333 Y39.2601
G01 X-2.3024 Y39.5599
G01 X-1.9438 Y39.8259
G01 X-1.5608 Y40.0555
G01 X-1.1572 Y40.2464
G01 X-0.7367 Y40.3968
G01 X-0.3036 Y40.5053
G01 X0.1381 Y40.5708
G01 X0.5841 Y40.5927
G01 X34.2393 Y40.5927
G01 X34.6853 Y40.5708
G01 X35.1270 Y40.5053
G01 X35.5601 Y40.3968
G01 X35.9806 Y40.2464
G01 X36.3842 Y40.0555
G01 X36.7672 Y39.8259
G01 X37.1258 Y39.5599
G01 X37.4567 Y39.2601
G01 X37.7565 Y38.9292
G01 X38.0225 Y38.5706
G01 X38.2521 Y38.1876
G01 X38.4430 Y37.7840
G01 X38.5934 Y37.3635
G01 X38.7019 Y36.9304
G01 X38.7674 Y36.4887
G01 X38.7893 Y36.0427
G01 X38.7893 Y2.4129
G01 X38.7674 Y1.9669
G01 X38.7019 Y1.5252
G01 X38.5934 Y1.0921
G01 X38.4430 Y0.6716
G01 X38.2521 Y0.2680
G01 X38.0225 Y-0.1150
G01 X37.7565 Y-0.4736
G01 X37.4567 Y-0.8045
G01 X37.1258 Y-1.1043
G01 X36.7672 Y-1.3703
G01 X36.3842 Y-1.5999
G01 X35.9806 Y-1.7908
G01 X35.5601 Y-1.9412
G01 X35.1270 Y-2.0497
G01 X34.6853 Y-2.1152
G01 X34.2393 Y-2.1371
G00 X34.2393 Y-2.1371
G01 F60.00
G01 Z-1.2000
G01 F120.00
G01 X34.6853 Y-2.1152
G01 X35.1270 Y-2.0497
G01 X35.5601 Y-1.9412
G01 X35.9806 Y-1.7908
G01 X36.3842 Y-1.5999
G01 X36.7672 Y-1.3703
G01 X37.1258 Y-1.1043
G01 X37.4567 Y-0.8045
G01 X37.7565 Y-0.4736
G01 X38.0225 Y-0.1150
G01 X38.2521 Y0.2680
G01 X38.4430 Y0.6716
G01 X38.5934 Y1.0921
G01 X38.7019 Y1.5252
G01 X38.7674 Y1.9669
G01 X38.7893 Y2.4129
G01 X38.7893 Y36.0427
G01 X38.7674 Y36.4887
G01 X38.7019 Y36.9304
G01 X38.5934 Y37.3635
G01 X38.4430 Y37.7840
G01 X38.2521 Y38.1876
G01 X38.0225 Y38.5706
G01 X37.7565 Y38.9292
G01 X37.4567 Y39.2601
G01 X37.1258 Y39.5599
G01 X36.7672 Y39.8259
G01 X36.3842 Y40.0555
G01 X35.9806 Y40.2464
G01 X35.5601 Y40.3968
G01 X35.1270 Y40.5053
G01 X34.6853 Y40.5708
G01 X34.2393 Y40.5927
G01 X0.5841 Y40.5927
G01 X0.1381 Y40.5708
G01 X-0.3036 Y40.5053
G01 X-0.7367 Y40.3968
G01 X-1.1572 Y40.2464
G01 X-1.5608 Y40.0555
G01 X-1.9438 Y39.8259
G01 X-2.3024 Y39.5599
G01 X-2.6333 Y39.2601
G01 X-2.9331 Y38.9292
G01 X-3.1991 Y38.5706
G01 X-3.4287 Y38.1876
G01 X-3.6196 Y37.7840
G01 X-3.7700 Y37.3635
G01 X-3.8785 Y36.9304
G01 X-3.9440 Y36.4887
G01 X-3.9659 Y36.0427
G01 X-3.9659 Y2.4129
G01 X-3.9440 Y1.9669
G01 X-3.8785 Y1.5252
G01 X-3.7700 Y1.0921
G01 X-3.6196 Y0.6716
G01 X-3.4287 Y0.2680
G01 X-3.1991 Y-0.1150
G01 X-2.9331 Y-0.4736
G01 X-2.6333 Y-0.8045
G01 X-2.3024 Y-1.1043
G01 X-1.9438 Y-1.3703
G01 X-1.5608 Y-1.5999
G01 X-1.1572 Y-1.7908
G01 X-0.7367 Y-1.9412
G01 X-0.3036 Y-2.0497
G01 X0.1381 Y-2.1152
G01 X0.5841 Y-2.1371
G01 X34.2393 Y-2.1371
G00 X34.2393 Y-2.1371
G01 F60.00
G01 Z-1.8000
G01 F120.00
G01 X0.5841 Y-2.1371
G01 X0.1381 Y-2.1152
G01 X-0.3036 Y-2.0497
G01 X-0.7367 Y-1.9412
G01 X-1.1572 Y-1.7908
G01 X-1.5608 Y-1.5999
G01 X-1.9438 Y-1.3703
G01 X-2.3024 Y-1.1043
G01 X-2.6333 Y-0.8045
G01 X-2.9331 Y-0.4736
G01 X-3.1991 Y-0.1150
G01 X-3.4287 Y0.2680
G01 X-3.6196 Y0.6716
G01 X-3.7700 Y1.0921
G01 X-3.8785 Y1.5252
G01 X-3.9440 Y1.9669
G01 X-3.9659 Y2.4129
G01 X-3.9659 Y36.0427
G01 X-3.9440 Y36.4887
G01 X-3.8785 Y36.9304
G01 X-3.7700 Y37.3635
G01 X-3.6196 Y37.7840
G01 X-3.4287 Y38.1876
G01 X-3.1991 Y38.5706
G01 X-2.9331 Y38.9292
G01 X-2.6333 Y39.2601
G01 X-2.3024 Y39.5599
G01 X-1.9438 Y39.8259
G01 X-1.5608 Y40.0555
G01 X-1.1572 Y40.2464
G01 X-0.7367 Y40.3968
G01 X-0.3036 Y40.5053
G01 X0.1381 Y40.5708
G01 X0.5841 Y40.5927
G01 X34.2393 Y40.5927
G01 X34.6853 Y40.5708
G01 X35.1270 Y40.5053
G01 X35.5601 Y40.3968
G01 X35.9806 Y40.2464
G01 X36.3842 Y40.0555
G01 X36.7672 Y39.8259
G01 X37.1258 Y39.5599
G01 X37.4567 Y39.2601
G01 X37.7565 Y38.9292
G01 X38.0225 Y38.5706
G01 X38.2521 Y38.1876
G01 X38.4430 Y37.7840
G01 X38.5934 Y37.3635
G01 X38.7019 Y36.9304
G01 X38.7674 Y36.4887
G01 X38.7893 Y36.0427
G01 X38.7893 Y2.4129
G01 X38.7674 Y1.9669
G01 X38.7019 Y1.5252
G01 X38.5934 Y1.0921
G01 X38.4430 Y0.6716
G01 X38.2521 Y0.2680
G01 X38.0225 Y-0.1150
G01 X37.7565 Y-0.4736
G01 X37.4567 Y-0.8045
G01 X37.1258 Y-1.1043
G01 X36.7672 Y-1.3703
G01 X36.3842 Y-1.5999
G01 X35.9806 Y-1.7908
G01 X35.5601 Y-1.9412
G01 X35.1270 Y-2.0497
G01 X34.6853 Y-2.1152
G01 X34.2393 Y-2.1371
G00 X34.2393 Y-2.1371
G01 F60.00
G01 Z-2.1000
G01 F120.00
G01 X34.6853 Y-2.1152
G01 X35.1270 Y-2.0497
G01 X35.5601 Y-1.9412
G01 X35.9806 Y-1.7908
G01 X36.3842 Y-1.5999
G01 X36.7672 Y-1.3703
G01 X37.1258 Y-1.1043
G01 X37.4567 Y-0.8045
G01 X37.7565 Y-0.4736
G01 X38.0225 Y-0.1150
G01 X38.2521 Y0.2680
G01 X38.4430 Y0.6716
G01 X38.5934 Y1.0921
G01 X38.7019 Y1.5252
G01 X38.7674 Y1.9669
G01 X38.7893 Y2.4129
G01 X38.7893 Y36.0427
G01 X38.7674 Y36.4887
G01 X38.7019 Y36.9304
G01 X38.5934 Y37.3635
G01 X38.4430 Y37.7840
G01 X38.2521 Y38.1876
G01 X38.0225 Y38.5706
G01 X37.7565 Y38.9292
G01 X37.4567 Y39.2601
G01 X37.1258 Y39.5599
G01 X36.7672 Y39.8259
G01 X36.3842 Y40.0555
G01 X35.9806 Y40.2464
G01 X35.5601 Y40.3968
G01 X35.1270 Y40.5053
G01 X34.6853 Y40.5708
G01 X34.2393 Y40.5927
G01 X0.5841 Y40.5927
G01 X0.1381 Y40.5708
G01 X-0.3036 Y40.5053
G01 X-0.7367 Y40.3968
G01 X-1.1572 Y40.2464
G01 X-1.5608 Y40.0555
G01 X-1.9438 Y39.8259
G01 X-2.3024 Y39.5599
G01 X-2.6333 Y39.2601
G01 X-2.9331 Y38.9292
G01 X-3.1991 Y38.5706
G01 X-3.4287 Y38.1876
G01 X-3.6196 Y37.7840
G01 X-3.7700 Y37.3635
G01 X-3.8785 Y36.9304
G01 X-3.9440 Y36.4887
G01 X-3.9659 Y36.0427
G01 X-3.9659 Y2.4129
G01 X-3.9440 Y1.9669
G01 X-3.8785 Y1.5252
G01 X-3.7700 Y1.0921
G01 X-3.6196 Y0.6716
G01 X-3.4287 Y0.2680
G01 X-3.1991 Y-0.1150
G01 X-2.9331 Y-0.4736
G01 X-2.6333 Y-0.8045
G01 X-2.3024 Y-1.1043
G01 X-1.9438 Y-1.3703
G01 X-1.5608 Y-1.5999
G01 X-1.1572 Y-1.7908
G01 X-0.7367 Y-1.9412
G01 X-0.3036 Y-2.0497
G01 X0.1381 Y-2.1152
G01 X0.5841 Y-2.1371
G01 X34.2393 Y-2.1371
G00 Z2.0000
M05
G00 Z2.0000
G00 Z15.00

